( pcb2gcode 1.3.2 )
( Software-independent Gcode )

G94 ( Millimeters per minute feed rate. )
G21 ( Units == Millimeters. )

G90 ( Absolute coordinates. )
S10000 ( RPM spindle speed. )
G64 P0.01000 ( set maximum deviation from commanded toolpath )
F600.00000 ( Feedrate. )

F600.00000 ( Feedrate. )
M3 ( Spindle on clockwise. )
G04 P0 ( dwell for no time -- G64 should not smooth over this point )
G00 Z5.00000 ( retract )

G00 X17.19134 Y50.23036 ( rapid move to begin. )
F300.00000
G01 Z-0.05000
G04 P0 ( dwell for no time -- G64 should not smooth over this point )
F600.00000
G01 X17.19134 Y50.23036
X17.30671 Y49.15373
X17.64339 Y48.12460
X18.18669 Y47.18795
X18.91283 Y46.38475
X19.77201 Y45.76050
X20.76032 Y45.31810
X21.81902 Y45.09085
X22.90177 Y45.08864
X23.96138 Y45.31165
X24.95145 Y45.75006
X25.82876 Y46.38475
X26.55490 Y47.18795
X27.10671 Y48.14370
X27.43923 Y49.17418
X27.55025 Y50.25127
X27.43488 Y51.32790
X27.09821 Y52.35703
X26.55490 Y53.29368
X25.82876 Y54.09688
X24.96958 Y54.72113
X23.98127 Y55.16352
X22.92257 Y55.39078
X21.83980 Y55.39296
X20.78021 Y55.16998
X19.79014 Y54.73157
X18.91283 Y54.09688
X18.18669 Y53.29368
X17.63488 Y52.33793
X17.30237 Y51.30745
X17.19134 Y50.23036
G04 P0 ( dwell for no time -- G64 should not smooth over this point )
G00 Z5.00000 ( retract )

G00 X21.28412 Y44.75184 ( rapid move to begin. )
F300.00000
G01 Z-0.05000
G04 P0 ( dwell for no time -- G64 should not smooth over this point )
F600.00000
G01 X21.28412 Y44.75184
X19.26622 Y45.58562
X17.72106 Y47.12806
X16.88380 Y49.14449
X16.88182 Y51.32754
X17.71560 Y53.34544
X19.25804 Y54.89060
X21.27447 Y55.72786
X23.45752 Y55.72984
X25.47542 Y54.89606
X27.02058 Y53.35362
X27.85784 Y51.33719
X27.85982 Y49.15414
X27.02604 Y47.13624
X25.48360 Y45.59108
X23.46717 Y44.75382
X21.28412 Y44.75184
G04 P0 ( dwell for no time -- G64 should not smooth over this point )
G00 Z5.00000 ( retract )

G00 X23.28734 Y42.86436 ( rapid move to begin. )
F300.00000
G01 Z-0.05000
G04 P0 ( dwell for no time -- G64 should not smooth over this point )
F600.00000
G01 X23.28734 Y42.86436
X23.30835 Y42.68550
X23.36608 Y42.51488
X23.45803 Y42.36002
X23.58015 Y42.22763
X23.70901 Y42.13401
X23.87266 Y42.05878
X24.04838 Y42.01920
X24.22841 Y42.01699
X24.40504 Y42.05232
X24.57045 Y42.12357
X24.71741 Y42.22763
X24.83956 Y42.36002
X24.94002 Y42.53398
X24.99359 Y42.70594
X25.01025 Y42.88527
X24.98924 Y43.06413
X24.93151 Y43.23474
X24.83956 Y43.38961
X24.71744 Y43.52199
X24.58858 Y43.61562
X24.42493 Y43.69085
X24.24921 Y43.73043
X24.06915 Y43.73261
X23.89255 Y43.69730
X23.72714 Y43.62606
X23.58018 Y43.52199
X23.45803 Y43.38961
X23.35757 Y43.21564
X23.30400 Y43.04369
X23.28734 Y42.86436
G04 P0 ( dwell for no time -- G64 should not smooth over this point )
G00 Z5.00000 ( retract )

G00 X23.91724 Y41.70457 ( rapid move to begin. )
F300.00000
G01 Z-0.05000
G04 P0 ( dwell for no time -- G64 should not smooth over this point )
F600.00000
G01 X23.91724 Y41.70457
X23.48696 Y41.88237
X23.15755 Y42.21120
X22.97904 Y42.64115
X22.97855 Y43.10642
X23.15635 Y43.53670
X23.48518 Y43.86611
X23.91513 Y44.04462
X24.38041 Y44.04511
X24.81068 Y43.86731
X25.14009 Y43.53848
X25.31861 Y43.10853
X25.31909 Y42.64326
X25.14129 Y42.21298
X24.81246 Y41.88357
X24.38251 Y41.70506
X23.91724 Y41.70457
G04 P0 ( dwell for no time -- G64 should not smooth over this point )
G00 Z5.00000 ( retract )

G00 X18.56703 Y39.04880 ( rapid move to begin. )
F300.00000
G01 Z-0.05000
G04 P0 ( dwell for no time -- G64 should not smooth over this point )
F600.00000
G01 X18.56703 Y39.04880
X17.58009 Y40.03455
X17.37110 Y40.19063
X17.12881 Y40.28730
X16.88281 Y40.31880
X13.47626 Y40.31880
X13.46488 Y40.40590
X13.12821 Y41.43503
X12.59719 Y42.35476
X11.87428 Y43.16088
X10.98147 Y43.80957
X9.99138 Y44.24798
X8.93177 Y44.47096
X7.84902 Y44.46878
X6.79032 Y44.24152
X5.80203 Y43.79913
X4.94283 Y43.17488
X4.21669 Y42.37168
X3.67339 Y41.43503
X3.33671 Y40.40590
X3.22134 Y39.32927
X3.33237 Y38.25218
X3.66488 Y37.22170
X4.21669 Y36.26595
X4.94283 Y35.46275
X5.82012 Y34.82806
X6.81021 Y34.38965
X7.86980 Y34.16664
X8.95257 Y34.16885
X10.01127 Y34.39610
X10.99956 Y34.83850
X11.85876 Y35.46275
X12.58490 Y36.26595
X13.12821 Y37.20260
X13.46488 Y38.23173
X13.47621 Y38.31880
X16.46869 Y38.31880
X17.44575 Y37.34174
X17.64194 Y37.19005
X17.88166 Y37.08711
X18.15281 Y37.04880
X32.28725 Y37.04936
X32.49482 Y37.07339
X32.67376 Y37.13153
X32.85580 Y37.23412
X33.01254 Y37.37230
X33.13713 Y37.54004
X33.22410 Y37.73003
X33.27185 Y37.95475
X33.26967 Y38.16369
X33.22410 Y38.36762
X33.13713 Y38.55761
X33.02654 Y38.70984
X32.87272 Y38.85124
X32.69286 Y38.95761
X32.49482 Y39.02426
X32.28725 Y39.04827
X18.56703 Y39.04880
G04 P0 ( dwell for no time -- G64 should not smooth over this point )
G00 Z5.00000 ( retract )

G00 X17.19134 Y30.67236 ( rapid move to begin. )
F300.00000
G01 Z-0.05000
G04 P0 ( dwell for no time -- G64 should not smooth over this point )
F600.00000
G01 X17.19134 Y30.67236
X17.21235 Y30.49350
X17.27008 Y30.32288
X17.36203 Y30.16802
X17.48415 Y30.03563
X17.61301 Y29.94201
X17.77666 Y29.86678
X17.95238 Y29.82720
X18.13241 Y29.82499
X18.30904 Y29.86032
X18.47445 Y29.93157
X18.62141 Y30.03563
X18.74356 Y30.16802
X18.84402 Y30.34198
X18.89759 Y30.51394
X18.91425 Y30.69327
X18.89324 Y30.87213
X18.83551 Y31.04274
X18.74356 Y31.19761
X18.62144 Y31.32999
X18.49258 Y31.42362
X18.32893 Y31.49885
X18.15321 Y31.53843
X17.97315 Y31.54061
X17.79655 Y31.50530
X17.63114 Y31.43406
X17.48418 Y31.32999
X17.36203 Y31.19761
X17.26157 Y31.02364
X17.20800 Y30.85169
X17.19134 Y30.67236
G04 P0 ( dwell for no time -- G64 should not smooth over this point )
G00 Z5.00000 ( retract )

G00 X18.28651 Y29.51306 ( rapid move to begin. )
F300.00000
G01 Z-0.05000
G04 P0 ( dwell for no time -- G64 should not smooth over this point )
F600.00000
G01 X18.28651 Y29.51306
X17.82124 Y29.51257
X17.39096 Y29.69037
X17.06155 Y30.01920
X16.88304 Y30.44915
X16.88255 Y30.91442
X17.06035 Y31.34470
X17.38918 Y31.67411
X17.81913 Y31.85262
X18.28441 Y31.85311
X18.71468 Y31.67531
X19.04409 Y31.34648
X19.22261 Y30.91653
X19.22309 Y30.45126
X19.04529 Y30.02098
X18.71646 Y29.69157
X18.28651 Y29.51306
G04 P0 ( dwell for no time -- G64 should not smooth over this point )
G00 Z5.00000 ( retract )

G00 X31.41534 Y26.35436 ( rapid move to begin. )
F300.00000
G01 Z-0.05000
G04 P0 ( dwell for no time -- G64 should not smooth over this point )
F600.00000
G01 X31.41534 Y26.35436
X31.43635 Y26.17550
X31.49408 Y26.00488
X31.58603 Y25.85002
X31.70815 Y25.71763
X31.83701 Y25.62401
X32.00066 Y25.54878
X32.17638 Y25.50920
X32.35641 Y25.50699
X32.53304 Y25.54232
X32.69845 Y25.61357
X32.84541 Y25.71763
X32.96756 Y25.85002
X33.06802 Y26.02398
X33.12159 Y26.19594
X33.13825 Y26.37527
X33.11724 Y26.55413
X33.05951 Y26.72474
X32.96756 Y26.87961
X32.84544 Y27.01199
X32.71658 Y27.10562
X32.55293 Y27.18085
X32.37721 Y27.22043
X32.19715 Y27.22261
X32.02055 Y27.18730
X31.85514 Y27.11606
X31.70818 Y27.01199
X31.58603 Y26.87961
X31.48557 Y26.70564
X31.43200 Y26.53369
X31.41534 Y26.35436
G04 P0 ( dwell for no time -- G64 should not smooth over this point )
G00 Z5.00000 ( retract )

G00 X36.12001 Y21.39580 ( rapid move to begin. )
F300.00000
G01 Z-0.05000
G04 P0 ( dwell for no time -- G64 should not smooth over this point )
F600.00000
G01 X36.12001 Y21.39580
X32.98389 Y24.53191
X32.78768 Y24.68358
X32.54800 Y24.78655
X32.27678 Y24.82480
X27.79102 Y24.82480
X25.14878 Y27.46703
X25.14825 Y30.18527
X25.12424 Y30.39284
X25.06610 Y30.57178
X24.95122 Y30.77074
X24.80982 Y30.92456
X24.63949 Y31.04559
X24.44772 Y31.12857
X24.24286 Y31.16987
X24.03395 Y31.16769
X23.83001 Y31.12212
X23.64002 Y31.03515
X23.48780 Y30.92456
X23.34640 Y30.77074
X23.23151 Y30.57178
X23.16903 Y30.37239
X23.14878 Y30.17480
X23.14878 Y27.05281
X23.18033 Y26.80681
X23.27700 Y26.56455
X23.44172 Y26.34575
X26.66973 Y23.11774
X26.88855 Y22.95300
X27.13084 Y22.85635
X27.37679 Y22.82480
X31.86266 Y22.82480
X34.99872 Y19.68874
X35.21754 Y19.52400
X35.45983 Y19.42735
X35.70578 Y19.39580
X44.60625 Y19.39636
X44.81382 Y19.42039
X44.99276 Y19.47853
X45.17480 Y19.58112
X45.33154 Y19.71930
X45.46657 Y19.90515
X45.54310 Y20.07703
X45.58867 Y20.28097
X45.59085 Y20.48988
X45.54955 Y20.69473
X45.46657 Y20.88650
X45.34554 Y21.05684
X45.19172 Y21.19824
X45.01186 Y21.30461
X44.79337 Y21.37561
X44.59578 Y21.39580
X36.12001 Y21.39580
G04 P0 ( dwell for no time -- G64 should not smooth over this point )
G00 Z5.00000 ( retract )

G00 X36.55066 Y17.23680 ( rapid move to begin. )
F300.00000
G01 Z-0.05000
G04 P0 ( dwell for no time -- G64 should not smooth over this point )
F600.00000
G01 X36.55066 Y17.23680
X41.71872 Y12.06874
X41.93755 Y11.90400
X42.17984 Y11.80735
X42.42578 Y11.77580
X44.59578 Y11.77580
X44.79337 Y11.79605
X44.99276 Y11.85853
X45.17480 Y11.96112
X45.34554 Y12.11482
X45.46657 Y12.28515
X45.54955 Y12.47692
X45.59085 Y12.68175
X45.58867 Y12.89069
X45.54955 Y13.07473
X45.45613 Y13.28461
X45.34554 Y13.43684
X45.19172 Y13.57824
X44.99276 Y13.69312
X44.81382 Y13.75126
X44.60625 Y13.77527
X42.84001 Y13.77580
X37.67190 Y18.94391
X37.45307 Y19.10863
X37.21078 Y19.20530
X36.96478 Y19.23680
X18.30678 Y19.23680
X18.06083 Y19.20530
X17.81854 Y19.10863
X17.59972 Y18.94391
X17.34572 Y18.68991
X17.22030 Y18.53594
X17.12350 Y18.35077
X17.06731 Y18.14950
X17.05418 Y17.94099
X17.08471 Y17.73426
X17.15753 Y17.53843
X17.28265 Y17.34574
X17.43196 Y17.19952
X17.60836 Y17.08758
X17.80419 Y17.01473
X18.01092 Y16.98420
X18.19883 Y16.99406
X18.40119 Y17.04602
X18.58837 Y17.13894
X18.71270 Y17.23680
X36.55066 Y17.23680
G04 P0 ( dwell for no time -- G64 should not smooth over this point )
G00 Z5.00000 ( retract )

G00 X41.38002 Y11.23580 ( rapid move to begin. )
F300.00000
G01 Z-0.05000
G04 P0 ( dwell for no time -- G64 should not smooth over this point )
F600.00000
G01 X41.38002 Y11.23580
X38.75190 Y13.86391
X38.55569 Y14.01558
X38.31601 Y14.11855
X38.04479 Y14.15680
X32.78478 Y14.15680
X32.56680 Y14.13226
X32.38786 Y14.07412
X32.28770 Y14.01880
X32.00053 Y14.01631
X31.96045 Y13.99701
X31.92530 Y13.94108
X31.92278 Y13.66264
X31.83106 Y13.45573
X31.78974 Y13.25088
X31.78974 Y13.06275
X31.83106 Y12.85792
X31.92278 Y12.65101
X31.92530 Y12.37255
X31.97940 Y12.30471
X32.28776 Y12.29480
X32.38786 Y12.23953
X32.56680 Y12.18139
X32.78478 Y12.15680
X37.63067 Y12.15680
X40.25873 Y9.52874
X40.45492 Y9.37705
X40.69465 Y9.27411
X40.96579 Y9.23580
X44.59578 Y9.23580
X44.79337 Y9.25605
X45.01186 Y9.32704
X45.17480 Y9.42112
X45.33154 Y9.55930
X45.45613 Y9.72704
X45.54955 Y9.93692
X45.59085 Y10.14175
X45.58867 Y10.35069
X45.54310 Y10.55462
X45.45613 Y10.74461
X45.33154 Y10.91236
X45.17480 Y11.05053
X44.99276 Y11.15312
X44.81382 Y11.21126
X44.59578 Y11.23580
X41.38002 Y11.23580
G04 P0 ( dwell for no time -- G64 should not smooth over this point )
G00 Z5.00000 ( retract )

G00 X38.56996 Y4.15580 ( rapid move to begin. )
F300.00000
G01 Z-0.05000
G04 P0 ( dwell for no time -- G64 should not smooth over this point )
F600.00000
G01 X38.56996 Y4.15580
X44.59578 Y4.15580
X44.79337 Y4.17605
X45.01186 Y4.24704
X45.19172 Y4.35342
X45.34554 Y4.49482
X45.46657 Y4.66515
X45.54955 Y4.85692
X45.59085 Y5.06175
X45.58867 Y5.27069
X45.54310 Y5.47462
X45.46657 Y5.64650
X45.33154 Y5.83236
X45.17480 Y5.97053
X45.01186 Y6.06461
X44.79337 Y6.13561
X44.59578 Y6.15580
X38.15579 Y6.15580
X37.88462 Y6.11755
X37.64495 Y6.01458
X37.44873 Y5.86291
X37.10662 Y5.52080
X32.78478 Y5.52080
X32.56680 Y5.49626
X32.38786 Y5.43812
X32.28770 Y5.38280
X32.00053 Y5.38031
X31.96045 Y5.36101
X31.92530 Y5.30508
X31.92278 Y5.02664
X31.83106 Y4.81973
X31.78974 Y4.61488
X31.79195 Y4.40597
X31.83752 Y4.20203
X31.92278 Y4.01501
X31.92278 Y3.75880
X31.94460 Y3.69647
X32.02278 Y3.65880
X32.28776 Y3.65880
X32.38786 Y3.60353
X32.56680 Y3.54539
X32.77434 Y3.52136
X37.53387 Y3.52167
X37.79204 Y3.55911
X38.03171 Y3.66208
X38.22790 Y3.81374
X38.56996 Y4.15580
G04 P0 ( dwell for no time -- G64 should not smooth over this point )
G00 Z5.00000 ( retract )

G00 X44.57335 Y3.84780 ( rapid move to begin. )
F300.00000
G01 Z-0.05000
G04 P0 ( dwell for no time -- G64 should not smooth over this point )
F600.00000
G01 X44.57335 Y3.84780
X38.77857 Y3.84696
X38.66727 Y3.81016
X38.46163 Y3.61184
X38.01967 Y3.31654
X37.49836 Y3.21280
X32.80731 Y3.21280
X32.23586 Y3.33185
X32.04412 Y3.33838
X31.87302 Y3.37054
X31.73289 Y3.46073
X31.63978 Y3.59703
X31.60236 Y3.78169
X31.59586 Y3.97178
X31.48123 Y4.52080
X31.59586 Y5.06987
X31.60236 Y5.26152
X31.63454 Y5.43264
X31.72471 Y5.57277
X31.86101 Y5.66588
X32.03551 Y5.70482
X32.11653 Y5.75839
X32.16766 Y5.84084
X32.17968 Y5.93711
X32.16251 Y6.00515
X32.12156 Y6.06893
X31.79355 Y6.39720
X31.61504 Y6.82715
X31.61455 Y7.29242
X31.79337 Y7.72514
X31.81024 Y7.81097
X31.78936 Y7.90685
X31.74994 Y7.96575
X31.66929 Y8.02166
X31.58354 Y8.03880
X13.90880 Y8.03461
X13.81205 Y7.99146
X13.74040 Y7.89852
X13.05604 Y6.24224
X11.51360 Y4.69708
X9.49717 Y3.85982
X7.31412 Y3.85784
X5.29622 Y4.69162
X3.75106 Y6.23406
X2.91380 Y8.25049
X2.91182 Y10.43354
X3.74560 Y12.45144
X5.28804 Y13.99660
X7.30447 Y14.83386
X9.48752 Y14.83584
X11.15369 Y14.14740
X11.24660 Y14.13066
X11.32158 Y14.14565
X11.40088 Y14.19670
X13.81002 Y16.60584
X14.25198 Y16.90114
X14.77301 Y17.00483
X16.74395 Y17.00483
X16.82896 Y17.02172
X16.88916 Y17.05778
X16.95896 Y17.15997
X16.96929 Y17.25664
X16.93821 Y17.34872
X16.84852 Y17.48400
X16.74923 Y17.98280
X16.84847 Y18.48163
X17.14377 Y18.92359
X17.36602 Y19.14584
X17.80798 Y19.44114
X18.32901 Y19.54483
X34.15897 Y19.54483
X34.26283 Y19.57035
X34.35262 Y19.65399
X34.37927 Y19.71831
X34.38465 Y19.79349
X34.36738 Y19.86103
X34.31950 Y19.93235
X31.80150 Y22.45033
X31.71212 Y22.50489
X31.64097 Y22.51680
X27.39930 Y22.51680
X26.87801 Y22.62049
X26.43605 Y22.91579
X23.23982 Y26.11202
X22.94452 Y26.55398
X22.84078 Y27.07529
X22.84078 Y30.15235
X22.94447 Y30.67363
X23.22707 Y31.09654
X23.64998 Y31.37914
X24.14878 Y31.47843
X24.64761 Y31.37919
X25.07052 Y31.09659
X25.35312 Y30.67368
X25.45681 Y30.15263
X25.45681 Y27.68862
X25.48150 Y27.58685
X25.52333 Y27.52815
X27.85213 Y25.19935
X27.91090 Y25.15746
X28.01261 Y25.13283
X31.30617 Y25.13283
X31.41001 Y25.15835
X31.49982 Y25.24197
X31.53132 Y25.33321
X31.51450 Y25.44926
X31.46657 Y25.52051
X31.28555 Y25.70120
X31.10704 Y26.13115
X31.10655 Y26.59642
X31.28435 Y27.02670
X31.62974 Y27.37778
X31.66759 Y27.46767
X31.66939 Y27.53821
X31.64681 Y27.61113
X31.58496 Y27.68664
X31.52344 Y27.72114
X31.36502 Y27.75456
X31.22489 Y27.84473
X31.13178 Y27.98103
X31.09436 Y28.16569
X31.08786 Y28.35578
X30.97323 Y28.90480
X31.08786 Y29.45387
X31.09436 Y29.64552
X31.12654 Y29.81664
X31.21671 Y29.95677
X31.35301 Y30.04988
X31.53741 Y30.08725
X31.72784 Y30.09380
X32.29901 Y30.21283
X36.27459 Y30.21283
X36.67840 Y30.14056
X36.77045 Y30.16665
X36.82983 Y30.21222
X36.86875 Y30.26942
X36.89069 Y30.36263
X36.87225 Y30.45644
X36.82455 Y30.52730
X35.75750 Y31.59433
X35.66811 Y31.64889
X35.59697 Y31.66080
X32.29931 Y31.66080
X31.72786 Y31.77985
X31.53612 Y31.78638
X31.36502 Y31.81854
X31.22489 Y31.90873
X31.13178 Y32.04503
X31.09436 Y32.22969
X31.08786 Y32.41978
X30.97323 Y32.96880
X31.08786 Y33.51787
X31.09436 Y33.70952
X31.12654 Y33.88064
X31.21671 Y34.02077
X31.48021 Y34.17967
X31.52078 Y34.23621
X31.54498 Y34.32928
X31.53551 Y34.40403
X31.50544 Y34.46669
X31.35565 Y34.58625
X31.07252 Y35.01000
X30.97323 Y35.50880
X31.07247 Y36.00763
X31.32644 Y36.38772
X31.35964 Y36.46780
X31.35855 Y36.56493
X31.33226 Y36.63011
X31.26576 Y36.70085
X31.17567 Y36.73730
X18.17531 Y36.74080
X17.65403 Y36.84449
X17.21207 Y37.13979
X16.40750 Y37.94433
X16.31812 Y37.99889
X16.24697 Y38.01080
X13.90880 Y38.00661
X13.81205 Y37.96346
X13.74040 Y37.87052
X13.05604 Y36.21424
X11.51360 Y34.66908
X9.49717 Y33.83182
X7.31412 Y33.82984
X5.29622 Y34.66362
X3.75106 Y36.20606
X2.91380 Y38.22249
X2.91182 Y40.40554
X3.74560 Y42.42344
X5.28804 Y43.96860
X7.30447 Y44.80586
X9.48752 Y44.80784
X11.50542 Y43.97406
X13.05063 Y42.43157
X13.74192 Y40.76680
X13.79572 Y40.68931
X13.88728 Y40.63653
X16.86061 Y40.62683
X17.38161 Y40.52319
X17.82357 Y40.22789
X18.62814 Y39.42335
X18.68692 Y39.38146
X18.77551 Y39.35769
X32.25458 Y39.35683
X32.77561 Y39.25319
X33.19852 Y38.97059
X33.48112 Y38.54768
X33.58041 Y38.04885
X33.48117 Y37.55005
X33.22720 Y37.16996
X33.19403 Y37.08998
X33.19055 Y37.01975
X33.21120 Y36.94662
X33.25082 Y36.88855
X33.31135 Y36.84276
X33.41592 Y36.81683
X36.91899 Y36.82203
X37.03352 Y36.88335
X47.49032 Y47.34609
X47.52816 Y47.44495
X47.51313 Y47.56136
X46.85577 Y49.14451
X46.85382 Y51.32754
X47.68760 Y53.34544
X49.23004 Y54.89060
X51.24647 Y55.72786
X53.42952 Y55.72984
X55.44742 Y54.89606
X56.99258 Y53.35362
X57.82984 Y51.33719
X57.83182 Y49.15414
X56.99804 Y47.13624
X55.45560 Y45.59108
X53.43917 Y44.75382
X51.25612 Y44.75184
X49.51779 Y45.47010
X49.40151 Y45.48496
X49.30281 Y45.44711
X38.44962 Y34.59984
X38.00766 Y34.30454
X37.48523 Y34.20057
X37.31436 Y34.18427
X37.22054 Y34.11406
X37.17837 Y34.02740
X37.18279 Y33.90466
X37.23814 Y33.81333
X41.69729 Y29.36152
X41.82162 Y29.32383
X44.57358 Y29.32383
X45.09461 Y29.22019
X45.51752 Y28.93759
X45.80012 Y28.51468
X45.89941 Y28.01585
X45.80017 Y27.51705
X45.51757 Y27.09411
X45.09990 Y26.81072
X45.04524 Y26.73038
X45.02954 Y26.66188
X45.03701 Y26.58626
X45.08217 Y26.50018
X45.13515 Y26.45406
X45.22174 Y26.41446
X45.53330 Y26.10346
X45.70211 Y25.69683
X45.70259 Y25.25678
X45.53444 Y24.84989
X45.22342 Y24.53834
X45.13462 Y24.49767
X45.08171 Y24.45150
X45.04328 Y24.38591
X45.02923 Y24.28980
X45.04498 Y24.22137
X45.09959 Y24.14113
X45.51755 Y23.85759
X45.80012 Y23.43468
X45.89941 Y22.93585
X45.80017 Y22.43705
X45.51760 Y22.01414
X45.23391 Y21.81452
X45.18709 Y21.72834
X45.17871 Y21.65198
X45.20576 Y21.55767
X45.24894 Y21.50141
X45.51752 Y21.31759
X45.80012 Y20.89468
X45.89941 Y20.39585
X45.80017 Y19.89705
X45.52022 Y19.46339
X45.50955 Y19.36675
X45.54031 Y19.27470
X45.60688 Y19.20383
X45.72408 Y19.16443
X46.54597 Y19.16903
X46.66050 Y19.23035
X47.15831 Y19.72816
X47.20020 Y19.78694
X47.22478 Y19.88864
X47.22478 Y35.99435
X47.32847 Y36.51563
X47.62377 Y36.95759
X59.40302 Y48.73684
X59.84498 Y49.03214
X60.36601 Y49.13583
X64.51258 Y49.13583
X65.03361 Y49.03219
X65.45754 Y48.74893
X65.56066 Y48.62325
X65.64911 Y48.58683
X65.71832 Y48.58513
X65.78990 Y48.60684
X65.94235 Y48.74380
X66.22421 Y48.74380
X66.22673 Y48.32498
X66.24603 Y48.28490
X66.30196 Y48.24975
X67.82535 Y48.24723
X67.88771 Y48.26905
X67.92535 Y48.34723
X67.92286 Y49.87065
X67.90356 Y49.91073
X67.84763 Y49.94588
X67.42878 Y49.94837
X67.42878 Y50.23062
X67.45454 Y50.25637
X67.86531 Y50.26021
X67.95814 Y50.29940
X68.00981 Y50.35106
X68.04400 Y50.42211
X68.04763 Y50.66689
X67.98631 Y50.78152
X67.43582 Y51.33204
X67.14052 Y51.77400
X67.03678 Y52.29528
X67.03678 Y54.46858
X67.01911 Y54.55560
X66.94456 Y54.65088
X66.82566 Y54.69469
X66.54397 Y54.64638
X65.06412 Y54.64638
X64.89302 Y54.67854
X64.75289 Y54.76873
X64.65978 Y54.90503
X64.62236 Y55.08969
X64.62236 Y56.56952
X64.65454 Y56.74064
X64.74471 Y56.88077
X64.88101 Y56.97388
X65.06541 Y57.01125
X66.54575 Y57.01125
X66.71662 Y56.97912
X66.85675 Y56.88895
X67.01565 Y56.62545
X67.07219 Y56.58488
X67.16526 Y56.56068
X67.24001 Y56.57015
X67.30267 Y56.60022
X67.42304 Y56.75054
X67.84598 Y57.03314
X68.34478 Y57.13243
X68.84361 Y57.03319
X69.26655 Y56.75059
X69.47747 Y56.43495
X69.53678 Y56.37495
X69.59812 Y56.34483
X69.67140 Y56.33441
X69.83800 Y56.37503
X70.08128 Y56.13177
X70.04000 Y55.99769
X70.02334 Y55.83927
X70.04435 Y55.63950
X70.09357 Y55.48798
X70.18174 Y55.33094
X70.31615 Y55.18163
X70.44501 Y55.08801
X70.60866 Y55.01278
X70.78438 Y54.97320
X70.98521 Y54.97320
X71.18813 Y55.02489
X71.43037 Y54.78270
X71.05880 Y54.64864
X70.58809 Y54.67219
X70.34173 Y54.77424
X70.29863 Y54.92210
X70.25900 Y54.99289
X70.20234 Y55.04204
X70.10391 Y55.07437
X70.02314 Y55.06688
X69.95761 Y55.03564
X69.87432 Y55.04961
X69.78072 Y55.02685
X69.69218 Y54.95014
X69.65339 Y54.83373
X69.65281 Y52.90864
X69.66480 Y52.83749
X69.71933 Y52.74816
X70.26982 Y52.19764
X70.56512 Y51.75568
X70.66881 Y51.23463
X70.66881 Y44.16705
X70.56517 Y43.64605
X70.26987 Y43.20409
X70.17462 Y43.10884
X69.73266 Y42.81354
X69.21135 Y42.70980
X68.01860 Y42.70924
X67.92553 Y42.68438
X67.86508 Y42.63911
X67.80897 Y42.53624
X67.80364 Y42.46104
X67.82091 Y42.39360
X67.86889 Y42.32217
X68.05642 Y42.13500
X68.23318 Y41.70925
X68.23366 Y41.24849
X68.05761 Y40.82246
X67.73198 Y40.49624
X67.30623 Y40.31949
X66.84547 Y40.31900
X66.41944 Y40.49505
X66.09323 Y40.82068
X65.91647 Y41.24643
X65.91598 Y41.70719
X66.09203 Y42.13322
X66.41768 Y42.45946
X66.53694 Y42.53698
X66.58197 Y42.62306
X66.58682 Y42.72009
X66.56191 Y42.79182
X66.51895 Y42.84739
X66.15312 Y43.09606
X66.03691 Y43.24104
X65.97545 Y43.27117
X65.90204 Y43.28148
X65.83463 Y43.26949
X65.76930 Y43.23447
X65.70798 Y43.16228
X65.68152 Y43.07135
X65.69366 Y42.51849
X65.51761 Y42.09246
X65.19193 Y41.76619
X64.99272 Y41.68286
X64.93095 Y41.63990
X64.88916 Y41.58402
X64.86318 Y41.49124
X64.87806 Y41.39601
X64.93120 Y41.31555
X64.99302 Y41.27270
X65.19020 Y41.19063
X65.51642 Y40.86500
X65.69318 Y40.43925
X65.69366 Y39.97849
X65.51761 Y39.55246
X65.19198 Y39.22624
X64.76623 Y39.04949
X64.30547 Y39.04900
X63.87944 Y39.22505
X63.55323 Y39.55068
X63.37647 Y39.97643
X63.37598 Y40.43719
X63.55203 Y40.86322
X63.87771 Y41.18949
X64.07690 Y41.27280
X64.13880 Y41.31588
X64.18050 Y41.37168
X64.20646 Y41.46447
X64.19158 Y41.55967
X64.13844 Y41.64013
X64.07662 Y41.68298
X63.87944 Y41.76505
X63.55323 Y42.09068
X63.37647 Y42.51643
X63.37598 Y42.97719
X63.55203 Y43.40322
X63.74093 Y43.59245
X63.78876 Y43.66383
X63.80535 Y43.77983
X63.75833 Y43.89314
X63.68404 Y43.95438
X63.58025 Y43.97980
X61.94975 Y43.97465
X61.83514 Y43.91333
X61.33733 Y43.41552
X61.27601 Y43.30099
X61.27081 Y16.22705
X61.16717 Y15.70605
X60.88457 Y15.28314
X60.46166 Y15.00054
X59.96283 Y14.90125
X59.46403 Y15.00049
X59.04112 Y15.28309
X58.75852 Y15.70600
X58.65478 Y16.22728
X58.65478 Y43.74099
X58.63825 Y43.82529
X58.58417 Y43.90513
X58.50190 Y43.95527
X58.40619 Y43.96667
X58.33873 Y43.94945
X58.26731 Y43.90152
X49.90733 Y35.54152
X49.85280 Y35.45218
X49.84081 Y35.38099
X49.84081 Y19.27505
X49.73717 Y18.75405
X49.44187 Y18.31209
X48.07662 Y16.94684
X47.63466 Y16.65154
X47.11335 Y16.54780
X46.19141 Y16.54402
X46.08095 Y16.49083
X46.01265 Y16.38212
X46.00381 Y15.33803
X45.89258 Y14.77877
X45.58831 Y14.32342
X45.33718 Y14.15124
X45.28237 Y14.06996
X45.26698 Y14.00067
X45.27536 Y13.92434
X45.30536 Y13.86003
X45.35839 Y13.80465
X45.51752 Y13.69759
X45.80012 Y13.27468
X45.89941 Y12.77585
X45.80017 Y12.27705
X45.51760 Y11.85414
X45.24892 Y11.67022
X45.19411 Y11.58894
X45.17871 Y11.51964
X45.19408 Y11.42274
X45.23393 Y11.35708
X45.51752 Y11.15759
X45.80012 Y10.73468
X45.89941 Y10.23585
X45.80017 Y9.73705
X45.51760 Y9.31414
X45.24892 Y9.13022
X45.20579 Y9.07398
X45.18110 Y9.00134
X45.18110 Y8.93032
X45.21709 Y8.83900
X45.27886 Y8.77708
X45.51752 Y8.61759
X45.80012 Y8.19468
X45.89941 Y7.69585
X45.80017 Y7.19705
X45.51760 Y6.77414
X45.23391 Y6.57452
X45.18709 Y6.48834
X45.18110 Y6.39032
X45.20576 Y6.31767
X45.24894 Y6.26141
X45.51752 Y6.07759
X45.80012 Y5.65468
X45.89941 Y5.15585
X45.80017 Y4.65705
X45.51757 Y4.23414
X45.09466 Y3.95154
X44.57335 Y3.84780
G04 P0 ( dwell for no time -- G64 should not smooth over this point )
G00 Z5.00000 ( retract )

G00 X51.41784 Y5.14536 ( rapid move to begin. )
F300.00000
G01 Z-0.05000
G04 P0 ( dwell for no time -- G64 should not smooth over this point )
F600.00000
G01 X51.41784 Y5.14536
X51.43745 Y4.97970
X51.49110 Y4.82172
X51.57641 Y4.67833
X51.68962 Y4.55583
X51.80776 Y4.47000
X51.95929 Y4.40015
X52.12201 Y4.36335
X52.28878 Y4.36114
X52.47230 Y4.40015
X52.62378 Y4.47000
X52.75749 Y4.56982
X52.86747 Y4.69525
X52.94900 Y4.84082
X52.99848 Y5.00015
X53.01375 Y5.16627
X52.99414 Y5.33193
X52.94050 Y5.48991
X52.85518 Y5.63330
X52.74197 Y5.75580
X52.62383 Y5.84163
X52.47230 Y5.91148
X52.30958 Y5.94828
X52.14278 Y5.95047
X51.95929 Y5.91148
X51.80781 Y5.84163
X51.67410 Y5.74180
X51.56412 Y5.61638
X51.48259 Y5.47081
X51.43311 Y5.31148
X51.41784 Y5.14536
G04 P0 ( dwell for no time -- G64 should not smooth over this point )
G00 Z5.00000 ( retract )

G00 X51.41784 Y10.22536 ( rapid move to begin. )
F300.00000
G01 Z-0.05000
G04 P0 ( dwell for no time -- G64 should not smooth over this point )
F600.00000
G01 X51.41784 Y10.22536
X51.43745 Y10.05970
X51.49110 Y9.90172
X51.57641 Y9.75833
X51.68962 Y9.63583
X51.80776 Y9.55000
X51.95929 Y9.48015
X52.12201 Y9.44335
X52.28878 Y9.44114
X52.47230 Y9.48015
X52.62378 Y9.55000
X52.75749 Y9.64982
X52.86747 Y9.77525
X52.94900 Y9.92082
X52.99848 Y10.08015
X53.01375 Y10.24627
X52.99414 Y10.41193
X52.94050 Y10.56991
X52.85518 Y10.71330
X52.74197 Y10.83580
X52.62383 Y10.92163
X52.47230 Y10.99148
X52.30958 Y11.02828
X52.14278 Y11.03047
X51.95929 Y10.99148
X51.80781 Y10.92163
X51.67410 Y10.82180
X51.56412 Y10.69638
X51.48259 Y10.55081
X51.43311 Y10.39148
X51.41784 Y10.22536
G04 P0 ( dwell for no time -- G64 should not smooth over this point )
G00 Z5.00000 ( retract )

G00 X51.41784 Y12.76536 ( rapid move to begin. )
F300.00000
G01 Z-0.05000
G04 P0 ( dwell for no time -- G64 should not smooth over this point )
F600.00000
G01 X51.41784 Y12.76536
X51.43745 Y12.59970
X51.49110 Y12.44172
X51.57641 Y12.29833
X51.68962 Y12.17583
X51.80776 Y12.09000
X51.95929 Y12.02015
X52.12201 Y11.98335
X52.28878 Y11.98114
X52.47230 Y12.02015
X52.62378 Y12.09000
X52.75749 Y12.18982
X52.86747 Y12.31525
X52.94900 Y12.46082
X52.99848 Y12.62015
X53.01375 Y12.78627
X52.99414 Y12.95193
X52.94050 Y13.10991
X52.85518 Y13.25330
X52.74197 Y13.37580
X52.62383 Y13.46163
X52.47230 Y13.53148
X52.30958 Y13.56828
X52.14278 Y13.57047
X51.95929 Y13.53148
X51.80781 Y13.46163
X51.67410 Y13.36180
X51.56412 Y13.23638
X51.48259 Y13.09081
X51.43311 Y12.93148
X51.41784 Y12.76536
G04 P0 ( dwell for no time -- G64 should not smooth over this point )
G00 Z5.00000 ( retract )

G00 X53.83361 Y16.31580 ( rapid move to begin. )
F300.00000
G01 Z-0.05000
G04 P0 ( dwell for no time -- G64 should not smooth over this point )
F600.00000
G01 X53.83361 Y16.31580
X52.20534 Y16.31527
X51.99780 Y16.29126
X51.81886 Y16.23312
X51.63682 Y16.13053
X51.46608 Y15.97684
X51.34505 Y15.80650
X51.26206 Y15.61473
X51.22074 Y15.40988
X51.22295 Y15.20097
X51.26852 Y14.99703
X51.35548 Y14.80704
X51.48007 Y14.63930
X51.63682 Y14.50112
X51.81886 Y14.39853
X52.01825 Y14.33605
X52.21578 Y14.31580
X54.24778 Y14.31580
X54.49383 Y14.34735
X54.75870 Y14.45708
X54.95489 Y14.60874
X55.29696 Y14.95080
X55.64478 Y14.95080
X55.84237 Y14.97105
X56.04176 Y15.03353
X56.22380 Y15.13612
X56.38054 Y15.27430
X56.50513 Y15.44204
X56.59210 Y15.63203
X56.63767 Y15.83597
X56.63985 Y16.04488
X56.59855 Y16.24973
X56.51557 Y16.44150
X56.39454 Y16.61184
X56.24072 Y16.75324
X56.06086 Y16.85961
X55.84237 Y16.93061
X55.64478 Y16.95080
X54.88278 Y16.95080
X54.61161 Y16.91255
X54.37194 Y16.80958
X54.17572 Y16.65791
X53.83361 Y16.31580
G04 P0 ( dwell for no time -- G64 should not smooth over this point )
G00 Z5.00000 ( retract )

G00 X54.32238 Y17.39080 ( rapid move to begin. )
F300.00000
G01 Z-0.05000
G04 P0 ( dwell for no time -- G64 should not smooth over this point )
F600.00000
G01 X54.32238 Y17.39080
X55.64478 Y17.39080
X55.86317 Y17.41323
X56.08245 Y17.48217
X56.29952 Y17.60752
X56.46883 Y17.76291
X56.60218 Y17.95014
X56.69368 Y18.16103
X56.73932 Y18.38628
X56.73714 Y18.61615
X56.68722 Y18.84051
X56.59175 Y19.04960
X56.46886 Y19.21874
X56.29952 Y19.37414
X56.10155 Y19.49098
X55.86317 Y19.56842
X55.64478 Y19.59080
X53.86678 Y19.59080
X53.59495 Y19.55590
X53.30595 Y19.43619
X53.08901 Y19.26863
X52.77618 Y18.95580
X52.20534 Y18.95527
X51.97700 Y18.92908
X51.75907 Y18.85598
X51.56110 Y18.73914
X51.39176 Y18.58374
X51.25843 Y18.39649
X51.16694 Y18.18562
X51.12127 Y17.96035
X51.12127 Y17.75128
X51.16694 Y17.52603
X51.25843 Y17.31514
X51.39178 Y17.12791
X51.56110 Y16.97252
X51.75907 Y16.85568
X51.97700 Y16.78258
X52.21578 Y16.75580
X53.23178 Y16.75580
X53.50372 Y16.79075
X53.79269 Y16.91046
X54.00961 Y17.07803
X54.32238 Y17.39080
G04 P0 ( dwell for no time -- G64 should not smooth over this point )
G00 Z5.00000 ( retract )

G00 X56.14366 Y14.74654 ( rapid move to begin. )
F300.00000
G01 Z-0.05000
G04 P0 ( dwell for no time -- G64 should not smooth over this point )
F600.00000
G01 X56.14366 Y14.74654
X55.62235 Y14.64280
X55.50559 Y14.64196
X55.41692 Y14.61822
X55.18855 Y14.40679
X54.74666 Y14.11154
X54.22535 Y14.00780
X53.09655 Y14.00780
X53.01220 Y13.99119
X52.95226 Y13.95563
X52.88230 Y13.85479
X52.86996 Y13.78619
X52.88075 Y13.71159
X52.92901 Y13.62817
X53.15330 Y13.40346
X53.32211 Y12.99683
X53.32259 Y12.55678
X53.15444 Y12.14989
X52.84344 Y11.83836
X52.54733 Y11.71540
X52.47588 Y11.66780
X52.41609 Y11.56691
X52.41042 Y11.47075
X52.44520 Y11.38086
X52.49668 Y11.32569
X52.84174 Y11.17446
X53.15330 Y10.86346
X53.32211 Y10.45683
X53.32259 Y10.01678
X53.15444 Y9.60989
X52.92901 Y9.38330
X52.87418 Y9.27360
X52.87171 Y9.20388
X52.89295 Y9.13166
X52.93270 Y9.07446
X52.99302 Y9.02930
X53.09676 Y9.00383
X53.97158 Y9.00383
X54.49261 Y8.90019
X54.93457 Y8.60489
X56.37308 Y7.16639
X56.49073 Y7.10429
X56.60765 Y7.11264
X56.70843 Y7.18265
X56.93835 Y7.72270
X57.26718 Y8.05211
X57.69713 Y8.23062
X58.16241 Y8.23111
X58.59268 Y8.05331
X58.92209 Y7.72448
X59.10061 Y7.29453
X59.10109 Y6.82926
X58.92329 Y6.39898
X58.59441 Y6.06952
X58.05217 Y5.83893
X57.98217 Y5.73817
X57.97076 Y5.64247
X58.01168 Y5.53271
X58.25806 Y5.28290
X58.31397 Y5.24684
X58.42961 Y5.21719
X58.85252 Y4.93459
X59.13512 Y4.51168
X59.23441 Y4.01285
X59.13517 Y3.51405
X58.85257 Y3.09114
X58.42966 Y2.80854
X57.90835 Y2.70480
X57.69929 Y2.70480
X57.17803 Y2.80849
X56.73607 Y3.10379
X53.51850 Y6.32133
X53.42912 Y6.37589
X53.35797 Y6.38780
X53.03796 Y6.37978
X52.93239 Y6.31711
X52.87628 Y6.21424
X52.87095 Y6.13904
X52.90039 Y6.04732
X53.15330 Y5.78346
X53.32211 Y5.37683
X53.32259 Y4.93678
X53.15444 Y4.52989
X52.84344 Y4.21836
X52.43681 Y4.04956
X51.99676 Y4.04907
X51.58988 Y4.21722
X51.27834 Y4.52822
X51.10954 Y4.93485
X51.10905 Y5.37488
X51.27720 Y5.78176
X51.58822 Y6.09334
X51.71540 Y6.16444
X51.76836 Y6.24577
X51.78269 Y6.31452
X51.76666 Y6.41031
X51.71200 Y6.49062
X51.29409 Y6.77409
X51.01152 Y7.19700
X50.91223 Y7.69580
X51.01147 Y8.19463
X51.29407 Y8.61757
X51.71177 Y8.90098
X51.76641 Y8.98132
X51.78210 Y9.04982
X51.77464 Y9.12544
X51.72942 Y9.21155
X51.67649 Y9.25762
X51.58988 Y9.29722
X51.27834 Y9.60822
X51.10954 Y10.01485
X51.10905 Y10.45488
X51.27720 Y10.86176
X51.58820 Y11.17332
X51.88431 Y11.29628
X51.95586 Y11.34398
X52.00882 Y11.42450
X52.02350 Y11.51972
X51.99734 Y11.61246
X51.93496 Y11.68599
X51.58988 Y11.83722
X51.27834 Y12.14822
X51.10954 Y12.55485
X51.10905 Y12.99488
X51.27720 Y13.40176
X51.58822 Y13.71334
X51.67707 Y13.75406
X51.72998 Y13.80021
X51.76836 Y13.86577
X51.78241 Y13.96188
X51.75495 Y14.05505
X51.71200 Y14.11062
X51.29409 Y14.39409
X51.01152 Y14.81700
X50.91223 Y15.31580
X51.01147 Y15.81463
X51.29407 Y16.23757
X51.45320 Y16.34460
X51.50636 Y16.40015
X51.53628 Y16.46434
X51.54464 Y16.54067
X51.52927 Y16.60996
X51.47446 Y16.69124
X51.22338 Y16.86337
X50.91911 Y17.31872
X50.81223 Y17.85583
X50.91906 Y18.39291
X51.22333 Y18.84828
X51.67781 Y19.16482
X51.72434 Y19.26568
X51.71378 Y19.39316
X51.96039 Y19.63980
X52.14278 Y19.60114
X52.28878 Y19.60114
X52.45241 Y19.63370
X52.62378 Y19.71000
X52.75749 Y19.80982
X52.85518 Y19.91833
X52.94900 Y20.08082
X52.99848 Y20.24015
X53.01375 Y20.40627
X52.99848 Y20.55148
X52.96920 Y20.64858
X53.21377 Y20.89321
X53.33265 Y20.55562
X53.31200 Y20.00916
X53.35662 Y19.91709
X53.43717 Y19.85404
X53.56605 Y19.83522
X53.88901 Y19.89883
X55.62261 Y19.89883
X56.18189 Y19.78760
X56.63726 Y19.48333
X56.94153 Y19.02796
X57.04841 Y18.49083
X56.94158 Y17.95377
X56.63731 Y17.49842
X56.37117 Y17.31054
X56.32436 Y17.22436
X56.31598 Y17.14801
X56.35436 Y17.03503
X56.40739 Y16.97965
X56.56652 Y16.87259
X56.84912 Y16.44968
X56.94841 Y15.95085
X56.84917 Y15.45205
X56.56657 Y15.02914
X56.14366 Y14.74654
G04 P0 ( dwell for no time -- G64 should not smooth over this point )
G00 Z5.00000 ( retract )

G00 X51.09897 Y20.23606 ( rapid move to begin. )
F300.00000
G01 Z-0.05000
G04 P0 ( dwell for no time -- G64 should not smooth over this point )
F600.00000
G01 X51.09897 Y20.23606
X51.12320 Y20.68196
X51.21314 Y20.89786
X51.46239 Y20.64866
X51.43311 Y20.55148
X51.41784 Y20.40627
X51.43311 Y20.24015
X51.46239 Y20.14302
X51.21784 Y19.89844
X51.09897 Y20.23606
G04 P0 ( dwell for no time -- G64 should not smooth over this point )
G00 Z5.00000 ( retract )

G00 X51.41784 Y22.92536 ( rapid move to begin. )
F300.00000
G01 Z-0.05000
G04 P0 ( dwell for no time -- G64 should not smooth over this point )
F600.00000
G01 X51.41784 Y22.92536
X51.43745 Y22.75970
X51.49110 Y22.60172
X51.57641 Y22.45833
X51.68962 Y22.33583
X51.80776 Y22.25000
X51.95929 Y22.18015
X52.12201 Y22.14335
X52.28878 Y22.14114
X52.47230 Y22.18015
X52.62378 Y22.25000
X52.75749 Y22.34982
X52.86747 Y22.47525
X52.94900 Y22.62082
X52.99848 Y22.78015
X53.01375 Y22.94627
X52.99414 Y23.11193
X52.94050 Y23.26991
X52.85518 Y23.41330
X52.74197 Y23.53580
X52.62383 Y23.62163
X52.47230 Y23.69148
X52.30958 Y23.72828
X52.14278 Y23.73047
X51.95929 Y23.69148
X51.80781 Y23.62163
X51.67410 Y23.52180
X51.56412 Y23.39638
X51.48259 Y23.25081
X51.43311 Y23.09148
X51.41784 Y22.92536
G04 P0 ( dwell for no time -- G64 should not smooth over this point )
G00 Z5.00000 ( retract )

G00 X51.41784 Y25.46536 ( rapid move to begin. )
F300.00000
G01 Z-0.05000
G04 P0 ( dwell for no time -- G64 should not smooth over this point )
F600.00000
G01 X51.41784 Y25.46536
X51.43745 Y25.29970
X51.49110 Y25.14172
X51.57641 Y24.99833
X51.68962 Y24.87583
X51.80776 Y24.79000
X51.95929 Y24.72015
X52.12201 Y24.68335
X52.28878 Y24.68114
X52.47230 Y24.72015
X52.62378 Y24.79000
X52.75749 Y24.88982
X52.86747 Y25.01525
X52.94900 Y25.16082
X52.99848 Y25.32015
X53.01375 Y25.48627
X52.99414 Y25.65193
X52.94050 Y25.80991
X52.85518 Y25.95330
X52.74197 Y26.07580
X52.62383 Y26.16163
X52.47230 Y26.23148
X52.30958 Y26.26828
X52.14278 Y26.27047
X51.95929 Y26.23148
X51.80781 Y26.16163
X51.67410 Y26.06180
X51.56412 Y25.93638
X51.48259 Y25.79081
X51.43311 Y25.63148
X51.41784 Y25.46536
G04 P0 ( dwell for no time -- G64 should not smooth over this point )
G00 Z5.00000 ( retract )

G00 X53.01428 Y27.31730 ( rapid move to begin. )
F300.00000
G01 Z-0.05000
G04 P0 ( dwell for no time -- G64 should not smooth over this point )
F600.00000
G01 X53.01428 Y27.31730
X53.01428 Y28.71430
X52.97664 Y28.79251
X52.91428 Y28.81430
X51.51728 Y28.81430
X51.43910 Y28.77666
X51.41728 Y28.71430
X51.41728 Y27.31730
X51.45495 Y27.23912
X51.51728 Y27.21730
X52.91428 Y27.21730
X52.99249 Y27.25497
X53.01428 Y27.31730
G04 P0 ( dwell for no time -- G64 should not smooth over this point )
G00 Z5.00000 ( retract )

G00 X52.89325 Y29.13475 ( rapid move to begin. )
F300.00000
G01 Z-0.05000
G04 P0 ( dwell for no time -- G64 should not smooth over this point )
F600.00000
G01 X52.89325 Y29.13475
X53.06412 Y29.10262
X53.20425 Y29.01245
X53.29737 Y28.87615
X53.33473 Y28.69172
X53.33473 Y27.33838
X53.30260 Y27.16754
X53.21243 Y27.02741
X53.07613 Y26.93429
X52.89147 Y26.89688
X52.78075 Y26.89353
X52.69224 Y26.85855
X52.61550 Y26.77189
X52.59188 Y26.65307
X52.60735 Y26.58596
X52.66036 Y26.50697
X52.84171 Y26.41451
X53.15330 Y26.10346
X53.32211 Y25.69683
X53.32259 Y25.25678
X53.15444 Y24.84989
X52.84344 Y24.53836
X52.54733 Y24.41540
X52.47588 Y24.36780
X52.42284 Y24.28723
X52.40814 Y24.19198
X52.43430 Y24.09922
X52.49668 Y24.02569
X52.84174 Y23.87446
X53.15330 Y23.56346
X53.32211 Y23.15683
X53.32259 Y22.71678
X53.15444 Y22.30989
X52.84344 Y21.99836
X52.53026 Y21.86456
X52.45045 Y21.77873
X52.42442 Y21.65889
X52.46145 Y21.54777
X52.53036 Y21.48043
X52.71784 Y21.39849
X52.47121 Y21.15181
X52.28878 Y21.19047
X52.12201 Y21.18828
X51.96044 Y21.15183
X51.71845 Y21.39379
X51.91266 Y21.46603
X51.98627 Y21.53174
X52.02792 Y21.64401
X52.00390 Y21.76722
X51.92310 Y21.85562
X51.58988 Y21.99722
X51.27834 Y22.30822
X51.10954 Y22.71485
X51.10905 Y23.15488
X51.27720 Y23.56176
X51.58820 Y23.87332
X51.88431 Y23.99628
X51.95586 Y24.04398
X52.00882 Y24.12450
X52.02350 Y24.21972
X51.99734 Y24.31246
X51.93496 Y24.38599
X51.58988 Y24.53722
X51.27834 Y24.84822
X51.10954 Y25.25485
X51.10905 Y25.69488
X51.27720 Y26.10176
X51.58822 Y26.41334
X51.77194 Y26.50714
X51.82483 Y26.58621
X51.84062 Y26.67994
X51.81655 Y26.77204
X51.73986 Y26.85855
X51.65134 Y26.89353
X51.53862 Y26.89688
X51.36752 Y26.92904
X51.22739 Y27.01923
X51.13428 Y27.15553
X51.09686 Y27.34019
X51.09686 Y28.69302
X51.12904 Y28.86414
X51.21921 Y29.00427
X51.35551 Y29.09738
X51.53991 Y29.13475
X52.89325 Y29.13475
G04 P0 ( dwell for no time -- G64 should not smooth over this point )
G00 Z5.00000 ( retract )

G00 X43.79784 Y25.46536 ( rapid move to begin. )
F300.00000
G01 Z-0.05000
G04 P0 ( dwell for no time -- G64 should not smooth over this point )
F600.00000
G01 X43.79784 Y25.46536
X43.81745 Y25.29970
X43.87110 Y25.14172
X43.95641 Y24.99833
X44.06962 Y24.87583
X44.18776 Y24.79000
X44.33929 Y24.72015
X44.50201 Y24.68335
X44.66878 Y24.68114
X44.85230 Y24.72015
X45.00378 Y24.79000
X45.13749 Y24.88982
X45.24747 Y25.01525
X45.32900 Y25.16082
X45.37848 Y25.32015
X45.39375 Y25.48627
X45.37414 Y25.65193
X45.32050 Y25.80991
X45.23518 Y25.95330
X45.12197 Y26.07580
X45.00383 Y26.16163
X44.85230 Y26.23148
X44.68958 Y26.26828
X44.52278 Y26.27047
X44.33929 Y26.23148
X44.18781 Y26.16163
X44.05410 Y26.06180
X43.94412 Y25.93638
X43.86259 Y25.79081
X43.81311 Y25.63148
X43.79784 Y25.46536
G04 P0 ( dwell for no time -- G64 should not smooth over this point )
G00 Z5.00000 ( retract )

G00 X42.68001 Y23.93580 ( rapid move to begin. )
F300.00000
G01 Z-0.05000
G04 P0 ( dwell for no time -- G64 should not smooth over this point )
F600.00000
G01 X42.68001 Y23.93580
X37.00390 Y29.61191
X36.78508 Y29.77663
X36.54279 Y29.87330
X36.29679 Y29.90480
X32.27678 Y29.90480
X32.05880 Y29.88026
X31.87986 Y29.82212
X31.77970 Y29.76680
X31.49253 Y29.76431
X31.42469 Y29.71021
X31.41478 Y29.41064
X31.32306 Y29.20373
X31.28174 Y28.99888
X31.28174 Y28.81075
X31.32306 Y28.60592
X31.41478 Y28.39901
X31.41478 Y28.14280
X31.45245 Y28.06462
X31.51478 Y28.04280
X31.77976 Y28.04280
X31.87986 Y27.98753
X32.05880 Y27.92939
X32.27678 Y27.90480
X35.88267 Y27.90480
X41.55873 Y22.22874
X41.77755 Y22.06400
X42.01984 Y21.96735
X42.26579 Y21.93580
X44.60625 Y21.93636
X44.81382 Y21.96039
X44.99276 Y22.01853
X45.17480 Y22.12112
X45.34554 Y22.27482
X45.46657 Y22.44515
X45.54955 Y22.63692
X45.59085 Y22.84175
X45.58867 Y23.05069
X45.54310 Y23.25462
X45.45613 Y23.44461
X45.34554 Y23.59684
X45.19172 Y23.73824
X45.01186 Y23.84461
X44.81382 Y23.91126
X44.59578 Y23.93580
X42.68001 Y23.93580
G04 P0 ( dwell for no time -- G64 should not smooth over this point )
G00 Z5.00000 ( retract )

G00 X41.60003 Y29.01580 ( rapid move to begin. )
F300.00000
G01 Z-0.05000
G04 P0 ( dwell for no time -- G64 should not smooth over this point )
F600.00000
G01 X41.60003 Y29.01580
X36.93992 Y33.67591
X36.72110 Y33.84063
X36.47881 Y33.93730
X36.23281 Y33.96880
X32.27678 Y33.96880
X32.05880 Y33.94426
X31.87986 Y33.88612
X31.77970 Y33.83080
X31.49253 Y33.82831
X31.42469 Y33.77421
X31.41478 Y33.47464
X31.32306 Y33.26773
X31.28174 Y33.06288
X31.28174 Y32.87475
X31.32306 Y32.66992
X31.41478 Y32.46301
X31.41478 Y32.20680
X31.45245 Y32.12862
X31.51478 Y32.10680
X31.77976 Y32.10680
X31.87986 Y32.05153
X32.05880 Y31.99339
X32.27678 Y31.96880
X35.81869 Y31.96880
X40.47875 Y27.30874
X40.69757 Y27.14400
X40.93986 Y27.04735
X41.18581 Y27.01580
X44.59578 Y27.01580
X44.79337 Y27.03605
X44.99276 Y27.09853
X45.19172 Y27.21342
X45.34554 Y27.35482
X45.45613 Y27.50704
X45.54310 Y27.69703
X45.59085 Y27.92175
X45.58867 Y28.13069
X45.54310 Y28.33462
X45.45613 Y28.52461
X45.33154 Y28.69236
X45.17480 Y28.83053
X44.99276 Y28.93312
X44.79337 Y28.99561
X44.59578 Y29.01580
X41.60003 Y29.01580
G04 P0 ( dwell for no time -- G64 should not smooth over this point )
G00 Z5.00000 ( retract )

G00 X48.01622 Y47.43039 ( rapid move to begin. )
F300.00000
G01 Z-0.05000
G04 P0 ( dwell for no time -- G64 should not smooth over this point )
F600.00000
G01 X48.01622 Y47.43039
X37.09463 Y36.50880
X32.27678 Y36.50880
X32.05880 Y36.48426
X31.86076 Y36.41761
X31.69782 Y36.32353
X31.54107 Y36.18536
X31.41648 Y36.01761
X31.32952 Y35.82762
X31.28174 Y35.60288
X31.28395 Y35.39397
X31.32952 Y35.19003
X31.41648 Y35.00004
X31.52708 Y34.84782
X31.68090 Y34.70642
X31.86076 Y34.60004
X32.05880 Y34.53339
X32.27678 Y34.50880
X37.50880 Y34.50880
X37.75485 Y34.54035
X37.99712 Y34.63702
X38.21591 Y34.80174
X49.41421 Y46.00009
X49.76212 Y45.75006
X50.75221 Y45.31165
X51.81180 Y45.08864
X52.87377 Y45.08864
X53.95327 Y45.31810
X54.94156 Y45.76050
X55.80076 Y46.38475
X56.52690 Y47.18795
X57.07021 Y48.12460
X57.41123 Y49.17418
X57.52225 Y50.25127
X57.40688 Y51.32790
X57.07871 Y52.33793
X56.53919 Y53.27676
X55.81628 Y54.08288
X54.94158 Y54.72113
X53.93338 Y55.16998
X52.87377 Y55.39296
X51.79102 Y55.39078
X50.73232 Y55.16352
X49.74403 Y54.72113
X48.86931 Y54.08288
X48.14640 Y53.27676
X47.60688 Y52.33793
X47.27871 Y51.32790
X47.16334 Y50.25127
X47.27437 Y49.17418
X47.60688 Y48.14370
X48.01622 Y47.43039
G04 P0 ( dwell for no time -- G64 should not smooth over this point )
G00 Z5.00000 ( retract )

G00 X60.75796 Y46.82780 ( rapid move to begin. )
F300.00000
G01 Z-0.05000
G04 P0 ( dwell for no time -- G64 should not smooth over this point )
F600.00000
G01 X60.75796 Y46.82780
X64.53478 Y46.82780
X64.75282 Y46.85239
X64.93176 Y46.91053
X65.11380 Y47.01312
X65.27054 Y47.15130
X65.39513 Y47.31904
X65.48210 Y47.50903
X65.52767 Y47.71297
X65.52985 Y47.92188
X65.48855 Y48.12673
X65.39513 Y48.33661
X65.28454 Y48.48884
X65.13072 Y48.63024
X64.93176 Y48.74512
X64.75282 Y48.80326
X64.54525 Y48.82727
X60.34378 Y48.82780
X60.07261 Y48.78955
X59.83294 Y48.68658
X59.63672 Y48.53491
X47.82572 Y36.72391
X47.66100 Y36.50509
X47.56433 Y36.26283
X47.53278 Y36.01680
X47.53278 Y19.66697
X46.72161 Y18.85580
X45.04084 Y18.85580
X44.92560 Y18.90469
X44.72113 Y18.94815
X44.47048 Y18.94815
X44.24613 Y18.89824
X44.03701 Y18.80274
X43.85238 Y18.66588
X43.70020 Y18.49362
X43.58715 Y18.29347
X43.52256 Y18.09464
X43.49634 Y17.86627
X43.49634 Y15.30536
X43.52256 Y15.07702
X43.58715 Y14.87818
X43.70020 Y14.67803
X43.85238 Y14.50577
X44.05512 Y14.35845
X44.26601 Y14.26696
X44.49126 Y14.22129
X44.70033 Y14.22129
X44.92560 Y14.26696
X45.15458 Y14.36889
X45.33924 Y14.50577
X45.49141 Y14.67803
X45.60447 Y14.87818
X45.66906 Y15.07702
X45.69525 Y15.30536
X45.69578 Y16.85580
X47.14886 Y16.85667
X47.38183 Y16.88735
X47.62410 Y16.98402
X47.84289 Y17.14874
X49.23989 Y18.54574
X49.40464 Y18.76459
X49.50128 Y19.00685
X49.53278 Y19.25280
X49.53278 Y35.60263
X60.75796 Y46.82780
G04 P0 ( dwell for no time -- G64 should not smooth over this point )
G00 Z5.00000 ( retract )

G00 X61.77396 Y44.28780 ( rapid move to begin. )
F300.00000
G01 Z-0.05000
G04 P0 ( dwell for no time -- G64 should not smooth over this point )
F600.00000
G01 X61.77396 Y44.28780
X64.53478 Y44.28780
X64.73237 Y44.30805
X64.93176 Y44.37053
X65.11380 Y44.47312
X65.27054 Y44.61130
X65.39513 Y44.77904
X65.48210 Y44.96903
X65.52985 Y45.19375
X65.52767 Y45.40269
X65.48210 Y45.60662
X65.39513 Y45.79661
X65.28454 Y45.94884
X65.13072 Y46.09024
X64.93176 Y46.20512
X64.73237 Y46.26761
X64.53478 Y46.28780
X61.35978 Y46.28780
X61.11383 Y46.25630
X60.87154 Y46.15963
X60.65272 Y45.99491
X59.25572 Y44.59791
X59.09100 Y44.37909
X58.99433 Y44.13683
X58.96278 Y43.89080
X58.96278 Y16.20480
X58.98303 Y16.00727
X59.04551 Y15.80788
X59.14810 Y15.62583
X59.28628 Y15.46909
X59.45402 Y15.34450
X59.64401 Y15.25753
X59.86873 Y15.20976
X60.07767 Y15.21197
X60.28160 Y15.25753
X60.47160 Y15.34450
X60.62382 Y15.45510
X60.76522 Y15.60892
X60.87159 Y15.78877
X60.93824 Y15.98682
X60.96225 Y16.19436
X60.96278 Y43.47663
X61.77396 Y44.28780
G04 P0 ( dwell for no time -- G64 should not smooth over this point )
G00 Z5.00000 ( retract )

G00 X63.68477 Y42.73736 ( rapid move to begin. )
F300.00000
G01 Z-0.05000
G04 P0 ( dwell for no time -- G64 should not smooth over this point )
F600.00000
G01 X63.68477 Y42.73736
X63.70552 Y42.56088
X63.75401 Y42.41163
X63.84098 Y42.25664
X63.95828 Y42.12314
X64.10072 Y42.01692
X64.26222 Y41.94265
X64.43557 Y41.90356
X64.61322 Y41.90135
X64.78751 Y41.93620
X64.95073 Y42.00645
X65.09579 Y42.10917
X65.21632 Y42.23973
X65.31558 Y42.41163
X65.36841 Y42.58133
X65.38482 Y42.75827
X65.36407 Y42.93475
X65.31558 Y43.08400
X65.22861 Y43.23899
X65.11131 Y43.37249
X64.96887 Y43.47871
X64.80738 Y43.55298
X64.63402 Y43.59207
X64.45635 Y43.59426
X64.28208 Y43.55943
X64.11886 Y43.48918
X63.97380 Y43.38646
X63.85328 Y43.25590
X63.75401 Y43.08400
X63.70118 Y42.91430
X63.68477 Y42.73736
G04 P0 ( dwell for no time -- G64 should not smooth over this point )
G00 Z5.00000 ( retract )

G00 X63.68477 Y40.19736 ( rapid move to begin. )
F300.00000
G01 Z-0.05000
G04 P0 ( dwell for no time -- G64 should not smooth over this point )
F600.00000
G01 X63.68477 Y40.19736
X63.70552 Y40.02088
X63.75401 Y39.87163
X63.84098 Y39.71664
X63.95828 Y39.58314
X64.10072 Y39.47692
X64.26222 Y39.40265
X64.43557 Y39.36356
X64.61322 Y39.36135
X64.78751 Y39.39620
X64.95073 Y39.46645
X65.09579 Y39.56917
X65.21632 Y39.69973
X65.31558 Y39.87163
X65.36841 Y40.04133
X65.38482 Y40.21827
X65.36407 Y40.39475
X65.31558 Y40.54400
X65.22861 Y40.69899
X65.11131 Y40.83249
X64.96887 Y40.93871
X64.80738 Y41.01298
X64.63402 Y41.05207
X64.45635 Y41.05426
X64.28208 Y41.01943
X64.11886 Y40.94918
X63.97380 Y40.84646
X63.85328 Y40.71590
X63.75401 Y40.54400
X63.70118 Y40.37430
X63.68477 Y40.19736
G04 P0 ( dwell for no time -- G64 should not smooth over this point )
G00 Z5.00000 ( retract )

G00 X66.22477 Y41.46736 ( rapid move to begin. )
F300.00000
G01 Z-0.05000
G04 P0 ( dwell for no time -- G64 should not smooth over this point )
F600.00000
G01 X66.22477 Y41.46736
X66.24552 Y41.29088
X66.29401 Y41.14163
X66.38098 Y40.98664
X66.49828 Y40.85314
X66.64072 Y40.74692
X66.80222 Y40.67265
X66.97557 Y40.63356
X67.15322 Y40.63135
X67.32751 Y40.66620
X67.49073 Y40.73645
X67.63579 Y40.83917
X67.75632 Y40.96973
X67.85558 Y41.14163
X67.90841 Y41.31133
X67.92482 Y41.48827
X67.90407 Y41.66475
X67.85558 Y41.81400
X67.76861 Y41.96899
X67.65131 Y42.10249
X67.50887 Y42.20871
X67.34738 Y42.28298
X67.17402 Y42.32207
X66.99635 Y42.32426
X66.82208 Y42.28943
X66.65886 Y42.21918
X66.51380 Y42.11646
X66.39328 Y41.98590
X66.29401 Y41.81400
X66.24118 Y41.64430
X66.22477 Y41.46736
G04 P0 ( dwell for no time -- G64 should not smooth over this point )
G00 Z5.00000 ( retract )

G00 X68.36078 Y45.01780 ( rapid move to begin. )
F300.00000
G01 Z-0.05000
G04 P0 ( dwell for no time -- G64 should not smooth over this point )
F600.00000
G01 X68.36078 Y45.01780
X67.06434 Y45.01727
X66.85680 Y44.99326
X66.67786 Y44.93512
X66.47890 Y44.82024
X66.32508 Y44.67884
X66.20405 Y44.50850
X66.12106 Y44.31673
X66.07974 Y44.11188
X66.08195 Y43.90297
X66.12752 Y43.69903
X66.21448 Y43.50904
X66.32508 Y43.35682
X66.47890 Y43.21542
X66.65876 Y43.10904
X66.85680 Y43.04239
X67.06434 Y43.01836
X69.23378 Y43.01780
X69.47983 Y43.04935
X69.74470 Y43.15908
X69.93106 Y43.30211
X70.06789 Y43.43774
X70.23264 Y43.65659
X70.32928 Y43.89885
X70.36078 Y44.14480
X70.36078 Y51.25680
X70.32928 Y51.50280
X70.23261 Y51.74509
X70.07653 Y51.95408
X69.34478 Y52.68702
X69.34478 Y55.82880
X69.32459 Y56.02639
X69.26210 Y56.22578
X69.14722 Y56.42474
X69.00582 Y56.57856
X68.85360 Y56.68915
X68.64372 Y56.78257
X68.45967 Y56.82169
X68.25073 Y56.82387
X68.02601 Y56.77612
X67.83602 Y56.68915
X67.68380 Y56.57856
X67.54240 Y56.42474
X67.43602 Y56.24488
X67.36503 Y56.02639
X67.34478 Y55.82880
X67.34478 Y52.27280
X67.38309 Y52.00161
X67.48606 Y51.76193
X67.63772 Y51.56574
X68.36078 Y50.84268
X68.36078 Y45.01780
G04 P0 ( dwell for no time -- G64 should not smooth over this point )
G00 Z5.00000 ( retract )

G00 X66.22477 Y46.54739 ( rapid move to begin. )
F300.00000
G01 Z-0.05000
G04 P0 ( dwell for no time -- G64 should not smooth over this point )
F600.00000
G01 X66.22477 Y46.54739
X66.24552 Y46.37091
X66.29401 Y46.22166
X66.38098 Y46.06667
X66.49828 Y45.93316
X66.64072 Y45.82694
X66.80222 Y45.75267
X66.97557 Y45.71358
X67.15322 Y45.71137
X67.32751 Y45.74622
X67.49073 Y45.81648
X67.63579 Y45.91919
X67.75632 Y46.04975
X67.85558 Y46.22166
X67.90841 Y46.39136
X67.92482 Y46.56829
X67.90407 Y46.74477
X67.85558 Y46.89402
X67.76861 Y47.04901
X67.65131 Y47.18251
X67.50887 Y47.28874
X67.34738 Y47.36301
X67.17402 Y47.40210
X66.99635 Y47.40428
X66.82208 Y47.36946
X66.65886 Y47.29920
X66.51380 Y47.19648
X66.39328 Y47.06593
X66.29401 Y46.89402
X66.24118 Y46.72432
X66.22477 Y46.54739
G04 P0 ( dwell for no time -- G64 should not smooth over this point )
G00 Z5.00000 ( retract )

G00 X66.72078 Y49.94837 ( rapid move to begin. )
F300.00000
G01 Z-0.05000
G04 P0 ( dwell for no time -- G64 should not smooth over this point )
F600.00000
G01 X66.72078 Y49.94837
X66.28083 Y49.93849
X66.22673 Y49.87065
X66.22421 Y49.45180
X65.94202 Y49.45180
X65.91621 Y49.47761
X65.91621 Y49.92945
X65.97837 Y50.07954
X66.09307 Y50.19424
X66.24303 Y50.25637
X66.69508 Y50.25637
X66.72078 Y50.23067
X66.72078 Y49.94837
G04 P0 ( dwell for no time -- G64 should not smooth over this point )
G00 Z5.00000 ( retract )

G00 X71.50035 Y50.57326 ( rapid move to begin. )
F300.00000
G01 Z-0.05000
G04 P0 ( dwell for no time -- G64 should not smooth over this point )
F600.00000
G01 X71.50035 Y50.57326
X71.54460 Y50.17339
X71.67099 Y49.79142
X71.87406 Y49.44411
X72.14485 Y49.14659
X72.45351 Y48.92234
X72.82019 Y48.75670
X73.21325 Y48.67093
X73.61554 Y48.66872
X74.02940 Y48.75670
X74.39603 Y48.92234
X74.72026 Y49.16059
X74.98782 Y49.46102
X75.18711 Y49.81053
X75.30934 Y50.19384
X75.34924 Y50.59417
X75.30499 Y50.99404
X75.17860 Y51.37600
X74.97553 Y51.72332
X74.70474 Y52.02083
X74.39608 Y52.24509
X74.02940 Y52.41072
X73.63634 Y52.49650
X73.23403 Y52.49868
X72.82019 Y52.41072
X72.45356 Y52.24509
X72.12933 Y52.00684
X71.86177 Y51.70641
X71.66248 Y51.35690
X71.54026 Y50.97359
X71.50035 Y50.57326
G04 P0 ( dwell for no time -- G64 should not smooth over this point )
G00 Z5.00000 ( retract )

G00 X73.87096 Y48.35114 ( rapid move to begin. )
F300.00000
G01 Z-0.05000
G04 P0 ( dwell for no time -- G64 should not smooth over this point )
F600.00000
G01 X73.87096 Y48.35114
X72.98272 Y48.35030
X72.16162 Y48.68957
X71.53286 Y49.31723
X71.19222 Y50.13760
X71.19139 Y51.02584
X71.53065 Y51.84695
X72.15831 Y52.47570
X72.97868 Y52.81634
X73.86692 Y52.81717
X74.68803 Y52.47791
X75.31678 Y51.85025
X75.65742 Y51.02988
X75.65826 Y50.14164
X75.31899 Y49.32053
X74.69133 Y48.69178
X73.87096 Y48.35114
G04 P0 ( dwell for no time -- G64 should not smooth over this point )
G00 Z5.00000 ( retract )

G00 X71.93939 Y55.28575 ( rapid move to begin. )
F300.00000
G01 Z-0.05000
G04 P0 ( dwell for no time -- G64 should not smooth over this point )
F600.00000
G01 X71.93939 Y55.28575
X71.68834 Y55.52591
X71.72959 Y55.65994
X71.74625 Y55.81836
X71.72959 Y55.99769
X71.68834 Y56.13167
X71.93098 Y56.37439
X72.06502 Y56.00282
X72.04147 Y55.53210
X71.93939 Y55.28575
G04 P0 ( dwell for no time -- G64 should not smooth over this point )
G00 Z5.00000 ( retract )

G00 X71.18156 Y56.98549 ( rapid move to begin. )
F300.00000
G01 Z-0.05000
G04 P0 ( dwell for no time -- G64 should not smooth over this point )
F600.00000
G01 X71.18156 Y56.98549
X71.43037 Y56.87500
X71.18813 Y56.63274
X70.96441 Y56.68661
X70.78438 Y56.68443
X70.58151 Y56.63276
X70.33924 Y56.87498
X70.71084 Y57.00904
X71.18156 Y56.98549
G04 P0 ( dwell for no time -- G64 should not smooth over this point )
G00 Z5.00000 ( retract )

G00 X66.66678 Y55.06680 ( rapid move to begin. )
F300.00000
G01 Z-0.05000
G04 P0 ( dwell for no time -- G64 should not smooth over this point )
F600.00000
G01 X66.66678 Y55.06680
X66.66678 Y56.59080
X66.62914 Y56.66901
X66.56678 Y56.69080
X65.04278 Y56.69080
X64.96460 Y56.65316
X64.94278 Y56.59080
X64.94278 Y55.06680
X64.98045 Y54.98862
X65.04278 Y54.96680
X66.56678 Y54.96680
X66.64499 Y55.00447
X66.66678 Y55.06680
G04 P0 ( dwell for no time -- G64 should not smooth over this point )
G00 Z5.00000 ( retract )

G00 X71.50035 Y38.70384 ( rapid move to begin. )
F300.00000
G01 Z-0.05000
G04 P0 ( dwell for no time -- G64 should not smooth over this point )
F600.00000
G01 X71.50035 Y38.70384
X71.54460 Y38.30397
X71.67099 Y37.92200
X71.87406 Y37.57469
X72.14485 Y37.27717
X72.45351 Y37.05292
X72.82019 Y36.88728
X73.21325 Y36.80151
X73.61554 Y36.79930
X74.02940 Y36.88728
X74.39603 Y37.05292
X74.72026 Y37.29117
X74.98782 Y37.59160
X75.18711 Y37.94111
X75.30934 Y38.32442
X75.34924 Y38.72475
X75.30499 Y39.12462
X75.17860 Y39.50658
X74.97553 Y39.85390
X74.70474 Y40.15141
X74.39608 Y40.37567
X74.02940 Y40.54130
X73.63634 Y40.62708
X73.23403 Y40.62926
X72.82019 Y40.54130
X72.45356 Y40.37567
X72.12933 Y40.13742
X71.86177 Y39.83699
X71.66248 Y39.48748
X71.54026 Y39.10417
X71.50035 Y38.70384
G04 P0 ( dwell for no time -- G64 should not smooth over this point )
G00 Z5.00000 ( retract )

G00 X73.87096 Y36.48172 ( rapid move to begin. )
F300.00000
G01 Z-0.05000
G04 P0 ( dwell for no time -- G64 should not smooth over this point )
F600.00000
G01 X73.87096 Y36.48172
X72.98272 Y36.48088
X72.16162 Y36.82015
X71.53286 Y37.44781
X71.19222 Y38.26818
X71.19139 Y39.15642
X71.53065 Y39.97753
X72.15831 Y40.60628
X72.97868 Y40.94692
X73.86692 Y40.94775
X74.68803 Y40.60849
X75.31678 Y39.98083
X75.65742 Y39.16046
X75.65826 Y38.27222
X75.31899 Y37.45111
X74.69133 Y36.82236
X73.87096 Y36.48172
G04 P0 ( dwell for no time -- G64 should not smooth over this point )
G00 Z5.00000 ( retract )

G00 X73.65409 Y16.86848 ( rapid move to begin. )
F300.00000
G01 Z-0.05000
G04 P0 ( dwell for no time -- G64 should not smooth over this point )
F600.00000
G01 X73.65409 Y16.86848
X73.83261 Y16.43853
X73.83309 Y15.97326
X73.65529 Y15.54298
X73.32646 Y15.21357
X72.89651 Y15.03506
X72.43124 Y15.03457
X72.00096 Y15.21237
X71.67155 Y15.54120
X71.49304 Y15.97115
X71.49255 Y16.43642
X71.67035 Y16.86670
X71.99918 Y17.19611
X72.42913 Y17.37462
X72.89441 Y17.37511
X73.32468 Y17.19731
X73.65409 Y16.86848
G04 P0 ( dwell for no time -- G64 should not smooth over this point )
G00 Z5.00000 ( retract )

G00 X71.80134 Y16.19436 ( rapid move to begin. )
F300.00000
G01 Z-0.05000
G04 P0 ( dwell for no time -- G64 should not smooth over this point )
F600.00000
G01 X71.80134 Y16.19436
X71.82235 Y16.01550
X71.88008 Y15.84488
X71.97203 Y15.69002
X72.09415 Y15.55763
X72.22301 Y15.46401
X72.38666 Y15.38878
X72.56238 Y15.34920
X72.74241 Y15.34699
X72.91904 Y15.38232
X73.08445 Y15.45357
X73.23141 Y15.55763
X73.35356 Y15.69002
X73.45402 Y15.86398
X73.50759 Y16.03594
X73.52425 Y16.21527
X73.50324 Y16.39413
X73.44551 Y16.56474
X73.35356 Y16.71961
X73.23144 Y16.85199
X73.10258 Y16.94562
X72.93893 Y17.02085
X72.76321 Y17.06043
X72.58315 Y17.06261
X72.40655 Y17.02730
X72.24114 Y16.95606
X72.09418 Y16.85199
X71.97203 Y16.71961
X71.87157 Y16.54564
X71.81800 Y16.37369
X71.80134 Y16.19436
G04 P0 ( dwell for no time -- G64 should not smooth over this point )
G00 Z5.00000 ( retract )

G00 X70.93413 Y7.86474 ( rapid move to begin. )
F300.00000
G01 Z-0.05000
G04 P0 ( dwell for no time -- G64 should not smooth over this point )
F600.00000
G01 X70.93413 Y7.86474
X70.71041 Y7.91861
X70.53038 Y7.91643
X70.32751 Y7.86476
X70.08570 Y8.10858
X70.45684 Y8.24104
X70.92756 Y8.21749
X71.17391 Y8.11543
X70.93413 Y7.86474
G04 P0 ( dwell for no time -- G64 should not smooth over this point )
G00 Z5.00000 ( retract )

G00 X71.43434 Y7.36367 ( rapid move to begin. )
F300.00000
G01 Z-0.05000
G04 P0 ( dwell for no time -- G64 should not smooth over this point )
F600.00000
G01 X71.43434 Y7.36367
X71.67856 Y7.60594
X71.81102 Y7.23482
X71.78747 Y6.76410
X71.67696 Y6.51529
X71.43434 Y6.75791
X71.47559 Y6.89194
X71.49225 Y7.05036
X71.47559 Y7.22969
X71.43434 Y7.36367
G04 P0 ( dwell for no time -- G64 should not smooth over this point )
G00 Z5.00000 ( retract )

G00 X70.93413 Y6.25689 ( rapid move to begin. )
F300.00000
G01 Z-0.05000
G04 P0 ( dwell for no time -- G64 should not smooth over this point )
F600.00000
G01 X70.93413 Y6.25689
X71.17592 Y6.01310
X70.80480 Y5.88064
X70.33409 Y5.90419
X70.08773 Y6.00627
X70.32746 Y6.25689
X70.55115 Y6.20299
X70.73121 Y6.20520
X70.93413 Y6.25689
G04 P0 ( dwell for no time -- G64 should not smooth over this point )
G00 Z5.00000 ( retract )

G00 X70.93413 Y4.81674 ( rapid move to begin. )
F300.00000
G01 Z-0.05000
G04 P0 ( dwell for no time -- G64 should not smooth over this point )
F600.00000
G01 X70.93413 Y4.81674
X70.71041 Y4.87061
X70.53038 Y4.86843
X70.32751 Y4.81676
X70.08570 Y5.06058
X70.45684 Y5.19304
X70.92756 Y5.16949
X71.17391 Y5.06743
X70.93413 Y4.81674
G04 P0 ( dwell for no time -- G64 should not smooth over this point )
G00 Z5.00000 ( retract )

G00 X71.43434 Y3.70991 ( rapid move to begin. )
F300.00000
G01 Z-0.05000
G04 P0 ( dwell for no time -- G64 should not smooth over this point )
F600.00000
G01 X71.43434 Y3.70991
X71.47559 Y3.84394
X71.49225 Y4.00236
X71.47559 Y4.18169
X71.43434 Y4.31567
X71.67698 Y4.55839
X71.81102 Y4.18682
X71.78747 Y3.71610
X71.68539 Y3.46975
X71.43434 Y3.70991
G04 P0 ( dwell for no time -- G64 should not smooth over this point )
G00 Z5.00000 ( retract )

G00 X70.93413 Y3.20889 ( rapid move to begin. )
F300.00000
G01 Z-0.05000
G04 P0 ( dwell for no time -- G64 should not smooth over this point )
F600.00000
G01 X70.93413 Y3.20889
X71.17592 Y2.96510
X70.80480 Y2.83264
X70.33409 Y2.85619
X70.08773 Y2.95827
X70.32746 Y3.20889
X70.55115 Y3.15499
X70.73121 Y3.15720
X70.93413 Y3.20889
G04 P0 ( dwell for no time -- G64 should not smooth over this point )
G00 Z5.00000 ( retract )

G00 X69.58308 Y3.46772 ( rapid move to begin. )
F300.00000
G01 Z-0.05000
G04 P0 ( dwell for no time -- G64 should not smooth over this point )
F600.00000
G01 X69.58308 Y3.46772
X69.45062 Y3.83886
X69.47417 Y4.30958
X69.58466 Y4.55839
X69.82728 Y4.31580
X69.78600 Y4.18169
X69.76934 Y4.02327
X69.78600 Y3.84394
X69.82728 Y3.70991
X69.58308 Y3.46772
G04 P0 ( dwell for no time -- G64 should not smooth over this point )
G00 Z5.00000 ( retract )

G00 X69.47417 Y7.35758 ( rapid move to begin. )
F300.00000
G01 Z-0.05000
G04 P0 ( dwell for no time -- G64 should not smooth over this point )
F600.00000
G01 X69.47417 Y7.35758
X69.58466 Y7.60639
X69.82728 Y7.36380
X69.78600 Y7.22969
X69.76934 Y7.07127
X69.78600 Y6.89194
X69.82728 Y6.75791
X69.58468 Y6.51526
X69.45062 Y6.88686
X69.47417 Y7.35758
G04 P0 ( dwell for no time -- G64 should not smooth over this point )
G00 Z5.00000 ( retract )

G00 X58.10922 Y4.99459 ( rapid move to begin. )
F300.00000
G01 Z-0.05000
G04 P0 ( dwell for no time -- G64 should not smooth over this point )
F600.00000
G01 X58.10922 Y4.99459
X54.70089 Y8.40291
X54.48207 Y8.56763
X54.23978 Y8.66430
X53.99378 Y8.69580
X52.21578 Y8.69580
X52.01825 Y8.67561
X51.81886 Y8.61312
X51.63682 Y8.51053
X51.46608 Y8.35684
X51.34505 Y8.18650
X51.26206 Y7.99473
X51.22074 Y7.78988
X51.22074 Y7.60175
X51.26206 Y7.39692
X51.35548 Y7.18704
X51.46608 Y7.03482
X51.61990 Y6.89342
X51.81886 Y6.77853
X51.99780 Y6.72039
X52.20534 Y6.69636
X53.57966 Y6.69580
X56.96972 Y3.30574
X57.18854 Y3.14100
X57.43083 Y3.04435
X57.66373 Y3.01367
X57.93078 Y3.01280
X58.14882 Y3.03739
X58.34686 Y3.10404
X58.52672 Y3.21042
X58.68054 Y3.35182
X58.80157 Y3.52215
X58.88455 Y3.71392
X58.92585 Y3.91875
X58.92367 Y4.12769
X58.88455 Y4.31173
X58.80157 Y4.50350
X58.68054 Y4.67384
X58.50980 Y4.82753
X58.32776 Y4.93012
X58.10922 Y4.99459
G04 P0 ( dwell for no time -- G64 should not smooth over this point )
G00 Z5.00000 ( retract )

G00 X57.06934 Y7.05036 ( rapid move to begin. )
F300.00000
G01 Z-0.05000
G04 P0 ( dwell for no time -- G64 should not smooth over this point )
F600.00000
G01 X57.06934 Y7.05036
X57.09035 Y6.87150
X57.14808 Y6.70088
X57.24003 Y6.54602
X57.36215 Y6.41363
X57.49101 Y6.32001
X57.65466 Y6.24478
X57.83038 Y6.20520
X58.01041 Y6.20299
X58.18704 Y6.23832
X58.35245 Y6.30957
X58.49941 Y6.41363
X58.62156 Y6.54602
X58.72202 Y6.71998
X58.77559 Y6.89194
X58.79225 Y7.07127
X58.77124 Y7.25013
X58.71351 Y7.42074
X58.62156 Y7.57561
X58.49944 Y7.70799
X58.37058 Y7.80162
X58.20693 Y7.87685
X58.03121 Y7.91643
X57.85115 Y7.91861
X57.67455 Y7.88330
X57.50914 Y7.81206
X57.36218 Y7.70799
X57.24003 Y7.57561
X57.13957 Y7.40164
X57.08600 Y7.22969
X57.06934 Y7.05036
G04 P0 ( dwell for no time -- G64 should not smooth over this point )
G00 Z5.00000 ( retract )

G00 X31.92334 Y7.05036 ( rapid move to begin. )
F300.00000
G01 Z-0.05000
G04 P0 ( dwell for no time -- G64 should not smooth over this point )
F600.00000
G01 X31.92334 Y7.05036
X31.94435 Y6.87150
X32.00208 Y6.70088
X32.09403 Y6.54602
X32.21615 Y6.41363
X32.34501 Y6.32001
X32.50866 Y6.24478
X32.68438 Y6.20520
X32.86441 Y6.20299
X33.04104 Y6.23832
X33.20645 Y6.30957
X33.35341 Y6.41363
X33.47556 Y6.54602
X33.57602 Y6.71998
X33.62959 Y6.89194
X33.64625 Y7.07127
X33.62524 Y7.25013
X33.56751 Y7.42074
X33.47556 Y7.57561
X33.35344 Y7.70799
X33.22458 Y7.80162
X33.06093 Y7.87685
X32.88521 Y7.91643
X32.70515 Y7.91861
X32.52855 Y7.88330
X32.36314 Y7.81206
X32.21618 Y7.70799
X32.09403 Y7.57561
X31.99357 Y7.40164
X31.94000 Y7.22969
X31.92334 Y7.05036
G04 P0 ( dwell for no time -- G64 should not smooth over this point )
G00 Z5.00000 ( retract )

G00 X32.12700 Y10.34680 ( rapid move to begin. )
F300.00000
G01 Z-0.05000
G04 P0 ( dwell for no time -- G64 should not smooth over this point )
F600.00000
G01 X32.12700 Y10.34680
X13.47626 Y10.34680
X13.46488 Y10.43390
X13.13671 Y11.44393
X12.69006 Y12.22190
X15.16496 Y14.69680
X32.78478 Y14.69680
X32.98237 Y14.71705
X33.18176 Y14.77953
X33.36380 Y14.88212
X33.52054 Y15.02030
X33.64513 Y15.18804
X33.73210 Y15.37803
X33.77985 Y15.60275
X33.77767 Y15.81169
X33.73210 Y16.01562
X33.64513 Y16.20561
X33.53454 Y16.35784
X33.38072 Y16.49924
X33.20086 Y16.60561
X33.00282 Y16.67226
X32.79525 Y16.69627
X14.75078 Y16.69680
X14.50483 Y16.66530
X14.26254 Y16.56863
X14.04372 Y16.40391
X11.27030 Y13.63046
X10.98147 Y13.83757
X10.01127 Y14.26952
X8.93177 Y14.49896
X7.86980 Y14.49896
X6.81021 Y14.27598
X5.80203 Y13.82713
X4.94283 Y13.20288
X4.21669 Y12.39968
X3.67339 Y11.46303
X3.33671 Y10.43390
X3.22134 Y9.33636
X3.33671 Y8.25973
X3.66488 Y7.24970
X4.20440 Y6.31087
X4.92731 Y5.50475
X5.82012 Y4.85606
X6.81021 Y4.41765
X7.86980 Y4.19464
X8.95257 Y4.19685
X10.01127 Y4.42410
X10.99956 Y4.86650
X11.85876 Y5.49075
X12.58490 Y6.29395
X13.12821 Y7.23060
X13.46488 Y8.25973
X13.47621 Y8.34680
X32.53078 Y8.34680
X32.80203 Y8.38511
X33.01910 Y8.47502
X33.18859 Y8.60080
X35.18668 Y8.60080
X36.80855 Y6.98011
X36.99493 Y6.83705
X37.23466 Y6.73411
X37.50580 Y6.69580
X44.60625 Y6.69636
X44.81382 Y6.72039
X44.99276 Y6.77853
X45.19172 Y6.89342
X45.34554 Y7.03482
X45.45613 Y7.18704
X45.54955 Y7.39692
X45.59085 Y7.60175
X45.58867 Y7.81069
X45.54310 Y8.01462
X45.45613 Y8.20461
X45.33154 Y8.37236
X45.17480 Y8.51053
X44.99276 Y8.61312
X44.81382 Y8.67126
X44.59578 Y8.69580
X37.92003 Y8.69580
X36.30792 Y10.30791
X36.11170 Y10.45958
X35.87203 Y10.56255
X35.60080 Y10.60080
X32.78478 Y10.60080
X32.51361 Y10.56255
X32.29654 Y10.47263
X32.12700 Y10.34680
G04 P0 ( dwell for no time -- G64 should not smooth over this point )
G00 Z5.00000 ( retract )

G00 X84.07378 Y0.22782 ( rapid move to begin. )
F300.00000
G01 Z-0.05000
G04 P0 ( dwell for no time -- G64 should not smooth over this point )
F600.00000
G01 X84.07378 Y0.22782
X84.07378 Y58.97380
X84.03614 Y59.05201
X83.97378 Y59.07380
X0.22780 Y59.07380
X0.14962 Y59.03616
X0.12780 Y58.97380
X0.12780 Y0.22782
X0.16547 Y0.14964
X0.22780 Y0.12782
X83.97378 Y0.12782
X84.03614 Y0.14964
X84.07378 Y0.22782

G04 P0 ( dwell for no time -- G64 should not smooth over this point )
G00 Z10.000 ( retract )

M5 ( Spindle off. )
M9 ( Coolant off. )
M2 ( Program end. )

