( pcb2gcode 1.3.2 )
( Software-independent Gcode )

( This file uses only one drill bit. Forced by 'onedrill' option )

G94       (Millimeters per minute feed rate.)
G21       (Units == Millimeters.)
G91.1     (Incremental arc distance mode.)
G90       (Absolute coordinates.)
S10000     (RPM spindle speed.)

G00 Z10.00000 (Retract)
T1
M5      (Spindle stop.)
(MSG, Change tool bit to drill size 0.81300 mm)
M6      (Tool change.)
M0      (Temporary machine stop.)
M3      (Spindle on clockwise.)
G0 Z5.00000

F1000.00000
G0 X13.57080 Y4.01280
G1 Z-1.60000
G1 Z5.00000
G0 X13.57080 Y7.06080
G1 Z-1.60000
G1 Z5.00000
G0 X11.53880 Y16.20480
G1 Z-1.60000
G1 Z5.00000
G0 X24.23880 Y16.20480
G1 Z-1.60000
G1 Z5.00000
G0 X28.55680 Y15.95080
G1 Z-1.60000
G1 Z5.00000
G0 X28.55680 Y18.49080
G1 Z-1.60000
G1 Z5.00000
G0 X31.98580 Y17.85580
G1 Z-1.60000
G1 Z5.00000
G0 X31.98580 Y15.31580
G1 Z-1.60000
G1 Z5.00000
G0 X31.98580 Y12.77580
G1 Z-1.60000
G1 Z5.00000
G0 X31.98580 Y10.23580
G1 Z-1.60000
G1 Z5.00000
G0 X31.98580 Y7.69580
G1 Z-1.60000
G1 Z5.00000
G0 X31.98580 Y5.15580
G1 Z-1.60000
G1 Z5.00000
G0 X26.27080 Y4.01280
G1 Z-1.60000
G1 Z5.00000
G0 X26.27080 Y7.06080
G1 Z-1.60000
G1 Z5.00000
G0 X39.60580 Y7.69580
G1 Z-1.60000
G1 Z5.00000
G0 X39.60580 Y5.15580
G1 Z-1.60000
G1 Z5.00000
G0 X39.60580 Y10.23580
G1 Z-1.60000
G1 Z5.00000
G0 X39.60580 Y12.77580
G1 Z-1.60000
G1 Z5.00000
G0 X39.60580 Y15.31580
G1 Z-1.60000
G1 Z5.00000
G0 X39.60580 Y17.85580
G1 Z-1.60000
G1 Z5.00000
G0 X39.60580 Y20.39580
G1 Z-1.60000
G1 Z5.00000
G0 X39.60580 Y22.93580
G1 Z-1.60000
G1 Z5.00000
G0 X39.60580 Y25.47580
G1 Z-1.60000
G1 Z5.00000
G0 X39.60580 Y28.01580
G1 Z-1.60000
G1 Z5.00000
G0 X31.98580 Y28.01580
G1 Z-1.60000
G1 Z5.00000
G0 X31.98580 Y25.47580
G1 Z-1.60000
G1 Z5.00000
G0 X31.98580 Y22.93580
G1 Z-1.60000
G1 Z5.00000
G0 X31.98580 Y20.39580
G1 Z-1.60000
G1 Z5.00000
G0 X51.41680 Y18.23680
G1 Z-1.60000
G1 Z5.00000
G0 X51.41680 Y15.69680
G1 Z-1.60000
G1 Z5.00000
G0 X51.41680 Y13.15680
G1 Z-1.60000
G1 Z5.00000
G0 X51.41680 Y9.60080
G1 Z-1.60000
G1 Z5.00000
G0 X51.41680 Y7.06080
G1 Z-1.60000
G1 Z5.00000
G0 X51.41680 Y4.52080
G1 Z-1.60000
G1 Z5.00000
G0 X51.92480 Y23.82480
G1 Z-1.60000
G1 Z5.00000
G0 X51.92480 Y26.36480
G1 Z-1.60000
G1 Z5.00000
G0 X51.92480 Y28.90480
G1 Z-1.60000
G1 Z5.00000
G0 X51.92480 Y32.96880
G1 Z-1.60000
G1 Z5.00000
G0 X51.92480 Y35.50880
G1 Z-1.60000
G1 Z5.00000
G0 X51.92480 Y38.04880
G1 Z-1.60000
G1 Z5.00000
G0 X60.05280 Y42.87480
G1 Z-1.60000
G1 Z5.00000
G0 X61.83080 Y50.24080
G1 Z-1.60000
G1 Z5.00000
G0 X75.80080 Y39.31880
G1 Z-1.60000
G1 Z5.00000
G0 X66.14880 Y30.68280
G1 Z-1.60000
G1 Z5.00000
G0 X60.05280 Y30.17480
G1 Z-1.60000
G1 Z5.00000
G0 X66.14880 Y17.98280
G1 Z-1.60000
G1 Z5.00000
G0 X75.80080 Y9.34680
G1 Z-1.60000
G1 Z5.00000
G0 X31.85880 Y50.24080
G1 Z-1.60000
G1 Z5.00000
G0 X19.66680 Y47.82780
G1 Z-1.60000
G1 Z5.00000
G0 X19.66680 Y45.28780
G1 Z-1.60000
G1 Z5.00000
G0 X19.66680 Y42.74780
G1 Z-1.60000
G1 Z5.00000
G0 X19.66680 Y40.20780
G1 Z-1.60000
G1 Z5.00000
G0 X17.12680 Y41.47780
G1 Z-1.60000
G1 Z5.00000
G0 X17.12680 Y44.01780
G1 Z-1.60000
G1 Z5.00000
G0 X17.12680 Y46.55780
G1 Z-1.60000
G1 Z5.00000
G0 X17.12680 Y49.09780
G1 Z-1.60000
G1 Z5.00000
G0 X10.77680 Y50.58380
G1 Z-1.60000
G1 Z5.00000
G0 X13.31680 Y55.82880
G1 Z-1.60000
G1 Z5.00000
G0 X15.85680 Y55.82880
G1 Z-1.60000
G1 Z5.00000
G0 X18.39680 Y55.82880
G1 Z-1.60000
G1 Z5.00000
G0 X10.77680 Y38.71380
G1 Z-1.60000
G1 Z5.00000

G00 Z10.000 ( All done -- retract )

M5      (Spindle off.)
M9      (Coolant off.)
M2      (Program end.)

