( pcb2gcode 1.3.2 )
( Software-independent Gcode )

G94 ( Millimeters per minute feed rate. )
G21 ( Units == Millimeters. )

G90 ( Absolute coordinates. )
S10000 ( RPM spindle speed. )
G64 P0.01000 ( set maximum deviation from commanded toolpath )
F600.00000 ( Feedrate. )

F600.00000 ( Feedrate. )
M3 ( Spindle on clockwise. )
G04 P0 ( dwell for no time -- G64 should not smooth over this point )
G00 Z5.00000 ( retract )

G00 X10.33062 Y48.35114 ( rapid move to begin. )
F300.00000
G01 Z-0.05000
G04 P0 ( dwell for no time -- G64 should not smooth over this point )
F600.00000
G01 X10.33062 Y48.35114
X11.21886 Y48.35030
X12.03997 Y48.68957
X12.66872 Y49.31723
X13.00936 Y50.13760
X13.01020 Y51.02584
X12.67093 Y51.84695
X12.04327 Y52.47570
X11.22290 Y52.81634
X10.33466 Y52.81717
X9.51356 Y52.47791
X8.88481 Y51.85025
X8.54417 Y51.02988
X8.54333 Y50.14164
X8.88260 Y49.32053
X9.51025 Y48.69178
X10.33062 Y48.35114
G04 P0 ( dwell for no time -- G64 should not smooth over this point )
G00 Z5.00000 ( retract )

G00 X12.70123 Y50.57326 ( rapid move to begin. )
F300.00000
G01 Z-0.05000
G04 P0 ( dwell for no time -- G64 should not smooth over this point )
F600.00000
G01 X12.70123 Y50.57326
X12.65698 Y50.17339
X12.53059 Y49.79142
X12.32752 Y49.44411
X12.05673 Y49.14659
X11.74807 Y48.92234
X11.38140 Y48.75670
X10.98833 Y48.67093
X10.58605 Y48.66872
X10.17218 Y48.75670
X9.80556 Y48.92234
X9.48132 Y49.16059
X9.21376 Y49.46102
X9.01447 Y49.81053
X8.89225 Y50.19384
X8.85234 Y50.59417
X8.89659 Y50.99404
X9.02298 Y51.37600
X9.22605 Y51.72332
X9.49684 Y52.02083
X9.80550 Y52.24509
X10.17218 Y52.41072
X10.56524 Y52.49650
X10.96755 Y52.49868
X11.38140 Y52.41072
X11.74802 Y52.24509
X12.07225 Y52.00684
X12.33981 Y51.70641
X12.53910 Y51.35690
X12.66133 Y50.97359
X12.70123 Y50.57326
G04 P0 ( dwell for no time -- G64 should not smooth over this point )
G00 Z5.00000 ( retract )

G00 X16.27623 Y48.34723 ( rapid move to begin. )
F300.00000
G01 Z-0.05000
G04 P0 ( dwell for no time -- G64 should not smooth over this point )
F600.00000
G01 X16.27623 Y48.34723
X16.27623 Y49.84837
X16.31387 Y49.92658
X16.37623 Y49.94837
X17.87737 Y49.94837
X17.95555 Y49.91073
X17.97737 Y49.84837
X17.97737 Y48.34723
X17.93970 Y48.26905
X17.87737 Y48.24723
X16.37623 Y48.24723
X16.31387 Y48.26905
X16.27623 Y48.34723
G04 P0 ( dwell for no time -- G64 should not smooth over this point )
G00 Z5.00000 ( retract )

G00 X20.51681 Y47.81736 ( rapid move to begin. )
F300.00000
G01 Z-0.05000
G04 P0 ( dwell for no time -- G64 should not smooth over this point )
F600.00000
G01 X20.51681 Y47.81736
X20.49606 Y47.64088
X20.44757 Y47.49163
X20.36060 Y47.33664
X20.24330 Y47.20314
X20.10086 Y47.09692
X19.93937 Y47.02265
X19.76601 Y46.98356
X19.58837 Y46.98135
X19.41407 Y47.01620
X19.25085 Y47.08645
X19.10579 Y47.18917
X18.98527 Y47.31973
X18.88600 Y47.49163
X18.83317 Y47.66133
X18.81676 Y47.83827
X18.83752 Y48.01475
X18.88600 Y48.16400
X18.97297 Y48.31899
X19.09027 Y48.45249
X19.23271 Y48.55871
X19.39421 Y48.63298
X19.56756 Y48.67207
X19.74524 Y48.67426
X19.91950 Y48.63943
X20.08273 Y48.56918
X20.22778 Y48.46646
X20.34831 Y48.33590
X20.44757 Y48.16400
X20.50040 Y47.99430
X20.51681 Y47.81736
G04 P0 ( dwell for no time -- G64 should not smooth over this point )
G00 Z5.00000 ( retract )

G00 X20.51681 Y45.27736 ( rapid move to begin. )
F300.00000
G01 Z-0.05000
G04 P0 ( dwell for no time -- G64 should not smooth over this point )
F600.00000
G01 X20.51681 Y45.27736
X20.49606 Y45.10088
X20.44757 Y44.95163
X20.36060 Y44.79664
X20.24330 Y44.66314
X20.10086 Y44.55692
X19.93937 Y44.48265
X19.76601 Y44.44356
X19.58837 Y44.44135
X19.41407 Y44.47620
X19.25085 Y44.54645
X19.10579 Y44.64917
X18.98527 Y44.77973
X18.88600 Y44.95163
X18.83317 Y45.12133
X18.81676 Y45.29827
X18.83752 Y45.47475
X18.88600 Y45.62400
X18.97297 Y45.77899
X19.09027 Y45.91249
X19.23271 Y46.01871
X19.39421 Y46.09298
X19.56756 Y46.13207
X19.74524 Y46.13426
X19.91950 Y46.09943
X20.08273 Y46.02918
X20.22778 Y45.92646
X20.34831 Y45.79590
X20.44757 Y45.62400
X20.50040 Y45.45430
X20.51681 Y45.27736
G04 P0 ( dwell for no time -- G64 should not smooth over this point )
G00 Z5.00000 ( retract )

G00 X17.97681 Y44.00736 ( rapid move to begin. )
F300.00000
G01 Z-0.05000
G04 P0 ( dwell for no time -- G64 should not smooth over this point )
F600.00000
G01 X17.97681 Y44.00736
X17.95606 Y43.83088
X17.90757 Y43.68163
X17.82060 Y43.52664
X17.70330 Y43.39314
X17.56086 Y43.28692
X17.39937 Y43.21265
X17.22601 Y43.17356
X17.04837 Y43.17135
X16.87407 Y43.20620
X16.71085 Y43.27645
X16.56579 Y43.37917
X16.44527 Y43.50973
X16.34600 Y43.68163
X16.29317 Y43.85133
X16.27676 Y44.02827
X16.29752 Y44.20475
X16.34600 Y44.35400
X16.43297 Y44.50899
X16.55027 Y44.64249
X16.69271 Y44.74871
X16.85421 Y44.82298
X17.02756 Y44.86207
X17.20524 Y44.86426
X17.37950 Y44.82943
X17.54273 Y44.75918
X17.68778 Y44.65646
X17.80831 Y44.52590
X17.90757 Y44.35400
X17.96040 Y44.18430
X17.97681 Y44.00736
G04 P0 ( dwell for no time -- G64 should not smooth over this point )
G00 Z5.00000 ( retract )

G00 X12.70123 Y38.70384 ( rapid move to begin. )
F300.00000
G01 Z-0.05000
G04 P0 ( dwell for no time -- G64 should not smooth over this point )
F600.00000
G01 X12.70123 Y38.70384
X12.65698 Y38.30397
X12.53059 Y37.92200
X12.32752 Y37.57469
X12.05673 Y37.27717
X11.74807 Y37.05292
X11.38140 Y36.88728
X10.98833 Y36.80151
X10.58605 Y36.79930
X10.17218 Y36.88728
X9.80556 Y37.05292
X9.48132 Y37.29117
X9.21376 Y37.59160
X9.01447 Y37.94111
X8.89225 Y38.32442
X8.85234 Y38.72475
X8.89659 Y39.12462
X9.02298 Y39.50658
X9.22605 Y39.85390
X9.49684 Y40.15141
X9.80550 Y40.37567
X10.17218 Y40.54130
X10.56524 Y40.62708
X10.96755 Y40.62926
X11.38140 Y40.54130
X11.74802 Y40.37567
X12.07225 Y40.13742
X12.33981 Y39.83699
X12.53910 Y39.48748
X12.66133 Y39.10417
X12.70123 Y38.70384
G04 P0 ( dwell for no time -- G64 should not smooth over this point )
G00 Z5.00000 ( retract )

G00 X23.25597 Y26.47580 ( rapid move to begin. )
F300.00000
G01 Z-0.05000
G04 P0 ( dwell for no time -- G64 should not smooth over this point )
F600.00000
G01 X23.25597 Y26.47580
X31.98580 Y26.47580
X32.18334 Y26.45561
X32.40183 Y26.38461
X32.58168 Y26.27824
X32.73551 Y26.13684
X32.85654 Y25.96650
X32.93952 Y25.77473
X32.98085 Y25.56988
X32.97864 Y25.36097
X32.93307 Y25.15703
X32.85654 Y24.98515
X32.72151 Y24.79930
X32.56477 Y24.66112
X32.38273 Y24.55853
X32.20378 Y24.50039
X31.99624 Y24.47636
X22.84180 Y24.47580
X22.59575 Y24.50735
X22.35349 Y24.60402
X22.13469 Y24.76874
X18.95105 Y27.95357
X18.79495 Y28.16259
X18.70505 Y28.37963
X18.66680 Y28.65080
X18.66680 Y40.20780
X18.68700 Y40.40539
X18.74948 Y40.60478
X18.86436 Y40.80374
X19.00577 Y40.95756
X19.15799 Y41.06815
X19.36787 Y41.16157
X19.57272 Y41.20287
X19.78163 Y41.20069
X19.98557 Y41.15512
X20.17556 Y41.06815
X20.34330 Y40.94356
X20.48148 Y40.78682
X20.58407 Y40.60478
X20.64655 Y40.40539
X20.66680 Y40.20780
X20.66680 Y29.06497
X23.25597 Y26.47580
G04 P0 ( dwell for no time -- G64 should not smooth over this point )
G00 Z5.00000 ( retract )

G00 X19.69997 Y23.93580 ( rapid move to begin. )
F300.00000
G01 Z-0.05000
G04 P0 ( dwell for no time -- G64 should not smooth over this point )
F600.00000
G01 X19.69997 Y23.93580
X31.99624 Y23.93527
X32.20378 Y23.91126
X32.40183 Y23.84461
X32.58168 Y23.73824
X32.73551 Y23.59684
X32.84610 Y23.44461
X32.93307 Y23.25462
X32.97864 Y23.05069
X32.98085 Y22.84175
X32.93307 Y22.61703
X32.84610 Y22.42704
X32.72151 Y22.25930
X32.56477 Y22.12112
X32.38273 Y22.01853
X32.20378 Y21.96039
X31.99624 Y21.93636
X19.27272 Y21.93667
X19.03975 Y21.96735
X18.79749 Y22.06402
X18.58852 Y22.22011
X16.41105 Y24.39757
X16.25495 Y24.60659
X16.16505 Y24.82363
X16.12680 Y25.09480
X16.12680 Y41.47780
X16.14700 Y41.67539
X16.20948 Y41.87478
X16.32436 Y42.07374
X16.46577 Y42.22756
X16.61799 Y42.33815
X16.80798 Y42.42512
X17.01192 Y42.47069
X17.22086 Y42.47287
X17.42568 Y42.43157
X17.61745 Y42.34859
X17.78778 Y42.22756
X17.92919 Y42.07374
X18.03556 Y41.89388
X18.10221 Y41.69584
X18.12624 Y41.48827
X18.12680 Y25.50897
X19.69997 Y23.93580
G04 P0 ( dwell for no time -- G64 should not smooth over this point )
G00 Z5.00000 ( retract )

G00 X24.66951 Y16.95080 ( rapid move to begin. )
F300.00000
G01 Z-0.05000
G04 P0 ( dwell for no time -- G64 should not smooth over this point )
F600.00000
G01 X24.66951 Y16.95080
X28.55680 Y16.95080
X28.77478 Y16.92626
X28.95373 Y16.86812
X29.13577 Y16.76553
X29.29251 Y16.62736
X29.41710 Y16.45961
X29.50407 Y16.26962
X29.54964 Y16.06569
X29.55185 Y15.85675
X29.51052 Y15.65192
X29.41710 Y15.44204
X29.30651 Y15.28982
X29.15268 Y15.14842
X28.95373 Y15.03353
X28.77478 Y14.97539
X28.56724 Y14.95136
X23.72034 Y14.95136
X23.51277 Y14.97539
X23.33382 Y15.03353
X23.15178 Y15.13612
X22.99504 Y15.27430
X22.87045 Y15.44204
X22.78348 Y15.63203
X22.73573 Y15.85675
X22.73791 Y16.06569
X22.78348 Y16.26962
X22.87045 Y16.45961
X22.99504 Y16.62736
X23.15178 Y16.76553
X23.33382 Y16.86812
X23.53321 Y16.93061
X23.80799 Y16.95080
X23.96265 Y17.02085
X24.13837 Y17.06043
X24.33921 Y17.06043
X24.51492 Y17.02085
X24.66951 Y16.95080
G04 P0 ( dwell for no time -- G64 should not smooth over this point )
G00 Z5.00000 ( retract )

G00 X32.78374 Y17.84536 ( rapid move to begin. )
F300.00000
G01 Z-0.05000
G04 P0 ( dwell for no time -- G64 should not smooth over this point )
F600.00000
G01 X32.78374 Y17.84536
X32.76413 Y17.67970
X32.71049 Y17.52172
X32.62517 Y17.37833
X32.51196 Y17.25583
X32.39383 Y17.17000
X32.24229 Y17.10015
X32.07958 Y17.06335
X31.91280 Y17.06114
X31.72929 Y17.10015
X31.57780 Y17.17000
X31.44409 Y17.26982
X31.33411 Y17.39525
X31.25258 Y17.54082
X31.20310 Y17.70015
X31.18783 Y17.86627
X31.20744 Y18.03193
X31.26109 Y18.18991
X31.34641 Y18.33330
X31.45961 Y18.45580
X31.57775 Y18.54163
X31.72929 Y18.61148
X31.89200 Y18.64828
X32.05880 Y18.65047
X32.24229 Y18.61148
X32.39378 Y18.54163
X32.52748 Y18.44180
X32.63746 Y18.31638
X32.71900 Y18.17081
X32.76848 Y18.01148
X32.78374 Y17.84536
G04 P0 ( dwell for no time -- G64 should not smooth over this point )
G00 Z5.00000 ( retract )

G00 X32.78374 Y15.30536 ( rapid move to begin. )
F300.00000
G01 Z-0.05000
G04 P0 ( dwell for no time -- G64 should not smooth over this point )
F600.00000
G01 X32.78374 Y15.30536
X32.76413 Y15.13970
X32.71049 Y14.98172
X32.62517 Y14.83833
X32.51196 Y14.71583
X32.39383 Y14.63000
X32.24229 Y14.56015
X32.07958 Y14.52335
X31.91280 Y14.52114
X31.72929 Y14.56015
X31.57780 Y14.63000
X31.44409 Y14.72982
X31.33411 Y14.85525
X31.25258 Y15.00082
X31.20310 Y15.16015
X31.18783 Y15.32627
X31.20744 Y15.49193
X31.26109 Y15.64991
X31.34641 Y15.79330
X31.45961 Y15.91580
X31.57775 Y16.00163
X31.72929 Y16.07148
X31.89200 Y16.10828
X32.05880 Y16.11047
X32.24229 Y16.07148
X32.39378 Y16.00163
X32.52748 Y15.90180
X32.63746 Y15.77638
X32.71900 Y15.63081
X32.76848 Y15.47148
X32.78374 Y15.30536
G04 P0 ( dwell for no time -- G64 should not smooth over this point )
G00 Z5.00000 ( retract )

G00 X32.78374 Y20.38536 ( rapid move to begin. )
F300.00000
G01 Z-0.05000
G04 P0 ( dwell for no time -- G64 should not smooth over this point )
F600.00000
G01 X32.78374 Y20.38536
X32.76413 Y20.21970
X32.71049 Y20.06172
X32.62517 Y19.91833
X32.51196 Y19.79583
X32.39383 Y19.71000
X32.24229 Y19.64015
X32.07958 Y19.60335
X31.91280 Y19.60114
X31.72929 Y19.64015
X31.57780 Y19.71000
X31.44409 Y19.80982
X31.33411 Y19.93525
X31.25258 Y20.08082
X31.20310 Y20.24015
X31.18783 Y20.40627
X31.20744 Y20.57193
X31.26109 Y20.72991
X31.34641 Y20.87330
X31.45961 Y20.99580
X31.57775 Y21.08163
X31.72929 Y21.15148
X31.89200 Y21.18828
X32.05880 Y21.19047
X32.24229 Y21.15148
X32.39378 Y21.08163
X32.52748 Y20.98180
X32.63746 Y20.85638
X32.71900 Y20.71081
X32.76848 Y20.55148
X32.78374 Y20.38536
G04 P0 ( dwell for no time -- G64 should not smooth over this point )
G00 Z5.00000 ( retract )

G00 X31.18730 Y27.31730 ( rapid move to begin. )
F300.00000
G01 Z-0.05000
G04 P0 ( dwell for no time -- G64 should not smooth over this point )
F600.00000
G01 X31.18730 Y27.31730
X31.18730 Y28.71430
X31.22494 Y28.79251
X31.28730 Y28.81430
X32.68430 Y28.81430
X32.76248 Y28.77666
X32.78430 Y28.71430
X32.78430 Y27.31730
X32.74663 Y27.23912
X32.68430 Y27.21730
X31.28730 Y27.21730
X31.20909 Y27.25497
X31.18730 Y27.31730
G04 P0 ( dwell for no time -- G64 should not smooth over this point )
G00 Z5.00000 ( retract )

G00 X40.40374 Y28.00536 ( rapid move to begin. )
F300.00000
G01 Z-0.05000
G04 P0 ( dwell for no time -- G64 should not smooth over this point )
F600.00000
G01 X40.40374 Y28.00536
X40.38413 Y27.83970
X40.33049 Y27.68172
X40.24517 Y27.53833
X40.13196 Y27.41583
X40.01383 Y27.33000
X39.86229 Y27.26015
X39.69958 Y27.22335
X39.53280 Y27.22114
X39.34929 Y27.26015
X39.19780 Y27.33000
X39.06409 Y27.42982
X38.95411 Y27.55525
X38.87258 Y27.70082
X38.82310 Y27.86015
X38.80783 Y28.02627
X38.82744 Y28.19193
X38.88109 Y28.34991
X38.96641 Y28.49330
X39.07961 Y28.61580
X39.19775 Y28.70163
X39.34929 Y28.77148
X39.51200 Y28.80828
X39.67880 Y28.81047
X39.86229 Y28.77148
X40.01378 Y28.70163
X40.14748 Y28.60180
X40.25746 Y28.47638
X40.33900 Y28.33081
X40.38848 Y28.17148
X40.40374 Y28.00536
G04 P0 ( dwell for no time -- G64 should not smooth over this point )
G00 Z5.00000 ( retract )

G00 X40.40374 Y22.92536 ( rapid move to begin. )
F300.00000
G01 Z-0.05000
G04 P0 ( dwell for no time -- G64 should not smooth over this point )
F600.00000
G01 X40.40374 Y22.92536
X40.38413 Y22.75970
X40.33049 Y22.60172
X40.24517 Y22.45833
X40.13196 Y22.33583
X40.01383 Y22.25000
X39.86229 Y22.18015
X39.69958 Y22.14335
X39.53280 Y22.14114
X39.34929 Y22.18015
X39.19780 Y22.25000
X39.06409 Y22.34982
X38.95411 Y22.47525
X38.87258 Y22.62082
X38.82310 Y22.78015
X38.80783 Y22.94627
X38.82744 Y23.11193
X38.88109 Y23.26991
X38.96641 Y23.41330
X39.07961 Y23.53580
X39.19775 Y23.62163
X39.34929 Y23.69148
X39.51200 Y23.72828
X39.67880 Y23.73047
X39.86229 Y23.69148
X40.01378 Y23.62163
X40.14748 Y23.52180
X40.25746 Y23.39638
X40.33900 Y23.25081
X40.38848 Y23.09148
X40.40374 Y22.92536
G04 P0 ( dwell for no time -- G64 should not smooth over this point )
G00 Z5.00000 ( retract )

G00 X40.40374 Y20.38536 ( rapid move to begin. )
F300.00000
G01 Z-0.05000
G04 P0 ( dwell for no time -- G64 should not smooth over this point )
F600.00000
G01 X40.40374 Y20.38536
X40.38413 Y20.21970
X40.33049 Y20.06172
X40.24517 Y19.91833
X40.13196 Y19.79583
X40.01383 Y19.71000
X39.86229 Y19.64015
X39.69958 Y19.60335
X39.53280 Y19.60114
X39.34929 Y19.64015
X39.19780 Y19.71000
X39.06409 Y19.80982
X38.95411 Y19.93525
X38.87258 Y20.08082
X38.82310 Y20.24015
X38.80783 Y20.40627
X38.82744 Y20.57193
X38.88109 Y20.72991
X38.96641 Y20.87330
X39.07961 Y20.99580
X39.19775 Y21.08163
X39.34929 Y21.15148
X39.51200 Y21.18828
X39.67880 Y21.19047
X39.86229 Y21.15148
X40.01378 Y21.08163
X40.14748 Y20.98180
X40.25746 Y20.85638
X40.33900 Y20.71081
X40.38848 Y20.55148
X40.40374 Y20.38536
G04 P0 ( dwell for no time -- G64 should not smooth over this point )
G00 Z5.00000 ( retract )

G00 X40.40374 Y17.84536 ( rapid move to begin. )
F300.00000
G01 Z-0.05000
G04 P0 ( dwell for no time -- G64 should not smooth over this point )
F600.00000
G01 X40.40374 Y17.84536
X40.38413 Y17.67970
X40.33049 Y17.52172
X40.24517 Y17.37833
X40.13196 Y17.25583
X40.01383 Y17.17000
X39.86229 Y17.10015
X39.69958 Y17.06335
X39.53280 Y17.06114
X39.34929 Y17.10015
X39.19780 Y17.17000
X39.06409 Y17.26982
X38.95411 Y17.39525
X38.87258 Y17.54082
X38.82310 Y17.70015
X38.80783 Y17.86627
X38.82744 Y18.03193
X38.88109 Y18.18991
X38.96641 Y18.33330
X39.07961 Y18.45580
X39.19775 Y18.54163
X39.34929 Y18.61148
X39.51200 Y18.64828
X39.67880 Y18.65047
X39.86229 Y18.61148
X40.01378 Y18.54163
X40.14748 Y18.44180
X40.25746 Y18.31638
X40.33900 Y18.17081
X40.38848 Y18.01148
X40.40374 Y17.84536
G04 P0 ( dwell for no time -- G64 should not smooth over this point )
G00 Z5.00000 ( retract )

G00 X40.40374 Y15.30536 ( rapid move to begin. )
F300.00000
G01 Z-0.05000
G04 P0 ( dwell for no time -- G64 should not smooth over this point )
F600.00000
G01 X40.40374 Y15.30536
X40.38413 Y15.13970
X40.33049 Y14.98172
X40.24517 Y14.83833
X40.13196 Y14.71583
X40.01383 Y14.63000
X39.86229 Y14.56015
X39.69958 Y14.52335
X39.53280 Y14.52114
X39.34929 Y14.56015
X39.19780 Y14.63000
X39.06409 Y14.72982
X38.95411 Y14.85525
X38.87258 Y15.00082
X38.82310 Y15.16015
X38.80783 Y15.32627
X38.82744 Y15.49193
X38.88109 Y15.64991
X38.96641 Y15.79330
X39.07961 Y15.91580
X39.19775 Y16.00163
X39.34929 Y16.07148
X39.51200 Y16.10828
X39.67880 Y16.11047
X39.86229 Y16.07148
X40.01378 Y16.00163
X40.14748 Y15.90180
X40.25746 Y15.77638
X40.33900 Y15.63081
X40.38848 Y15.47148
X40.40374 Y15.30536
G04 P0 ( dwell for no time -- G64 should not smooth over this point )
G00 Z5.00000 ( retract )

G00 X40.40374 Y12.76536 ( rapid move to begin. )
F300.00000
G01 Z-0.05000
G04 P0 ( dwell for no time -- G64 should not smooth over this point )
F600.00000
G01 X40.40374 Y12.76536
X40.38413 Y12.59970
X40.33049 Y12.44172
X40.24517 Y12.29833
X40.13196 Y12.17583
X40.01383 Y12.09000
X39.86229 Y12.02015
X39.69958 Y11.98335
X39.53280 Y11.98114
X39.34929 Y12.02015
X39.19780 Y12.09000
X39.06409 Y12.18982
X38.95411 Y12.31525
X38.87258 Y12.46082
X38.82310 Y12.62015
X38.80783 Y12.78627
X38.82744 Y12.95193
X38.88109 Y13.10991
X38.96641 Y13.25330
X39.07961 Y13.37580
X39.19775 Y13.46163
X39.34929 Y13.53148
X39.51200 Y13.56828
X39.67880 Y13.57047
X39.86229 Y13.53148
X40.01378 Y13.46163
X40.14748 Y13.36180
X40.25746 Y13.23638
X40.33900 Y13.09081
X40.38848 Y12.93148
X40.40374 Y12.76536
G04 P0 ( dwell for no time -- G64 should not smooth over this point )
G00 Z5.00000 ( retract )

G00 X40.40374 Y10.22536 ( rapid move to begin. )
F300.00000
G01 Z-0.05000
G04 P0 ( dwell for no time -- G64 should not smooth over this point )
F600.00000
G01 X40.40374 Y10.22536
X40.38413 Y10.05970
X40.33049 Y9.90172
X40.24517 Y9.75833
X40.13196 Y9.63583
X40.01383 Y9.55000
X39.86229 Y9.48015
X39.69958 Y9.44335
X39.53280 Y9.44114
X39.34929 Y9.48015
X39.19780 Y9.55000
X39.06409 Y9.64982
X38.95411 Y9.77525
X38.87258 Y9.92082
X38.82310 Y10.08015
X38.80783 Y10.24627
X38.82744 Y10.41193
X38.88109 Y10.56991
X38.96641 Y10.71330
X39.07961 Y10.83580
X39.19775 Y10.92163
X39.34929 Y10.99148
X39.51200 Y11.02828
X39.67880 Y11.03047
X39.86229 Y10.99148
X40.01378 Y10.92163
X40.14748 Y10.82180
X40.25746 Y10.69638
X40.33900 Y10.55081
X40.38848 Y10.39148
X40.40374 Y10.22536
G04 P0 ( dwell for no time -- G64 should not smooth over this point )
G00 Z5.00000 ( retract )

G00 X40.40374 Y7.68536 ( rapid move to begin. )
F300.00000
G01 Z-0.05000
G04 P0 ( dwell for no time -- G64 should not smooth over this point )
F600.00000
G01 X40.40374 Y7.68536
X40.38413 Y7.51970
X40.33049 Y7.36172
X40.24517 Y7.21833
X40.13196 Y7.09583
X40.01383 Y7.01000
X39.86229 Y6.94015
X39.69958 Y6.90335
X39.53280 Y6.90114
X39.34929 Y6.94015
X39.19780 Y7.01000
X39.06409 Y7.10982
X38.95411 Y7.23525
X38.87258 Y7.38082
X38.82310 Y7.54015
X38.80783 Y7.70627
X38.82744 Y7.87193
X38.88109 Y8.02991
X38.96641 Y8.17330
X39.07961 Y8.29580
X39.19775 Y8.38163
X39.34929 Y8.45148
X39.51200 Y8.48828
X39.67880 Y8.49047
X39.86229 Y8.45148
X40.01378 Y8.38163
X40.14748 Y8.28180
X40.25746 Y8.15638
X40.33900 Y8.01081
X40.38848 Y7.85148
X40.40374 Y7.68536
G04 P0 ( dwell for no time -- G64 should not smooth over this point )
G00 Z5.00000 ( retract )

G00 X40.40374 Y5.14536 ( rapid move to begin. )
F300.00000
G01 Z-0.05000
G04 P0 ( dwell for no time -- G64 should not smooth over this point )
F600.00000
G01 X40.40374 Y5.14536
X40.38413 Y4.97970
X40.33049 Y4.82172
X40.24517 Y4.67833
X40.13196 Y4.55583
X40.01383 Y4.47000
X39.86229 Y4.40015
X39.69958 Y4.36335
X39.53280 Y4.36114
X39.34929 Y4.40015
X39.19780 Y4.47000
X39.06409 Y4.56982
X38.95411 Y4.69525
X38.87258 Y4.84082
X38.82310 Y5.00015
X38.80783 Y5.16627
X38.82744 Y5.33193
X38.88109 Y5.48991
X38.96641 Y5.63330
X39.07961 Y5.75580
X39.19775 Y5.84163
X39.34929 Y5.91148
X39.51200 Y5.94828
X39.67880 Y5.95047
X39.86229 Y5.91148
X40.01378 Y5.84163
X40.14748 Y5.74180
X40.25746 Y5.61638
X40.33900 Y5.47081
X40.38848 Y5.31148
X40.40374 Y5.14536
G04 P0 ( dwell for no time -- G64 should not smooth over this point )
G00 Z5.00000 ( retract )

G00 X41.68657 Y3.10081 ( rapid move to begin. )
F300.00000
G01 Z-0.05000
G04 P0 ( dwell for no time -- G64 should not smooth over this point )
F600.00000
G01 X41.68657 Y3.10081
X46.35367 Y7.76791
X46.54988 Y7.91958
X46.78956 Y8.02255
X47.06078 Y8.06080
X51.41680 Y8.06080
X51.61434 Y8.04061
X51.83283 Y7.96961
X51.99577 Y7.87553
X52.15251 Y7.73736
X52.28754 Y7.55150
X52.36407 Y7.37962
X52.40964 Y7.17569
X52.40964 Y6.94597
X52.36407 Y6.74203
X52.27710 Y6.55204
X52.15251 Y6.38430
X51.99577 Y6.24612
X51.81373 Y6.14353
X51.63478 Y6.08539
X51.41680 Y6.06080
X47.47490 Y6.06080
X42.80785 Y1.39376
X42.58903 Y1.22901
X42.34674 Y1.13237
X42.10079 Y1.10082
X38.10080 Y1.10082
X37.82958 Y1.13912
X37.58990 Y1.24209
X37.39369 Y1.39373
X35.39367 Y3.39373
X35.24200 Y3.58997
X35.13903 Y3.82964
X35.10078 Y4.10081
X35.10078 Y34.10080
X35.13903 Y34.37202
X35.24200 Y34.61170
X35.39367 Y34.80791
X36.80167 Y36.21591
X37.02049 Y36.38063
X37.23756 Y36.47055
X37.49572 Y36.50796
X51.92480 Y36.50880
X52.14278 Y36.48426
X52.32173 Y36.42612
X52.50377 Y36.32353
X52.67451 Y36.16984
X52.78510 Y36.01761
X52.87207 Y35.82762
X52.91764 Y35.62369
X52.91985 Y35.41475
X52.87207 Y35.19003
X52.78510 Y35.00004
X52.67451 Y34.84782
X52.52068 Y34.70642
X52.34083 Y34.60004
X52.12234 Y34.52905
X51.92480 Y34.50880
X37.92290 Y34.50880
X37.10078 Y33.68668
X37.10078 Y4.51504
X38.51497 Y3.10081
X41.68657 Y3.10081
G04 P0 ( dwell for no time -- G64 should not smooth over this point )
G00 Z5.00000 ( retract )

G00 X42.07831 Y0.79282 ( rapid move to begin. )
F300.00000
G01 Z-0.05000
G04 P0 ( dwell for no time -- G64 should not smooth over this point )
F600.00000
G01 X42.07831 Y0.79282
X42.59957 Y0.89648
X43.04151 Y1.19178
X47.53609 Y5.68633
X47.65069 Y5.74765
X50.05655 Y5.75280
X50.16349 Y5.72565
X50.23880 Y5.66058
X50.28261 Y5.54168
X50.23435 Y5.26025
X50.23435 Y3.77988
X50.26649 Y3.60904
X50.35666 Y3.46891
X50.49295 Y3.37579
X50.67761 Y3.33838
X52.15746 Y3.33838
X52.32856 Y3.37054
X52.46869 Y3.46073
X52.56181 Y3.59703
X52.59922 Y3.78169
X52.59922 Y5.26152
X52.56704 Y5.43264
X52.47687 Y5.57277
X52.21337 Y5.73167
X52.16204 Y5.81310
X52.14911 Y5.90838
X52.18815 Y6.01869
X52.33793 Y6.13825
X52.62107 Y6.56200
X52.72035 Y7.06080
X52.62112 Y7.55963
X52.33852 Y7.98257
X51.96940 Y8.23903
X51.92264 Y8.32422
X51.91375 Y8.39971
X51.92813 Y8.46842
X51.96666 Y8.53405
X52.07712 Y8.60687
X52.40804 Y8.93720
X52.58655 Y9.36715
X52.58703 Y9.83242
X52.40923 Y10.26270
X52.08040 Y10.59211
X51.65045 Y10.77062
X51.18518 Y10.77111
X50.75490 Y10.59331
X50.42549 Y10.26448
X50.24698 Y9.83453
X50.24650 Y9.36926
X50.42430 Y8.93898
X50.61383 Y8.74830
X50.66867 Y8.63860
X50.67113 Y8.56888
X50.64990 Y8.49666
X50.61015 Y8.43946
X50.54982 Y8.39430
X50.44609 Y8.36883
X47.08298 Y8.36883
X46.56197 Y8.26519
X46.12001 Y7.96989
X41.62546 Y3.47534
X41.53605 Y3.42078
X41.46498 Y3.40881
X38.73661 Y3.40881
X38.66542 Y3.42080
X38.57608 Y3.47534
X37.44642 Y4.61229
X37.40878 Y4.73663
X37.40878 Y33.46499
X37.42069 Y33.53611
X37.47525 Y33.62552
X37.98409 Y34.13433
X38.04284 Y34.17622
X38.14461 Y34.20080
X50.60337 Y34.19715
X50.67149 Y34.17365
X50.73278 Y34.12572
X50.77187 Y34.06537
X50.79061 Y33.98968
X50.74235 Y33.70825
X50.74235 Y32.22788
X50.77449 Y32.05704
X50.86466 Y31.91691
X51.00095 Y31.82379
X51.18561 Y31.78638
X52.66546 Y31.78638
X52.83656 Y31.81854
X52.97669 Y31.90873
X53.06981 Y32.04503
X53.10722 Y32.22969
X53.10722 Y33.70952
X53.07504 Y33.88064
X52.98487 Y34.02077
X52.72137 Y34.17967
X52.68081 Y34.23621
X52.65660 Y34.32928
X52.66607 Y34.40403
X52.69615 Y34.46669
X52.84646 Y34.58706
X53.12907 Y35.01000
X53.22835 Y35.50880
X53.12912 Y36.00763
X52.85695 Y36.42130
X52.83722 Y36.51642
X52.85914 Y36.61109
X52.93582 Y36.70085
X53.05314 Y36.74024
X54.51697 Y36.74080
X54.58804 Y36.72889
X54.66762 Y36.68297
X54.75507 Y36.58939
X54.78758 Y36.51098
X54.78758 Y29.69068
X54.72627 Y29.57615
X53.49470 Y28.34460
X53.42330 Y28.29667
X53.32868 Y28.27849
X53.23506 Y28.30125
X53.15934 Y28.36086
X53.11525 Y28.44648
X53.10722 Y29.64552
X53.07504 Y29.81664
X52.98487 Y29.95677
X52.84857 Y30.04988
X52.66417 Y30.08725
X51.18383 Y30.08725
X51.01297 Y30.05512
X50.87283 Y29.96495
X50.77972 Y29.82865
X50.74235 Y29.64422
X50.74235 Y28.16388
X50.79117 Y27.89475
X50.76857 Y27.80099
X50.72884 Y27.74369
X50.66849 Y27.69838
X50.57532 Y27.67341
X49.38698 Y27.67283
X48.86595 Y27.56919
X48.42399 Y27.27389
X48.00045 Y26.85035
X47.91104 Y26.79579
X47.83997 Y26.78383
X40.48655 Y26.78383
X40.40214 Y26.80049
X40.32233 Y26.85459
X40.27225 Y26.93689
X40.25990 Y27.00552
X40.27067 Y27.08012
X40.30191 Y27.14237
X40.54324 Y27.38822
X40.71205 Y27.79485
X40.71253 Y28.23488
X40.54438 Y28.64176
X40.23338 Y28.95332
X39.82675 Y29.12212
X39.38673 Y29.12261
X38.97984 Y28.95446
X38.66829 Y28.64346
X38.49948 Y28.23683
X38.49900 Y27.79678
X38.66714 Y27.38989
X38.97817 Y27.07834
X39.06696 Y27.03767
X39.11987 Y26.99150
X39.15830 Y26.92591
X39.17235 Y26.82980
X39.15660 Y26.76137
X39.10199 Y26.68113
X38.68403 Y26.39759
X38.40146 Y25.97468
X38.30217 Y25.47585
X38.40141 Y24.97705
X38.68401 Y24.55411
X39.10169 Y24.27072
X39.15635 Y24.19038
X39.17230 Y24.09450
X39.14667 Y24.00077
X39.10476 Y23.94433
X38.97984 Y23.87446
X38.66829 Y23.56346
X38.49948 Y23.15683
X38.49900 Y22.71678
X38.66714 Y22.30989
X38.97814 Y21.99836
X39.27425 Y21.87540
X39.34570 Y21.82780
X39.39874 Y21.74723
X39.41345 Y21.65198
X39.38728 Y21.55922
X39.32490 Y21.48569
X38.97984 Y21.33446
X38.66829 Y21.02346
X38.49948 Y20.61683
X38.49900 Y20.17678
X38.66714 Y19.76989
X38.97814 Y19.45836
X39.27425 Y19.33540
X39.34570 Y19.28780
X39.39874 Y19.20723
X39.41345 Y19.11198
X39.38728 Y19.01922
X39.32490 Y18.94569
X38.97984 Y18.79446
X38.66829 Y18.48346
X38.49948 Y18.07683
X38.49900 Y17.63678
X38.66714 Y17.22989
X38.97814 Y16.91836
X39.27425 Y16.79540
X39.34570 Y16.74780
X39.39874 Y16.66723
X39.41345 Y16.57198
X39.38728 Y16.47922
X39.32490 Y16.40569
X38.97984 Y16.25446
X38.66829 Y15.94346
X38.49948 Y15.53683
X38.49900 Y15.09678
X38.66714 Y14.68989
X38.97814 Y14.37836
X39.27425 Y14.25540
X39.34570 Y14.20780
X39.39874 Y14.12723
X39.41345 Y14.03198
X39.38728 Y13.93922
X39.32490 Y13.86569
X38.97984 Y13.71446
X38.66829 Y13.40346
X38.49948 Y12.99683
X38.49900 Y12.55678
X38.66714 Y12.14989
X38.97814 Y11.83836
X39.27425 Y11.71540
X39.34570 Y11.66780
X39.39874 Y11.58723
X39.41345 Y11.49198
X39.38728 Y11.39922
X39.32490 Y11.32569
X38.97984 Y11.17446
X38.66829 Y10.86346
X38.49948 Y10.45683
X38.49900 Y10.01678
X38.66714 Y9.60989
X38.97814 Y9.29836
X39.27425 Y9.17540
X39.34570 Y9.12780
X39.39874 Y9.04723
X39.41345 Y8.95198
X39.38728 Y8.85922
X39.32490 Y8.78569
X38.97984 Y8.63446
X38.66829 Y8.32346
X38.49948 Y7.91683
X38.49900 Y7.47678
X38.66714 Y7.06989
X38.97814 Y6.75836
X39.27425 Y6.63540
X39.34570 Y6.58780
X39.39874 Y6.50723
X39.41345 Y6.41198
X39.38728 Y6.31922
X39.32490 Y6.24569
X38.97984 Y6.09446
X38.66829 Y5.78346
X38.49948 Y5.37683
X38.49900 Y4.93678
X38.66714 Y4.52989
X38.97814 Y4.21836
X39.38477 Y4.04956
X39.82482 Y4.04907
X40.23171 Y4.21722
X40.54324 Y4.52822
X40.71205 Y4.93485
X40.71253 Y5.37488
X40.54438 Y5.78176
X40.23338 Y6.09332
X39.88622 Y6.24617
X39.82401 Y6.31978
X39.79805 Y6.41257
X39.81294 Y6.50777
X39.86607 Y6.58823
X39.93763 Y6.63573
X40.23171 Y6.75722
X40.54324 Y7.06822
X40.71205 Y7.47485
X40.71253 Y7.91488
X40.54438 Y8.32176
X40.23338 Y8.63332
X39.88622 Y8.78617
X39.82401 Y8.85978
X39.79805 Y8.95257
X39.81294 Y9.04777
X39.86607 Y9.12823
X39.93763 Y9.17573
X40.23171 Y9.29722
X40.54324 Y9.60822
X40.71205 Y10.01485
X40.71253 Y10.45488
X40.54438 Y10.86176
X40.23338 Y11.17332
X39.88622 Y11.32617
X39.82401 Y11.39978
X39.79805 Y11.49257
X39.81294 Y11.58777
X39.86607 Y11.66823
X39.93763 Y11.71573
X40.23171 Y11.83722
X40.54324 Y12.14822
X40.71205 Y12.55485
X40.71253 Y12.99488
X40.54438 Y13.40176
X40.23336 Y13.71334
X39.88622 Y13.86617
X39.82401 Y13.93978
X39.79805 Y14.03257
X39.81294 Y14.12777
X39.86607 Y14.20823
X39.93763 Y14.25573
X40.23171 Y14.37722
X40.54324 Y14.68822
X40.71205 Y15.09485
X40.71253 Y15.53488
X40.54438 Y15.94176
X40.23338 Y16.25332
X39.88622 Y16.40617
X39.82401 Y16.47978
X39.79805 Y16.57257
X39.81294 Y16.66777
X39.86607 Y16.74823
X39.93763 Y16.79573
X40.23171 Y16.91722
X40.54324 Y17.22822
X40.71205 Y17.63485
X40.71253 Y18.07488
X40.54438 Y18.48176
X40.23338 Y18.79332
X39.88622 Y18.94617
X39.82401 Y19.01978
X39.79805 Y19.11257
X39.81294 Y19.20777
X39.86607 Y19.28823
X39.93763 Y19.33573
X40.23171 Y19.45722
X40.54324 Y19.76822
X40.71205 Y20.17485
X40.71253 Y20.61488
X40.54438 Y21.02176
X40.23338 Y21.33332
X39.88622 Y21.48617
X39.82401 Y21.55978
X39.80029 Y21.63133
X39.80616 Y21.72750
X39.86607 Y21.82823
X39.93763 Y21.87573
X40.23171 Y21.99722
X40.54324 Y22.30822
X40.71205 Y22.71485
X40.71253 Y23.15488
X40.54438 Y23.56176
X40.32607 Y23.78045
X40.27824 Y23.85183
X40.26010 Y23.94642
X40.28289 Y24.04004
X40.35962 Y24.12853
X40.48675 Y24.16780
X48.45328 Y24.16780
X48.97456 Y24.27149
X49.41652 Y24.56679
X49.84007 Y24.99033
X49.92945 Y25.04489
X50.00060 Y25.05680
X50.96481 Y25.05624
X51.05787 Y25.03138
X51.11832 Y24.98611
X51.16841 Y24.90379
X51.18076 Y24.83519
X51.16996 Y24.76059
X51.13877 Y24.69833
X50.93349 Y24.48848
X50.75498 Y24.05853
X50.75450 Y23.59326
X50.93230 Y23.16298
X51.26112 Y22.83357
X51.69107 Y22.65506
X52.15635 Y22.65457
X52.58662 Y22.83237
X52.91604 Y23.16120
X53.09455 Y23.59115
X53.09503 Y24.05642
X52.91723 Y24.48670
X52.73481 Y24.66945
X52.68698 Y24.74083
X52.67039 Y24.85683
X52.71741 Y24.97014
X52.79170 Y25.03138
X52.85782 Y25.05335
X53.34227 Y25.05680
X53.86356 Y25.16049
X54.30552 Y25.45579
X57.00978 Y28.16002
X57.30508 Y28.60198
X57.40879 Y29.12327
X57.40879 Y37.07839
X57.30513 Y37.59963
X57.00983 Y38.04159
X56.09358 Y38.95784
X55.65162 Y39.25314
X55.13056 Y39.35683
X51.94700 Y39.35683
X51.42597 Y39.25319
X51.00306 Y38.97059
X50.72046 Y38.54768
X50.62117 Y38.04885
X50.72041 Y37.55005
X50.97438 Y37.16996
X51.01096 Y37.06864
X51.00649 Y36.99277
X50.96486 Y36.90506
X50.91370 Y36.85683
X50.82371 Y36.82041
X37.53098 Y36.81683
X37.00997 Y36.71319
X36.56801 Y36.41789
X35.19176 Y35.04164
X34.89646 Y34.59968
X34.79278 Y34.07863
X34.79278 Y4.12306
X34.89641 Y3.60203
X35.19171 Y3.16007
X37.15996 Y1.19183
X37.60192 Y0.89653
X38.12320 Y0.79282
X42.07831 Y0.79282
G04 P0 ( dwell for no time -- G64 should not smooth over this point )
G00 Z5.00000 ( retract )

G00 X50.55480 Y3.75880 ( rapid move to begin. )
F300.00000
G01 Z-0.05000
G04 P0 ( dwell for no time -- G64 should not smooth over this point )
F600.00000
G01 X50.55480 Y3.75880
X50.55480 Y5.28280
X50.59244 Y5.36101
X50.65480 Y5.38280
X52.17880 Y5.38280
X52.25698 Y5.34516
X52.27880 Y5.28280
X52.27880 Y3.75880
X52.24113 Y3.68062
X52.17880 Y3.65880
X50.65480 Y3.65880
X50.57659 Y3.69647
X50.55480 Y3.75880
G04 P0 ( dwell for no time -- G64 should not smooth over this point )
G00 Z5.00000 ( retract )

G00 X52.27824 Y9.59036 ( rapid move to begin. )
F300.00000
G01 Z-0.05000
G04 P0 ( dwell for no time -- G64 should not smooth over this point )
F600.00000
G01 X52.27824 Y9.59036
X52.25724 Y9.41150
X52.19950 Y9.24088
X52.10755 Y9.08602
X51.98543 Y8.95363
X51.85658 Y8.86001
X51.69292 Y8.78478
X51.51721 Y8.74520
X51.33717 Y8.74299
X51.16054 Y8.77832
X50.99513 Y8.84957
X50.84817 Y8.95363
X50.72602 Y9.08602
X50.62556 Y9.25998
X50.57200 Y9.43194
X50.55533 Y9.61127
X50.57634 Y9.79013
X50.63407 Y9.96074
X50.72602 Y10.11561
X50.84815 Y10.24799
X50.97700 Y10.34162
X51.14065 Y10.41685
X51.31637 Y10.45643
X51.49643 Y10.45861
X51.67304 Y10.42330
X51.83844 Y10.35206
X51.98540 Y10.24799
X52.10755 Y10.11561
X52.20801 Y9.94164
X52.26158 Y9.76969
X52.27824 Y9.59036
G04 P0 ( dwell for no time -- G64 should not smooth over this point )
G00 Z5.00000 ( retract )

G00 X50.55480 Y12.39480 ( rapid move to begin. )
F300.00000
G01 Z-0.05000
G04 P0 ( dwell for no time -- G64 should not smooth over this point )
F600.00000
G01 X50.55480 Y12.39480
X50.55480 Y13.91880
X50.59244 Y13.99701
X50.65480 Y14.01880
X52.17880 Y14.01880
X52.25698 Y13.98116
X52.27880 Y13.91880
X52.27880 Y12.39480
X52.24113 Y12.31662
X52.17880 Y12.29480
X50.65480 Y12.29480
X50.59244 Y12.31662
X50.55480 Y12.39480
G04 P0 ( dwell for no time -- G64 should not smooth over this point )
G00 Z5.00000 ( retract )

G00 X50.42430 Y15.03498 ( rapid move to begin. )
F300.00000
G01 Z-0.05000
G04 P0 ( dwell for no time -- G64 should not smooth over this point )
F600.00000
G01 X50.42430 Y15.03498
X50.76968 Y14.68393
X50.80093 Y14.62073
X50.81111 Y14.54504
X50.78678 Y14.45058
X50.72496 Y14.37509
X50.66339 Y14.34054
X50.50497 Y14.30712
X50.36483 Y14.21695
X50.27172 Y14.08065
X50.23435 Y13.89622
X50.23435 Y12.41588
X50.26649 Y12.24504
X50.35666 Y12.10491
X50.49295 Y12.01179
X50.67761 Y11.97438
X52.15746 Y11.97438
X52.32856 Y12.00654
X52.46869 Y12.09673
X52.56181 Y12.23303
X52.59922 Y12.41769
X52.59922 Y13.89752
X52.56704 Y14.06864
X52.47687 Y14.20877
X52.34057 Y14.30188
X52.19214 Y14.33254
X52.10524 Y14.37595
X52.04456 Y14.45164
X52.02104 Y14.54578
X52.03158 Y14.62088
X52.06287 Y14.68365
X52.40804 Y15.03320
X52.58655 Y15.46315
X52.58703 Y15.92842
X52.40923 Y16.35870
X52.08040 Y16.68811
X51.90456 Y16.76175
X51.84266 Y16.80483
X51.78970 Y16.88534
X51.77502 Y16.98054
X51.80110 Y17.07320
X51.84291 Y17.12896
X51.88952 Y17.16307
X52.07809 Y17.24384
X52.40804 Y17.57320
X52.58655 Y18.00315
X52.58703 Y18.46842
X52.40923 Y18.89870
X52.08040 Y19.22811
X51.65045 Y19.40662
X51.18518 Y19.40711
X50.75490 Y19.22931
X50.42549 Y18.90048
X50.24698 Y18.47053
X50.24650 Y18.00526
X50.42430 Y17.57498
X50.75312 Y17.24557
X50.92899 Y17.17191
X50.99077 Y17.12896
X51.04378 Y17.04844
X51.05853 Y16.98029
X51.04367 Y16.88509
X50.99054 Y16.80462
X50.92864 Y16.76175
X50.75495 Y16.68936
X50.42549 Y16.36048
X50.24698 Y15.93053
X50.24650 Y15.46526
X50.42430 Y15.03498
G04 P0 ( dwell for no time -- G64 should not smooth over this point )
G00 Z5.00000 ( retract )

G00 X52.27824 Y15.68636 ( rapid move to begin. )
F300.00000
G01 Z-0.05000
G04 P0 ( dwell for no time -- G64 should not smooth over this point )
F600.00000
G01 X52.27824 Y15.68636
X52.25724 Y15.50750
X52.19950 Y15.33688
X52.10755 Y15.18202
X51.98543 Y15.04963
X51.85658 Y14.95601
X51.69292 Y14.88078
X51.51721 Y14.84120
X51.33717 Y14.83899
X51.16054 Y14.87432
X50.99513 Y14.94557
X50.84817 Y15.04963
X50.72602 Y15.18202
X50.62556 Y15.35598
X50.57200 Y15.52794
X50.55533 Y15.70727
X50.57634 Y15.88613
X50.63407 Y16.05674
X50.72602 Y16.21161
X50.84815 Y16.34399
X50.97700 Y16.43762
X51.14065 Y16.51285
X51.31637 Y16.55243
X51.49643 Y16.55461
X51.67304 Y16.51930
X51.83844 Y16.44806
X51.98540 Y16.34399
X52.10755 Y16.21161
X52.20801 Y16.03764
X52.26158 Y15.86569
X52.27824 Y15.68636
G04 P0 ( dwell for no time -- G64 should not smooth over this point )
G00 Z5.00000 ( retract )

G00 X52.27824 Y18.22636 ( rapid move to begin. )
F300.00000
G01 Z-0.05000
G04 P0 ( dwell for no time -- G64 should not smooth over this point )
F600.00000
G01 X52.27824 Y18.22636
X52.25724 Y18.04750
X52.19950 Y17.87688
X52.10755 Y17.72202
X51.98543 Y17.58963
X51.85658 Y17.49601
X51.69292 Y17.42078
X51.51721 Y17.38120
X51.33717 Y17.37899
X51.16054 Y17.41432
X50.99513 Y17.48557
X50.84817 Y17.58963
X50.72602 Y17.72202
X50.62556 Y17.89598
X50.57200 Y18.06794
X50.55533 Y18.24727
X50.57634 Y18.42613
X50.63407 Y18.59674
X50.72602 Y18.75161
X50.84815 Y18.88399
X50.97700 Y18.97762
X51.14065 Y19.05285
X51.31637 Y19.09243
X51.49643 Y19.09461
X51.67304 Y19.05930
X51.83844 Y18.98806
X51.98540 Y18.88399
X52.10755 Y18.75161
X52.20801 Y18.57764
X52.26158 Y18.40569
X52.27824 Y18.22636
G04 P0 ( dwell for no time -- G64 should not smooth over this point )
G00 Z5.00000 ( retract )

G00 X52.78624 Y23.81436 ( rapid move to begin. )
F300.00000
G01 Z-0.05000
G04 P0 ( dwell for no time -- G64 should not smooth over this point )
F600.00000
G01 X52.78624 Y23.81436
X52.76524 Y23.63550
X52.70750 Y23.46488
X52.61555 Y23.31002
X52.49343 Y23.17763
X52.36458 Y23.08401
X52.20092 Y23.00878
X52.02521 Y22.96920
X51.84517 Y22.96699
X51.66854 Y23.00232
X51.50313 Y23.07357
X51.35617 Y23.17763
X51.23402 Y23.31002
X51.13356 Y23.48398
X51.08000 Y23.65594
X51.06333 Y23.83527
X51.08434 Y24.01413
X51.14207 Y24.18474
X51.23402 Y24.33961
X51.35615 Y24.47199
X51.48500 Y24.56562
X51.64865 Y24.64085
X51.82437 Y24.68043
X52.00443 Y24.68261
X52.18104 Y24.64730
X52.34644 Y24.57606
X52.49340 Y24.47199
X52.61555 Y24.33961
X52.71601 Y24.16564
X52.76958 Y23.99369
X52.78624 Y23.81436
G04 P0 ( dwell for no time -- G64 should not smooth over this point )
G00 Z5.00000 ( retract )

G00 X51.06280 Y28.14280 ( rapid move to begin. )
F300.00000
G01 Z-0.05000
G04 P0 ( dwell for no time -- G64 should not smooth over this point )
F600.00000
G01 X51.06280 Y28.14280
X51.06280 Y29.66680
X51.10044 Y29.74501
X51.16280 Y29.76680
X52.68680 Y29.76680
X52.76498 Y29.72916
X52.78680 Y29.66680
X52.78680 Y28.14280
X52.74913 Y28.06462
X52.68680 Y28.04280
X51.16280 Y28.04280
X51.10044 Y28.06462
X51.06280 Y28.14280
G04 P0 ( dwell for no time -- G64 should not smooth over this point )
G00 Z5.00000 ( retract )

G00 X48.06156 Y26.47580 ( rapid move to begin. )
F300.00000
G01 Z-0.05000
G04 P0 ( dwell for no time -- G64 should not smooth over this point )
F600.00000
G01 X48.06156 Y26.47580
X48.66750 Y27.08055
X48.87650 Y27.23663
X49.11879 Y27.33330
X49.36479 Y27.36480
X52.95055 Y27.36480
X55.10079 Y29.51504
X55.10079 Y36.68660
X54.73861 Y37.04880
X51.92480 Y37.04880
X51.72721 Y37.06905
X51.52782 Y37.13153
X51.32887 Y37.24642
X51.17504 Y37.38782
X51.06445 Y37.54004
X50.97103 Y37.74992
X50.92973 Y37.95475
X50.92973 Y38.14288
X50.97748 Y38.36762
X51.06445 Y38.55761
X51.17504 Y38.70984
X51.32887 Y38.85124
X51.50872 Y38.95761
X51.72721 Y39.02861
X51.92480 Y39.04880
X55.15278 Y39.04880
X55.42396 Y39.01055
X55.66360 Y38.90760
X55.85984 Y38.75594
X56.80785 Y37.80796
X56.97257 Y37.58914
X57.06924 Y37.34687
X57.10079 Y37.10082
X57.09992 Y29.08776
X57.06924 Y28.85481
X56.97257 Y28.61255
X56.80785 Y28.39375
X54.06203 Y25.64911
X53.85302 Y25.49300
X53.61073 Y25.39635
X53.37783 Y25.36567
X49.77891 Y25.36480
X49.18284 Y24.76874
X48.98666 Y24.61705
X48.74693 Y24.51411
X48.47579 Y24.47580
X39.59534 Y24.47636
X39.38777 Y24.50039
X39.20882 Y24.55853
X39.02678 Y24.66112
X38.87004 Y24.79930
X38.73501 Y24.98515
X38.65848 Y25.15703
X38.61291 Y25.36097
X38.61073 Y25.56988
X38.65203 Y25.77473
X38.73501 Y25.96650
X38.85604 Y26.13684
X39.00987 Y26.27824
X39.18972 Y26.38461
X39.40821 Y26.45561
X39.60580 Y26.47580
X48.06156 Y26.47580
G04 P0 ( dwell for no time -- G64 should not smooth over this point )
G00 Z5.00000 ( retract )

G00 X51.06280 Y32.20680 ( rapid move to begin. )
F300.00000
G01 Z-0.05000
G04 P0 ( dwell for no time -- G64 should not smooth over this point )
F600.00000
G01 X51.06280 Y32.20680
X51.06280 Y33.73080
X51.10044 Y33.80901
X51.16280 Y33.83080
X52.68680 Y33.83080
X52.76498 Y33.79316
X52.78680 Y33.73080
X52.78680 Y32.20680
X52.74913 Y32.12862
X52.68680 Y32.10680
X51.16280 Y32.10680
X51.10044 Y32.12862
X51.06280 Y32.20680
G04 P0 ( dwell for no time -- G64 should not smooth over this point )
G00 Z5.00000 ( retract )

G00 X59.06030 Y29.51298 ( rapid move to begin. )
F300.00000
G01 Z-0.05000
G04 P0 ( dwell for no time -- G64 should not smooth over this point )
F600.00000
G01 X59.06030 Y29.51298
X59.38912 Y29.18357
X59.81907 Y29.00506
X60.28435 Y29.00457
X60.71462 Y29.18237
X61.04409 Y29.51125
X61.22255 Y29.94115
X61.22303 Y30.40645
X61.04528 Y30.83665
X60.71640 Y31.16611
X60.28645 Y31.34462
X59.82118 Y31.34511
X59.39090 Y31.16731
X59.06149 Y30.83848
X58.88298 Y30.40853
X58.88250 Y29.94326
X59.06030 Y29.51298
G04 P0 ( dwell for no time -- G64 should not smooth over this point )
G00 Z5.00000 ( retract )

G00 X60.91424 Y30.16436 ( rapid move to begin. )
F300.00000
G01 Z-0.05000
G04 P0 ( dwell for no time -- G64 should not smooth over this point )
F600.00000
G01 X60.91424 Y30.16436
X60.89324 Y29.98550
X60.83550 Y29.81488
X60.74355 Y29.66002
X60.62143 Y29.52763
X60.49258 Y29.43401
X60.32892 Y29.35878
X60.15321 Y29.31920
X59.97317 Y29.31699
X59.79654 Y29.35232
X59.63113 Y29.42357
X59.48417 Y29.52763
X59.36202 Y29.66002
X59.26156 Y29.83398
X59.20800 Y30.00594
X59.19133 Y30.18527
X59.21234 Y30.36413
X59.27007 Y30.53474
X59.36202 Y30.68961
X59.48415 Y30.82199
X59.61300 Y30.91562
X59.77665 Y30.99085
X59.95237 Y31.03043
X60.13243 Y31.03261
X60.30904 Y30.99730
X60.47444 Y30.92606
X60.62140 Y30.82199
X60.74355 Y30.68961
X60.84401 Y30.51564
X60.89758 Y30.34369
X60.91424 Y30.16436
G04 P0 ( dwell for no time -- G64 should not smooth over this point )
G00 Z5.00000 ( retract )

G00 X64.99211 Y30.38610 ( rapid move to begin. )
F300.00000
G01 Z-0.05000
G04 P0 ( dwell for no time -- G64 should not smooth over this point )
F600.00000
G01 X64.99211 Y30.38610
X65.10263 Y30.13729
X65.34525 Y30.37991
X65.30400 Y30.51394
X65.28733 Y30.67236
X65.30400 Y30.85169
X65.34525 Y30.98567
X65.10260 Y31.22839
X64.96856 Y30.85682
X64.99211 Y30.38610
G04 P0 ( dwell for no time -- G64 should not smooth over this point )
G00 Z5.00000 ( retract )

G00 X65.60321 Y29.63670 ( rapid move to begin. )
F300.00000
G01 Z-0.05000
G04 P0 ( dwell for no time -- G64 should not smooth over this point )
F600.00000
G01 X65.60321 Y29.63670
X65.97478 Y29.50264
X66.44550 Y29.52619
X66.69429 Y29.63668
X66.45213 Y29.87889
X66.22843 Y29.82499
X66.04837 Y29.82720
X65.84545 Y29.87889
X65.60321 Y29.63670
G04 P0 ( dwell for no time -- G64 should not smooth over this point )
G00 Z5.00000 ( retract )

G00 X66.95230 Y30.37991 ( rapid move to begin. )
F300.00000
G01 Z-0.05000
G04 P0 ( dwell for no time -- G64 should not smooth over this point )
F600.00000
G01 X66.95230 Y30.37991
X67.19650 Y30.13772
X67.32896 Y30.50886
X67.30541 Y30.97958
X67.19492 Y31.22839
X66.95230 Y30.98580
X66.99358 Y30.85169
X67.01024 Y30.69327
X66.99358 Y30.51394
X66.95230 Y30.37991
G04 P0 ( dwell for no time -- G64 should not smooth over this point )
G00 Z5.00000 ( retract )

G00 X65.60567 Y31.73743 ( rapid move to begin. )
F300.00000
G01 Z-0.05000
G04 P0 ( dwell for no time -- G64 should not smooth over this point )
F600.00000
G01 X65.60567 Y31.73743
X65.84545 Y31.48674
X66.06917 Y31.54061
X66.24921 Y31.53843
X66.45208 Y31.48676
X66.69434 Y31.72898
X66.32274 Y31.86304
X65.85203 Y31.83949
X65.60567 Y31.73743
G04 P0 ( dwell for no time -- G64 should not smooth over this point )
G00 Z5.00000 ( retract )

G00 X60.34950 Y41.71819 ( rapid move to begin. )
F300.00000
G01 Z-0.05000
G04 P0 ( dwell for no time -- G64 should not smooth over this point )
F600.00000
G01 X60.34950 Y41.71819
X60.59829 Y41.82868
X60.35613 Y42.07089
X60.13243 Y42.01699
X59.95237 Y42.01920
X59.74945 Y42.07089
X59.50721 Y41.82870
X59.87878 Y41.69464
X60.34950 Y41.71819
G04 P0 ( dwell for no time -- G64 should not smooth over this point )
G00 Z5.00000 ( retract )

G00 X61.09890 Y42.32926 ( rapid move to begin. )
F300.00000
G01 Z-0.05000
G04 P0 ( dwell for no time -- G64 should not smooth over this point )
F600.00000
G01 X61.09890 Y42.32926
X61.23296 Y42.70086
X61.20941 Y43.17158
X61.09892 Y43.42039
X60.85630 Y43.17780
X60.89758 Y43.04369
X60.91424 Y42.88527
X60.89758 Y42.70594
X60.85630 Y42.57191
X61.09890 Y42.32926
G04 P0 ( dwell for no time -- G64 should not smooth over this point )
G00 Z5.00000 ( retract )

G00 X60.35608 Y43.67876 ( rapid move to begin. )
F300.00000
G01 Z-0.05000
G04 P0 ( dwell for no time -- G64 should not smooth over this point )
F600.00000
G01 X60.35608 Y43.67876
X60.59788 Y43.92258
X60.22674 Y44.05504
X59.75603 Y44.03149
X59.50721 Y43.92100
X59.74945 Y43.67874
X59.97317 Y43.73261
X60.15321 Y43.73043
X60.35608 Y43.67876
G04 P0 ( dwell for no time -- G64 should not smooth over this point )
G00 Z5.00000 ( retract )

G00 X58.99819 Y42.33175 ( rapid move to begin. )
F300.00000
G01 Z-0.05000
G04 P0 ( dwell for no time -- G64 should not smooth over this point )
F600.00000
G01 X58.99819 Y42.33175
X59.24925 Y42.57191
X59.20800 Y42.70594
X59.19133 Y42.86436
X59.20800 Y43.04369
X59.24925 Y43.17767
X59.00660 Y43.42039
X58.87256 Y43.04882
X58.89611 Y42.57810
X58.99819 Y42.33175
G04 P0 ( dwell for no time -- G64 should not smooth over this point )
G00 Z5.00000 ( retract )

G00 X62.82630 Y44.73459 ( rapid move to begin. )
F300.00000
G01 Z-0.05000
G04 P0 ( dwell for no time -- G64 should not smooth over this point )
F600.00000
G01 X62.82630 Y44.73459
X64.87702 Y45.54236
X65.00042 Y45.62481
X65.43839 Y46.13261
X65.22777 Y46.34325
X64.41147 Y45.75006
X63.42137 Y45.31165
X62.36179 Y45.08864
X61.29981 Y45.08864
X60.22031 Y45.31810
X59.25013 Y45.75006
X58.43380 Y46.34327
X58.22314 Y46.13263
X58.64737 Y45.64073
X60.64335 Y44.77279
X62.82630 Y44.73459
G04 P0 ( dwell for no time -- G64 should not smooth over this point )
G00 Z5.00000 ( retract )

G00 X67.33701 Y51.23638 ( rapid move to begin. )
F300.00000
G01 Z-0.05000
G04 P0 ( dwell for no time -- G64 should not smooth over this point )
F600.00000
G01 X67.33701 Y51.23638
X66.52924 Y53.28710
X66.44679 Y53.41049
X65.93900 Y53.84847
X65.71609 Y53.62558
X66.02719 Y53.27676
X66.56671 Y52.33793
X66.89922 Y51.30745
X67.01024 Y50.23036
X66.89487 Y49.15373
X66.56671 Y48.14370
X66.02719 Y47.20487
X65.71609 Y46.85612
X65.93897 Y46.63321
X66.43087 Y47.05744
X67.29881 Y49.05343
X67.33701 Y51.23638
G04 P0 ( dwell for no time -- G64 should not smooth over this point )
G00 Z5.00000 ( retract )

G00 X63.01817 Y55.70889 ( rapid move to begin. )
F300.00000
G01 Z-0.05000
G04 P0 ( dwell for no time -- G64 should not smooth over this point )
F600.00000
G01 X63.01817 Y55.70889
X60.83522 Y55.74709
X58.78450 Y54.93932
X58.66111 Y54.85687
X58.22314 Y54.34907
X58.43380 Y54.13838
X59.25011 Y54.73157
X60.24020 Y55.16998
X61.27901 Y55.39078
X62.36179 Y55.39296
X63.44126 Y55.16352
X64.41144 Y54.73157
X65.22772 Y54.13841
X65.43839 Y54.34905
X65.01416 Y54.84094
X63.01817 Y55.70889
G04 P0 ( dwell for no time -- G64 should not smooth over this point )
G00 Z5.00000 ( retract )

G00 X56.36271 Y51.42825 ( rapid move to begin. )
F300.00000
G01 Z-0.05000
G04 P0 ( dwell for no time -- G64 should not smooth over this point )
F600.00000
G01 X56.36271 Y51.42825
X56.32451 Y49.24530
X57.13228 Y47.19458
X57.21473 Y47.07119
X57.72253 Y46.63321
X57.94546 Y46.85612
X57.63439 Y47.20487
X57.09487 Y48.14370
X56.76236 Y49.17418
X56.65133 Y50.25127
X56.76670 Y51.32790
X57.09487 Y52.33793
X57.63439 Y53.27676
X57.94549 Y53.62550
X57.72255 Y53.84847
X57.23066 Y53.42423
X56.36271 Y51.42825
G04 P0 ( dwell for no time -- G64 should not smooth over this point )
G00 Z5.00000 ( retract )

G00 X37.03824 Y50.23036 ( rapid move to begin. )
F300.00000
G01 Z-0.05000
G04 P0 ( dwell for no time -- G64 should not smooth over this point )
F600.00000
G01 X37.03824 Y50.23036
X36.92287 Y49.15373
X36.58620 Y48.12460
X36.04289 Y47.18795
X35.31676 Y46.38475
X34.45758 Y45.76050
X33.46926 Y45.31810
X32.41056 Y45.09085
X31.32781 Y45.08864
X30.26820 Y45.31165
X29.27813 Y45.75006
X28.40082 Y46.38475
X27.67468 Y47.18795
X27.12287 Y48.14370
X26.79036 Y49.17418
X26.67933 Y50.25127
X26.79470 Y51.32790
X27.13138 Y52.35703
X27.67468 Y53.29368
X28.40082 Y54.09688
X29.26000 Y54.72113
X30.24831 Y55.16352
X31.30701 Y55.39078
X32.38979 Y55.39296
X33.44937 Y55.16998
X34.43944 Y54.73157
X35.31676 Y54.09688
X36.04289 Y53.29368
X36.59471 Y52.33793
X36.92722 Y51.30745
X37.03824 Y50.23036
G04 P0 ( dwell for no time -- G64 should not smooth over this point )
G00 Z5.00000 ( retract )

G00 X30.76241 Y44.75382 ( rapid move to begin. )
F300.00000
G01 Z-0.05000
G04 P0 ( dwell for no time -- G64 should not smooth over this point )
F600.00000
G01 X30.76241 Y44.75382
X32.94546 Y44.75184
X34.96337 Y45.58562
X36.50852 Y47.12806
X37.34578 Y49.14449
X37.34777 Y51.32754
X36.51399 Y53.34544
X34.97154 Y54.89060
X32.95512 Y55.72786
X30.77206 Y55.72984
X28.75416 Y54.89606
X27.20900 Y53.35362
X26.37174 Y51.33719
X26.36976 Y49.15414
X27.20354 Y47.13624
X28.74598 Y45.59108
X30.76241 Y44.75382
G04 P0 ( dwell for no time -- G64 should not smooth over this point )
G00 Z5.00000 ( retract )

G00 X19.25880 Y56.42524 ( rapid move to begin. )
F300.00000
G01 Z-0.05000
G04 P0 ( dwell for no time -- G64 should not smooth over this point )
F600.00000
G01 X19.25880 Y56.42524
X23.58272 Y53.06218
X23.75153 Y52.89421
X23.87149 Y52.70173
X23.93984 Y52.50922
X23.96880 Y52.27280
X23.96793 Y42.86175
X23.93725 Y42.62880
X23.84058 Y42.38654
X23.68450 Y42.17757
X23.53906 Y42.03211
X23.35267 Y41.88905
X23.08775 Y41.77935
X22.84180 Y41.74780
X19.66680 Y41.74780
X19.46921 Y41.76805
X19.25072 Y41.83904
X19.08778 Y41.93312
X18.93104 Y42.07130
X18.80645 Y42.23904
X18.71303 Y42.44892
X18.67173 Y42.65375
X18.67391 Y42.86269
X18.71948 Y43.06662
X18.79601 Y43.23850
X18.93104 Y43.42436
X19.08778 Y43.56253
X19.26982 Y43.66512
X19.46921 Y43.72761
X19.66680 Y43.74780
X21.96880 Y43.74780
X21.96880 Y51.78370
X17.87630 Y54.96680
X17.61252 Y54.96932
X17.55659 Y55.00447
X17.53729 Y55.04455
X17.53480 Y55.32700
X17.43953 Y55.54122
X17.39916 Y55.76738
X17.40818 Y55.97612
X17.45329 Y56.15877
X17.53480 Y56.33022
X17.53480 Y56.59080
X17.57244 Y56.66901
X17.63480 Y56.69080
X17.89850 Y56.69080
X18.03005 Y56.75862
X18.23137 Y56.81455
X18.41903 Y56.82809
X18.62631 Y56.80162
X18.82355 Y56.73264
X18.89495 Y56.69080
X19.20218 Y56.68092
X19.25629 Y56.61308
X19.25880 Y56.42524
G04 P0 ( dwell for no time -- G64 should not smooth over this point )
G00 Z5.00000 ( retract )

G00 X16.71824 Y55.81836 ( rapid move to begin. )
F300.00000
G01 Z-0.05000
G04 P0 ( dwell for no time -- G64 should not smooth over this point )
F600.00000
G01 X16.71824 Y55.81836
X16.69724 Y55.63950
X16.63950 Y55.46888
X16.54755 Y55.31402
X16.42543 Y55.18163
X16.29658 Y55.08801
X16.13292 Y55.01278
X15.95721 Y54.97320
X15.77717 Y54.97099
X15.60054 Y55.00632
X15.43513 Y55.07757
X15.28817 Y55.18163
X15.16602 Y55.31402
X15.06556 Y55.48798
X15.01200 Y55.65994
X14.99533 Y55.83927
X15.01634 Y56.01813
X15.07407 Y56.18874
X15.16602 Y56.34361
X15.28815 Y56.47599
X15.41700 Y56.56962
X15.58065 Y56.64485
X15.75637 Y56.68443
X15.93643 Y56.68661
X16.11304 Y56.65130
X16.27844 Y56.58006
X16.42540 Y56.47599
X16.54755 Y56.34361
X16.64801 Y56.16964
X16.70158 Y55.99769
X16.71824 Y55.81836
G04 P0 ( dwell for no time -- G64 should not smooth over this point )
G00 Z5.00000 ( retract )

G00 X14.17824 Y55.81836 ( rapid move to begin. )
F300.00000
G01 Z-0.05000
G04 P0 ( dwell for no time -- G64 should not smooth over this point )
F600.00000
G01 X14.17824 Y55.81836
X14.15724 Y55.63950
X14.09950 Y55.46888
X14.00755 Y55.31402
X13.88543 Y55.18163
X13.75658 Y55.08801
X13.59292 Y55.01278
X13.41721 Y54.97320
X13.23717 Y54.97099
X13.06054 Y55.00632
X12.89513 Y55.07757
X12.74817 Y55.18163
X12.62602 Y55.31402
X12.52556 Y55.48798
X12.47200 Y55.65994
X12.45533 Y55.83927
X12.47634 Y56.01813
X12.53407 Y56.18874
X12.62602 Y56.34361
X12.74815 Y56.47599
X12.87700 Y56.56962
X13.04065 Y56.64485
X13.21637 Y56.68443
X13.39643 Y56.68661
X13.57304 Y56.65130
X13.73844 Y56.58006
X13.88540 Y56.47599
X14.00755 Y56.34361
X14.10801 Y56.16964
X14.16158 Y55.99769
X14.17824 Y55.81836
G04 P0 ( dwell for no time -- G64 should not smooth over this point )
G00 Z5.00000 ( retract )

G00 X12.53880 Y17.49080 ( rapid move to begin. )
F300.00000
G01 Z-0.05000
G04 P0 ( dwell for no time -- G64 should not smooth over this point )
F600.00000
G01 X12.53880 Y17.49080
X12.53824 Y16.19436
X12.51421 Y15.98682
X12.45607 Y15.80788
X12.34119 Y15.60892
X12.19978 Y15.45510
X12.02945 Y15.33406
X11.83768 Y15.25108
X11.63286 Y15.20976
X11.42392 Y15.21197
X11.21998 Y15.25753
X11.02999 Y15.34450
X10.87777 Y15.45510
X10.73636 Y15.60892
X10.62999 Y15.78877
X10.55900 Y16.00727
X10.53880 Y16.20480
X10.53880 Y17.98280
X10.57030 Y18.22880
X10.66697 Y18.47109
X10.82305 Y18.68008
X11.33969 Y19.19791
X11.55851 Y19.36263
X11.80080 Y19.45930
X12.04680 Y19.49080
X28.55680 Y19.49080
X28.75434 Y19.47061
X28.95373 Y19.40812
X29.13577 Y19.30553
X29.29251 Y19.16736
X29.41710 Y18.99961
X29.50407 Y18.80962
X29.55185 Y18.58488
X29.54964 Y18.37597
X29.50407 Y18.17203
X29.41710 Y17.98204
X29.30651 Y17.82982
X29.15268 Y17.68842
X28.97283 Y17.58204
X28.77478 Y17.51539
X28.56724 Y17.49136
X12.53880 Y17.49080
G04 P0 ( dwell for no time -- G64 should not smooth over this point )
G00 Z5.00000 ( retract )

G00 X9.15897 Y11.10880 ( rapid move to begin. )
F300.00000
G01 Z-0.05000
G04 P0 ( dwell for no time -- G64 should not smooth over this point )
F600.00000
G01 X9.15897 Y11.10880
X24.07858 Y11.10880
X26.46252 Y13.49155
X26.67151 Y13.64763
X26.88858 Y13.73755
X27.15980 Y13.77580
X31.98580 Y13.77580
X32.20378 Y13.75126
X32.38273 Y13.69312
X32.56477 Y13.59053
X32.72151 Y13.45236
X32.84610 Y13.28461
X32.93307 Y13.09462
X32.97864 Y12.89069
X32.98085 Y12.68175
X32.93952 Y12.47692
X32.84610 Y12.26704
X32.72151 Y12.09930
X32.56477 Y11.96112
X32.40183 Y11.86704
X32.18334 Y11.79605
X31.98580 Y11.77580
X27.57392 Y11.77580
X25.19986 Y9.40174
X24.98104 Y9.23700
X24.73875 Y9.14035
X24.49280 Y9.10880
X8.74480 Y9.10880
X8.49875 Y9.14035
X8.25649 Y9.23702
X8.03769 Y9.40174
X4.98969 Y12.44974
X4.82495 Y12.66859
X4.72830 Y12.91085
X4.69680 Y13.15680
X4.69680 Y45.16080
X4.73505 Y45.43202
X4.83800 Y45.67167
X4.98966 Y45.86791
X6.38666 Y47.26494
X6.60549 Y47.42966
X6.84778 Y47.52633
X7.09380 Y47.55782
X17.12680 Y47.55782
X17.34478 Y47.53329
X17.52373 Y47.47515
X17.70577 Y47.37256
X17.87651 Y47.21886
X17.98710 Y47.06664
X18.07407 Y46.87665
X18.12185 Y46.65191
X18.11964 Y46.44299
X18.07407 Y46.23906
X17.98710 Y46.04906
X17.87651 Y45.89684
X17.70577 Y45.74315
X17.52373 Y45.64056
X17.34478 Y45.58242
X17.12680 Y45.55783
X7.50797 Y45.55783
X6.69680 Y44.74668
X6.69680 Y13.57097
X9.15897 Y11.10880
G04 P0 ( dwell for no time -- G64 should not smooth over this point )
G00 Z5.00000 ( retract )

G00 X4.38878 Y13.17905 ( rapid move to begin. )
F300.00000
G01 Z-0.05000
G04 P0 ( dwell for no time -- G64 should not smooth over this point )
F600.00000
G01 X4.38878 Y13.17905
X4.49241 Y12.65805
X4.78771 Y12.21609
X7.80396 Y9.19984
X8.24592 Y8.90454
X8.76723 Y8.80080
X24.47030 Y8.80080
X24.99155 Y8.90449
X25.43351 Y9.19979
X27.64486 Y11.40994
X27.69384 Y11.44322
X27.78258 Y11.46696
X28.08446 Y11.45983
X28.17019 Y11.41568
X28.24019 Y11.31492
X28.24852 Y11.19795
X28.19363 Y11.08830
X25.52361 Y8.41749
X25.31396 Y8.27238
X25.02026 Y7.83283
X24.91279 Y7.29265
X24.91279 Y7.08303
X25.02021 Y6.54290
X25.31363 Y6.10375
X25.75277 Y5.81033
X26.27077 Y5.70726
X26.78871 Y5.81028
X27.22785 Y6.10370
X27.52127 Y6.54284
X27.55467 Y6.70510
X27.61286 Y6.80713
X29.70315 Y8.89013
X29.82761 Y8.92780
X31.14267 Y8.92435
X31.23211 Y8.88853
X31.29865 Y8.81866
X31.32530 Y8.75424
X31.32756 Y8.65788
X31.27257 Y8.54817
X31.04829 Y8.32346
X30.87948 Y7.91683
X30.87900 Y7.47678
X31.04714 Y7.06989
X31.35814 Y6.75836
X31.65425 Y6.63540
X31.72570 Y6.58780
X31.77874 Y6.50723
X31.79345 Y6.41198
X31.76728 Y6.31922
X31.70490 Y6.24569
X31.35984 Y6.09446
X31.04829 Y5.78346
X30.87948 Y5.37683
X30.87900 Y4.93678
X31.04714 Y4.52989
X31.35814 Y4.21836
X31.76477 Y4.04956
X32.20482 Y4.04907
X32.61171 Y4.21722
X32.92324 Y4.52822
X33.09205 Y4.93485
X33.09253 Y5.37488
X32.92438 Y5.78176
X32.61338 Y6.09332
X32.26622 Y6.24617
X32.20401 Y6.31978
X32.17805 Y6.41257
X32.19294 Y6.50777
X32.24607 Y6.58823
X32.31763 Y6.63573
X32.61171 Y6.75722
X32.92324 Y7.06822
X33.09205 Y7.47485
X33.09253 Y7.91488
X32.92438 Y8.32176
X32.61336 Y8.63334
X32.52451 Y8.67406
X32.47160 Y8.72021
X32.43322 Y8.78577
X32.41918 Y8.88188
X32.44663 Y8.97505
X32.48958 Y9.03062
X32.90749 Y9.31409
X33.19007 Y9.73700
X33.28935 Y10.23580
X33.19012 Y10.73463
X32.90752 Y11.15757
X32.63891 Y11.34136
X32.58405 Y11.42272
X32.56868 Y11.49198
X32.57704 Y11.56834
X32.62385 Y11.65452
X32.90749 Y11.85409
X33.19007 Y12.27700
X33.28935 Y12.77580
X33.19012 Y13.27463
X32.90752 Y13.69757
X32.48981 Y13.98098
X32.43518 Y14.06132
X32.41948 Y14.12982
X32.42695 Y14.20544
X32.47216 Y14.29155
X32.52509 Y14.33762
X32.61171 Y14.37722
X32.92324 Y14.68822
X33.09205 Y15.09485
X33.09253 Y15.53488
X32.92438 Y15.94176
X32.61338 Y16.25332
X32.26622 Y16.40617
X32.20401 Y16.47978
X32.17805 Y16.57257
X32.19294 Y16.66777
X32.24607 Y16.74823
X32.31763 Y16.79573
X32.61171 Y16.91722
X32.92324 Y17.22822
X33.09205 Y17.63485
X33.09253 Y18.07488
X32.92438 Y18.48176
X32.61338 Y18.79332
X32.26622 Y18.94617
X32.20401 Y19.01978
X32.17805 Y19.11257
X32.19294 Y19.20777
X32.24607 Y19.28823
X32.31763 Y19.33573
X32.61171 Y19.45722
X32.92324 Y19.76822
X33.09205 Y20.17485
X33.09253 Y20.61488
X32.92438 Y21.02176
X32.61336 Y21.33334
X32.48618 Y21.40444
X32.43322 Y21.48577
X32.41890 Y21.55452
X32.43492 Y21.65031
X32.48958 Y21.73062
X32.90749 Y22.01409
X33.19007 Y22.43700
X33.28935 Y22.93580
X33.19012 Y23.43463
X32.90752 Y23.85757
X32.63891 Y24.04136
X32.58405 Y24.12272
X32.56868 Y24.19198
X32.57704 Y24.26834
X32.62385 Y24.35452
X32.90749 Y24.55409
X33.19007 Y24.97700
X33.28935 Y25.47580
X33.19012 Y25.97463
X32.90752 Y26.39757
X32.68872 Y26.55352
X32.64910 Y26.61794
X32.63322 Y26.68616
X32.64686 Y26.78195
X32.69918 Y26.86330
X32.97419 Y27.01923
X33.06731 Y27.15553
X33.10472 Y27.34019
X33.10472 Y28.69302
X33.07254 Y28.86414
X32.98237 Y29.00427
X32.84607 Y29.09738
X32.66167 Y29.13475
X31.30833 Y29.13475
X31.13747 Y29.10262
X30.99733 Y29.01245
X30.90422 Y28.87615
X30.86685 Y28.69172
X30.86685 Y27.33838
X30.89929 Y27.16587
X30.95248 Y27.05378
X30.95499 Y26.98416
X30.93378 Y26.91179
X30.89403 Y26.85451
X30.83371 Y26.80935
X30.76767 Y26.78733
X23.47761 Y26.78383
X23.40642 Y26.79581
X23.31709 Y26.85035
X21.04127 Y29.12616
X20.99939 Y29.18494
X20.97480 Y29.28664
X20.97480 Y40.18535
X20.87112 Y40.70663
X20.61163 Y41.09601
X20.58394 Y41.16680
X20.58049 Y41.23696
X20.60114 Y41.31009
X20.64074 Y41.36807
X20.70129 Y41.41392
X20.76792 Y41.43630
X22.81930 Y41.43980
X23.34055 Y41.54349
X23.78251 Y41.83879
X23.87776 Y41.93404
X24.17307 Y42.37600
X24.27680 Y42.89728
X24.27680 Y52.25030
X24.26227 Y52.43450
X24.20855 Y52.59845
X24.17327 Y52.77140
X24.10192 Y52.91722
X23.98958 Y53.04809
X23.89077 Y53.19439
X23.75417 Y53.31900
X19.64778 Y56.51287
X19.58618 Y56.58737
X19.54704 Y56.74064
X19.45687 Y56.88077
X19.32057 Y56.97388
X19.13617 Y57.01125
X18.90373 Y57.01536
X18.74242 Y57.08572
X18.23518 Y57.12235
X17.92007 Y57.01902
X17.65583 Y57.01125
X17.48497 Y56.97912
X17.34483 Y56.88895
X17.25172 Y56.75265
X17.22106 Y56.60421
X17.17773 Y56.51742
X17.10201 Y56.45664
X17.00783 Y56.43312
X16.93272 Y56.44366
X16.86996 Y56.47495
X16.52040 Y56.82011
X16.09045 Y56.99862
X15.62518 Y56.99911
X15.19490 Y56.82131
X14.86549 Y56.49248
X14.79185 Y56.31663
X14.74885 Y56.25478
X14.66831 Y56.20180
X14.57306 Y56.18709
X14.48040 Y56.21318
X14.42465 Y56.25499
X14.39053 Y56.30160
X14.30976 Y56.49017
X13.98040 Y56.82011
X13.55045 Y56.99862
X13.08518 Y56.99911
X12.65490 Y56.82131
X12.32549 Y56.49248
X12.14698 Y56.06253
X12.14650 Y55.59726
X12.32430 Y55.16698
X12.65312 Y54.83757
X13.08307 Y54.65906
X13.54835 Y54.65857
X13.97862 Y54.83637
X14.30804 Y55.16520
X14.38167 Y55.34105
X14.42475 Y55.40295
X14.48053 Y55.44463
X14.55208 Y55.46838
X14.66844 Y55.45578
X14.74898 Y55.40261
X14.79185 Y55.34072
X14.86424 Y55.16703
X15.19312 Y54.83757
X15.62307 Y54.65906
X16.08835 Y54.65857
X16.51862 Y54.83637
X16.88794 Y55.19340
X16.98111 Y55.22250
X17.07778 Y55.20978
X17.14417 Y55.17201
X17.19109 Y55.11943
X17.24595 Y54.91786
X17.33666 Y54.77691
X17.47295 Y54.68379
X17.76889 Y54.63792
X17.84803 Y54.59858
X21.60223 Y51.67369
X21.64206 Y51.61139
X21.66078 Y51.52208
X21.66078 Y44.28283
X21.63286 Y44.17460
X21.56609 Y44.09885
X21.49504 Y44.06466
X21.43378 Y44.05583
X20.58344 Y44.05933
X20.47688 Y44.10807
X20.42758 Y44.16497
X20.40089 Y44.22946
X20.39863 Y44.32580
X20.42509 Y44.39652
X20.64836 Y44.63068
X20.82512 Y45.05643
X20.82560 Y45.51719
X20.64955 Y45.94322
X20.32387 Y46.26949
X20.12469 Y46.35280
X20.06279 Y46.39588
X20.00983 Y46.47639
X19.99515 Y46.57162
X20.02131 Y46.66435
X20.06314 Y46.72013
X20.12497 Y46.76298
X20.32215 Y46.84505
X20.64836 Y47.17068
X20.82512 Y47.59643
X20.82560 Y48.05719
X20.64955 Y48.48322
X20.32392 Y48.80944
X19.89817 Y48.98619
X19.43741 Y48.98668
X19.01138 Y48.81063
X18.63800 Y48.44926
X18.51918 Y48.41901
X18.40688 Y48.45203
X18.33706 Y48.51853
X18.29835 Y48.63496
X18.29779 Y49.82709
X18.26561 Y49.99821
X18.17544 Y50.13834
X18.03914 Y50.23145
X17.85474 Y50.26882
X16.39726 Y50.26882
X16.22640 Y50.23669
X16.08626 Y50.14652
X15.99315 Y50.01022
X15.95578 Y49.82579
X15.95578 Y48.36831
X16.01044 Y48.06621
X15.96348 Y47.95269
X15.86970 Y47.88249
X15.78535 Y47.86583
X7.11600 Y47.86583
X6.59497 Y47.76219
X6.15301 Y47.46689
X4.78776 Y46.10164
X4.49246 Y45.65968
X4.38878 Y45.13863
X4.38878 Y13.17905
G04 P0 ( dwell for no time -- G64 should not smooth over this point )
G00 Z5.00000 ( retract )

G00 X14.43224 Y7.05036 ( rapid move to begin. )
F300.00000
G01 Z-0.05000
G04 P0 ( dwell for no time -- G64 should not smooth over this point )
F600.00000
G01 X14.43224 Y7.05036
X14.41124 Y6.87150
X14.35350 Y6.70088
X14.26155 Y6.54602
X14.13943 Y6.41363
X14.01058 Y6.32001
X13.84692 Y6.24478
X13.67121 Y6.20520
X13.49117 Y6.20299
X13.31454 Y6.23832
X13.14913 Y6.30957
X13.00217 Y6.41363
X12.88002 Y6.54602
X12.77956 Y6.71998
X12.72600 Y6.89194
X12.70933 Y7.07127
X12.73034 Y7.25013
X12.78807 Y7.42074
X12.88002 Y7.57561
X13.00215 Y7.70799
X13.13100 Y7.80162
X13.29465 Y7.87685
X13.47037 Y7.91643
X13.65043 Y7.91861
X13.82704 Y7.88330
X13.99244 Y7.81206
X14.13940 Y7.70799
X14.26155 Y7.57561
X14.36201 Y7.40164
X14.41558 Y7.22969
X14.43224 Y7.05036
G04 P0 ( dwell for no time -- G64 should not smooth over this point )
G00 Z5.00000 ( retract )

G00 X14.74103 Y7.29242 ( rapid move to begin. )
F300.00000
G01 Z-0.05000
G04 P0 ( dwell for no time -- G64 should not smooth over this point )
F600.00000
G01 X14.74103 Y7.29242
X14.56323 Y7.72270
X14.23440 Y8.05211
X13.80445 Y8.23062
X13.33918 Y8.23111
X12.90890 Y8.05331
X12.57949 Y7.72448
X12.40098 Y7.29453
X12.40050 Y6.82926
X12.57830 Y6.39898
X12.90712 Y6.06957
X13.33707 Y5.89106
X13.80235 Y5.89057
X14.23262 Y6.06837
X14.56204 Y6.39720
X14.74055 Y6.82715
X14.74103 Y7.29242
G04 P0 ( dwell for no time -- G64 should not smooth over this point )
G00 Z5.00000 ( retract )

G00 X14.43224 Y4.00236 ( rapid move to begin. )
F300.00000
G01 Z-0.05000
G04 P0 ( dwell for no time -- G64 should not smooth over this point )
F600.00000
G01 X14.43224 Y4.00236
X14.41124 Y3.82350
X14.35350 Y3.65288
X14.26155 Y3.49802
X14.13943 Y3.36563
X14.01058 Y3.27201
X13.84692 Y3.19678
X13.67121 Y3.15720
X13.49117 Y3.15499
X13.31454 Y3.19032
X13.14913 Y3.26157
X13.00217 Y3.36563
X12.88002 Y3.49802
X12.77956 Y3.67198
X12.72600 Y3.84394
X12.70933 Y4.02327
X12.73034 Y4.20213
X12.78807 Y4.37274
X12.88002 Y4.52761
X13.00215 Y4.65999
X13.13100 Y4.75362
X13.29465 Y4.82885
X13.47037 Y4.86843
X13.65043 Y4.87061
X13.82704 Y4.83530
X13.99244 Y4.76406
X14.13940 Y4.65999
X14.26155 Y4.52761
X14.36201 Y4.35364
X14.41558 Y4.18169
X14.43224 Y4.00236
G04 P0 ( dwell for no time -- G64 should not smooth over this point )
G00 Z5.00000 ( retract )

G00 X14.74055 Y3.77905 ( rapid move to begin. )
F300.00000
G01 Z-0.05000
G04 P0 ( dwell for no time -- G64 should not smooth over this point )
F600.00000
G01 X14.74055 Y3.77905
X14.74103 Y4.24442
X14.56323 Y4.67470
X14.23440 Y5.00411
X13.80445 Y5.18262
X13.33918 Y5.18311
X12.90890 Y5.00531
X12.57949 Y4.67648
X12.40098 Y4.24653
X12.40050 Y3.78126
X12.57830 Y3.35098
X12.90712 Y3.02157
X13.33707 Y2.84306
X13.80235 Y2.84257
X14.23262 Y3.02037
X14.56209 Y3.34925
X14.74055 Y3.77905
G04 P0 ( dwell for no time -- G64 should not smooth over this point )
G00 Z5.00000 ( retract )

G00 X26.03707 Y2.84306 ( rapid move to begin. )
F300.00000
G01 Z-0.05000
G04 P0 ( dwell for no time -- G64 should not smooth over this point )
F600.00000
G01 X26.03707 Y2.84306
X26.50235 Y2.84257
X26.93262 Y3.02037
X27.26204 Y3.34920
X27.44055 Y3.77915
X27.44103 Y4.24442
X27.26323 Y4.67470
X26.93440 Y5.00411
X26.50445 Y5.18262
X26.03918 Y5.18311
X25.60890 Y5.00531
X25.27949 Y4.67648
X25.10098 Y4.24653
X25.10050 Y3.78126
X25.27830 Y3.35098
X25.60712 Y3.02157
X26.03707 Y2.84306
G04 P0 ( dwell for no time -- G64 should not smooth over this point )
G00 Z5.00000 ( retract )

G00 X27.13224 Y4.00236 ( rapid move to begin. )
F300.00000
G01 Z-0.05000
G04 P0 ( dwell for no time -- G64 should not smooth over this point )
F600.00000
G01 X27.13224 Y4.00236
X27.11124 Y3.82350
X27.05350 Y3.65288
X26.96155 Y3.49802
X26.83943 Y3.36563
X26.71058 Y3.27201
X26.54692 Y3.19678
X26.37121 Y3.15720
X26.19117 Y3.15499
X26.01454 Y3.19032
X25.84913 Y3.26157
X25.70217 Y3.36563
X25.58002 Y3.49802
X25.47956 Y3.67198
X25.42600 Y3.84394
X25.40933 Y4.02327
X25.43034 Y4.20213
X25.48807 Y4.37274
X25.58002 Y4.52761
X25.70215 Y4.65999
X25.83100 Y4.75362
X25.99465 Y4.82885
X26.17037 Y4.86843
X26.35043 Y4.87061
X26.52704 Y4.83530
X26.69244 Y4.76406
X26.83940 Y4.65999
X26.96155 Y4.52761
X27.06201 Y4.35364
X27.11558 Y4.18169
X27.13224 Y4.00236
G04 P0 ( dwell for no time -- G64 should not smooth over this point )
G00 Z5.00000 ( retract )

G00 X27.30847 Y6.93835 ( rapid move to begin. )
F300.00000
G01 Z-0.05000
G04 P0 ( dwell for no time -- G64 should not smooth over this point )
F600.00000
G01 X27.30847 Y6.93835
X27.29511 Y6.83240
X27.23374 Y6.64353
X27.12594 Y6.45245
X26.98076 Y6.28793
X26.80456 Y6.15720
X26.60501 Y6.06599
X26.39087 Y6.01823
X26.17149 Y6.01602
X25.95642 Y6.05953
X25.75510 Y6.14676
X25.57631 Y6.27393
X25.42790 Y6.43553
X25.31632 Y6.62443
X25.24644 Y6.83240
X25.22135 Y7.05036
X25.22082 Y7.31480
X25.24644 Y7.54325
X25.30781 Y7.73212
X25.41561 Y7.92321
X25.56079 Y8.08772
X25.78317 Y8.24139
X28.48469 Y10.94291
X28.68090 Y11.09458
X28.92058 Y11.19755
X29.19180 Y11.23580
X31.99624 Y11.23527
X32.20378 Y11.21126
X32.40183 Y11.14461
X32.56477 Y11.05053
X32.72151 Y10.91236
X32.84610 Y10.74461
X32.93307 Y10.55462
X32.97864 Y10.35069
X32.98085 Y10.14175
X32.93952 Y9.93692
X32.85654 Y9.74515
X32.73551 Y9.57482
X32.56477 Y9.42112
X32.38273 Y9.31853
X32.20378 Y9.26039
X31.99624 Y9.23636
X29.60592 Y9.23580
X27.30847 Y6.93835
G04 P0 ( dwell for no time -- G64 should not smooth over this point )
G00 Z5.00000 ( retract )

G00 X32.78374 Y7.68536 ( rapid move to begin. )
F300.00000
G01 Z-0.05000
G04 P0 ( dwell for no time -- G64 should not smooth over this point )
F600.00000
G01 X32.78374 Y7.68536
X32.76413 Y7.51970
X32.71049 Y7.36172
X32.62517 Y7.21833
X32.51196 Y7.09583
X32.39383 Y7.01000
X32.24229 Y6.94015
X32.07958 Y6.90335
X31.91280 Y6.90114
X31.72929 Y6.94015
X31.57780 Y7.01000
X31.44409 Y7.10982
X31.33411 Y7.23525
X31.25258 Y7.38082
X31.20310 Y7.54015
X31.18783 Y7.70627
X31.20744 Y7.87193
X31.26109 Y8.02991
X31.34641 Y8.17330
X31.45961 Y8.29580
X31.57775 Y8.38163
X31.72929 Y8.45148
X31.89200 Y8.48828
X32.05880 Y8.49047
X32.24229 Y8.45148
X32.39378 Y8.38163
X32.52748 Y8.28180
X32.63746 Y8.15638
X32.71900 Y8.01081
X32.76848 Y7.85148
X32.78374 Y7.68536
G04 P0 ( dwell for no time -- G64 should not smooth over this point )
G00 Z5.00000 ( retract )

G00 X32.78374 Y5.14536 ( rapid move to begin. )
F300.00000
G01 Z-0.05000
G04 P0 ( dwell for no time -- G64 should not smooth over this point )
F600.00000
G01 X32.78374 Y5.14536
X32.76413 Y4.97970
X32.71049 Y4.82172
X32.62517 Y4.67833
X32.51196 Y4.55583
X32.39383 Y4.47000
X32.24229 Y4.40015
X32.07958 Y4.36335
X31.91280 Y4.36114
X31.72929 Y4.40015
X31.57780 Y4.47000
X31.44409 Y4.56982
X31.33411 Y4.69525
X31.25258 Y4.84082
X31.20310 Y5.00015
X31.18783 Y5.16627
X31.20744 Y5.33193
X31.26109 Y5.48991
X31.34641 Y5.63330
X31.45961 Y5.75580
X31.57775 Y5.84163
X31.72929 Y5.91148
X31.89200 Y5.94828
X32.05880 Y5.95047
X32.24229 Y5.91148
X32.39378 Y5.84163
X32.52748 Y5.74180
X32.63746 Y5.61638
X32.71900 Y5.47081
X32.76848 Y5.31148
X32.78374 Y5.14536
G04 P0 ( dwell for no time -- G64 should not smooth over this point )
G00 Z5.00000 ( retract )

G00 X0.12780 Y0.22782 ( rapid move to begin. )
F300.00000
G01 Z-0.05000
G04 P0 ( dwell for no time -- G64 should not smooth over this point )
F600.00000
G01 X0.12780 Y0.22782
X0.12780 Y58.97380
X0.16544 Y59.05201
X0.22780 Y59.07380
X83.97378 Y59.07380
X84.05196 Y59.03616
X84.07378 Y58.97380
X84.07378 Y0.22782
X84.03612 Y0.14964
X83.97378 Y0.12782
X0.22780 Y0.12782
X0.16544 Y0.14964
X0.12780 Y0.22782
G04 P0 ( dwell for no time -- G64 should not smooth over this point )
G00 Z5.00000 ( retract )

G00 X67.01024 Y17.97236 ( rapid move to begin. )
F300.00000
G01 Z-0.05000
G04 P0 ( dwell for no time -- G64 should not smooth over this point )
F600.00000
G01 X67.01024 Y17.97236
X66.98924 Y17.79350
X66.93150 Y17.62288
X66.83955 Y17.46802
X66.71743 Y17.33563
X66.58858 Y17.24201
X66.42492 Y17.16678
X66.24921 Y17.12720
X66.06917 Y17.12499
X65.89254 Y17.16032
X65.72713 Y17.23157
X65.58017 Y17.33563
X65.45802 Y17.46802
X65.35756 Y17.64198
X65.30400 Y17.81394
X65.28733 Y17.99327
X65.30834 Y18.17213
X65.36607 Y18.34274
X65.45802 Y18.49761
X65.58015 Y18.62999
X65.70900 Y18.72362
X65.87265 Y18.79885
X66.04837 Y18.83843
X66.22843 Y18.84061
X66.40504 Y18.80530
X66.57044 Y18.73406
X66.71740 Y18.62999
X66.83955 Y18.49761
X66.94001 Y18.32364
X66.99358 Y18.15169
X67.01024 Y17.97236
G04 P0 ( dwell for no time -- G64 should not smooth over this point )
G00 Z5.00000 ( retract )

G00 X67.31903 Y18.21442 ( rapid move to begin. )
F300.00000
G01 Z-0.05000
G04 P0 ( dwell for no time -- G64 should not smooth over this point )
F600.00000
G01 X67.31903 Y18.21442
X67.14123 Y18.64470
X66.81240 Y18.97411
X66.38245 Y19.15262
X65.91718 Y19.15311
X65.48690 Y18.97531
X65.15749 Y18.64648
X64.97898 Y18.21653
X64.97850 Y17.75126
X65.15630 Y17.32098
X65.48512 Y16.99157
X65.91507 Y16.81306
X66.38035 Y16.81257
X66.81062 Y16.99037
X67.14004 Y17.31920
X67.31855 Y17.74915
X67.31903 Y18.21442
G04 P0 ( dwell for no time -- G64 should not smooth over this point )
G00 Z5.00000 ( retract )

G00 X76.89712 Y14.83386 ( rapid move to begin. )
F300.00000
G01 Z-0.05000
G04 P0 ( dwell for no time -- G64 should not smooth over this point )
F600.00000
G01 X76.89712 Y14.83386
X74.71406 Y14.83584
X72.69616 Y14.00206
X71.15100 Y12.45962
X70.31374 Y10.44319
X70.31176 Y8.26014
X71.14554 Y6.24224
X72.68798 Y4.69708
X74.70441 Y3.85982
X76.88746 Y3.85784
X78.90537 Y4.69162
X80.45052 Y6.23406
X81.28778 Y8.25049
X81.28977 Y10.43354
X80.45599 Y12.45144
X78.91354 Y13.99660
X76.89712 Y14.83386
G04 P0 ( dwell for no time -- G64 should not smooth over this point )
G00 Z5.00000 ( retract )

G00 X80.98024 Y9.33636 ( rapid move to begin. )
F300.00000
G01 Z-0.05000
G04 P0 ( dwell for no time -- G64 should not smooth over this point )
F600.00000
G01 X80.98024 Y9.33636
X80.86487 Y8.25973
X80.52820 Y7.23060
X79.98489 Y6.29395
X79.25876 Y5.49075
X78.39958 Y4.86650
X77.41126 Y4.42410
X76.35256 Y4.19685
X75.26981 Y4.19464
X74.21020 Y4.41765
X73.22013 Y4.85606
X72.34282 Y5.49075
X71.61668 Y6.29395
X71.06487 Y7.24970
X70.73236 Y8.28018
X70.62133 Y9.35727
X70.73670 Y10.43390
X71.07338 Y11.46303
X71.61668 Y12.39968
X72.34282 Y13.20288
X73.20200 Y13.82713
X74.19031 Y14.26952
X75.24901 Y14.49678
X76.33179 Y14.49896
X77.39137 Y14.27598
X78.38144 Y13.83757
X79.25876 Y13.20288
X79.98489 Y12.39968
X80.53671 Y11.44393
X80.86922 Y10.41345
X80.98024 Y9.33636
G04 P0 ( dwell for no time -- G64 should not smooth over this point )
G00 Z5.00000 ( retract )

G00 X80.98024 Y39.30836 ( rapid move to begin. )
F300.00000
G01 Z-0.05000
G04 P0 ( dwell for no time -- G64 should not smooth over this point )
F600.00000
G01 X80.98024 Y39.30836
X80.86487 Y38.23173
X80.52820 Y37.20260
X79.98489 Y36.26595
X79.25876 Y35.46275
X78.39958 Y34.83850
X77.41126 Y34.39610
X76.35256 Y34.16885
X75.26981 Y34.16664
X74.21020 Y34.38965
X73.22013 Y34.82806
X72.34282 Y35.46275
X71.61668 Y36.26595
X71.06487 Y37.22170
X70.73236 Y38.25218
X70.62133 Y39.32927
X70.73670 Y40.40590
X71.07338 Y41.43503
X71.61668 Y42.37168
X72.34282 Y43.17488
X73.20200 Y43.79913
X74.19031 Y44.24152
X75.24901 Y44.46878
X76.33179 Y44.47096
X77.39137 Y44.24798
X78.38144 Y43.80957
X79.25876 Y43.17488
X79.98489 Y42.37168
X80.53671 Y41.41593
X80.86922 Y40.38545
X80.98024 Y39.30836
G04 P0 ( dwell for no time -- G64 should not smooth over this point )
G00 Z5.00000 ( retract )

G00 X78.91354 Y43.96860 ( rapid move to begin. )
F300.00000
G01 Z-0.05000
G04 P0 ( dwell for no time -- G64 should not smooth over this point )
F600.00000
G01 X78.91354 Y43.96860
X76.89712 Y44.80586
X74.71406 Y44.80784
X72.69616 Y43.97406
X71.15100 Y42.43162
X70.31374 Y40.41519
X70.31176 Y38.23214
X71.14554 Y36.21424
X72.68798 Y34.66908
X74.70441 Y33.83182
X76.88746 Y33.82984
X78.90537 Y34.66362
X80.45052 Y36.20606
X81.28778 Y38.22249
X81.28977 Y40.40554
X80.45599 Y42.42344
X78.91354 Y43.96860

G04 P0 ( dwell for no time -- G64 should not smooth over this point )
G00 Z10.000 ( retract )

M5 ( Spindle off. )
M9 ( Coolant off. )
M2 ( Program end. )

