( pcb2gcode 1.3.2 )
( Software-independent Gcode )

G94 ( Millimeters per minute feed rate. )
G21 ( Units == Millimeters. )

G90 ( Absolute coordinates. )
S10000 ( RPM spindle speed. )
G64 P0.01000 ( set maximum deviation from commanded toolpath )
F600.00000 ( Feedrate. )

F600.00000 ( Feedrate. )
M3 ( Spindle on clockwise. )
G04 P0 ( dwell for no time -- G64 should not smooth over this point )
G00 Z5.00000 ( retract )

G00 X0.17781 Y0.22782 ( rapid move to begin. )
G01 Z-2.50000 F300.00000 ( plunge. )
G04 P0 ( dwell for no time -- G64 should not smooth over this point )
F600.00000
G01 X0.17781 Y0.22782
X0.17781 Y58.97380
X0.19661 Y59.01289
X0.22780 Y59.02379
X41.95079 Y59.02379
Z-0.60000
X42.25079 Y59.02379
Z-2.50000 F300.00000
F600.00000
G01 X83.97378 Y59.02379
X84.01285 Y59.00500
X84.02377 Y58.97380
X84.02377 Y0.22782
X84.00495 Y0.18876
X83.97378 Y0.17783
X42.25079 Y0.17783
Z-0.60000
X41.95079 Y0.17783
Z-2.50000 F300.00000
F600.00000
G01 X0.22780 Y0.17783
X0.19661 Y0.18876
X0.17781 Y0.22782

G04 P0 ( dwell for no time -- G64 should not smooth over this point )
G00 Z10.000 ( retract )

M5 ( Spindle off. )
M9 ( Coolant off. )
M2 ( Program end. )

