( pcb2gcode 1.3.2 )
( Software-independent Gcode )

G94 ( Millimeters per minute feed rate. )
G21 ( Units == Millimeters. )

G90 ( Absolute coordinates. )
S10000 ( RPM spindle speed. )
G64 P0.01000 ( set maximum deviation from commanded toolpath )
F600.00000 ( Feedrate. )

F600.00000 ( Feedrate. )
M3 ( Spindle on clockwise. )
G04 P0 ( dwell for no time -- G64 should not smooth over this point )
G00 Z5.00000 ( retract )

G00 X1.77214 Y39.38312 ( rapid move to begin. )
F300.00000
G01 Z-0.05000
G04 P0 ( dwell for no time -- G64 should not smooth over this point )
F600.00000
G01 X1.77214 Y39.38312
X2.23744 Y39.38360
X2.66769 Y39.20583
X2.99711 Y38.87697
X3.17562 Y38.44703
X3.17610 Y37.98175
X2.99830 Y37.55147
X2.66947 Y37.22206
X2.23953 Y37.04355
X1.77425 Y37.04307
X1.34397 Y37.22087
X1.01456 Y37.54970
X0.83605 Y37.97967
X0.83557 Y38.44492
X1.01337 Y38.87520
X1.34219 Y39.20461
X1.77214 Y39.38312
G04 P0 ( dwell for no time -- G64 should not smooth over this point )
G00 Z5.00000 ( retract )

G00 X1.14435 Y38.20288 ( rapid move to begin. )
F300.00000
G01 Z-0.05000
G04 P0 ( dwell for no time -- G64 should not smooth over this point )
F600.00000
G01 X1.14435 Y38.20288
X1.16536 Y38.02402
X1.22309 Y37.85340
X1.31504 Y37.69854
X1.43717 Y37.56616
X1.56602 Y37.47253
X1.72967 Y37.39730
X1.90539 Y37.35772
X2.08542 Y37.35551
X2.26206 Y37.39084
X2.42746 Y37.46209
X2.57442 Y37.56616
X2.69657 Y37.69854
X2.79703 Y37.87250
X2.85060 Y38.04446
X2.86726 Y38.22379
X2.84626 Y38.40265
X2.78852 Y38.57327
X2.69657 Y38.72813
X2.57445 Y38.86051
X2.44560 Y38.95414
X2.28194 Y39.02937
X2.10623 Y39.06895
X1.92617 Y39.07113
X1.74956 Y39.03582
X1.58416 Y38.96458
X1.43719 Y38.86051
X1.31504 Y38.72813
X1.21459 Y38.55416
X1.16102 Y38.38221
X1.14435 Y38.20288
G04 P0 ( dwell for no time -- G64 should not smooth over this point )
G00 Z5.00000 ( retract )

G00 X0.82337 Y32.47417 ( rapid move to begin. )
F300.00000
G01 Z-0.05000
G04 P0 ( dwell for no time -- G64 should not smooth over this point )
F600.00000
G01 X0.82337 Y32.47417
X0.82337 Y33.95402
X0.85556 Y34.12514
X0.94573 Y34.26527
X1.08202 Y34.35839
X1.26643 Y34.39575
X2.74676 Y34.39575
X2.91763 Y34.36362
X3.05776 Y34.27345
X3.15088 Y34.13716
X3.18824 Y33.95273
X3.18824 Y32.47239
X3.15611 Y32.30155
X3.06594 Y32.16142
X2.92964 Y32.06830
X2.74499 Y32.03089
X1.26513 Y32.03089
X1.09404 Y32.06307
X0.95388 Y32.15324
X0.86079 Y32.28951
X0.82337 Y32.47417
G04 P0 ( dwell for no time -- G64 should not smooth over this point )
G00 Z5.00000 ( retract )

G00 X2.86779 Y32.45131 ( rapid move to begin. )
F300.00000
G01 Z-0.05000
G04 P0 ( dwell for no time -- G64 should not smooth over this point )
F600.00000
G01 X2.86779 Y32.45131
X2.86779 Y33.97531
X2.83015 Y34.05351
X2.76780 Y34.07531
X1.24380 Y34.07531
X1.16561 Y34.03766
X1.14380 Y33.97531
X1.14380 Y32.45131
X1.18146 Y32.37313
X1.24380 Y32.35131
X2.76780 Y32.35131
X2.84600 Y32.38898
X2.86779 Y32.45131
G04 P0 ( dwell for no time -- G64 should not smooth over this point )
G00 Z5.00000 ( retract )

G00 X1.14435 Y24.86788 ( rapid move to begin. )
F300.00000
G01 Z-0.05000
G04 P0 ( dwell for no time -- G64 should not smooth over this point )
F600.00000
G01 X1.14435 Y24.86788
X1.16536 Y24.68902
X1.22309 Y24.51840
X1.31504 Y24.36354
X1.43717 Y24.23116
X1.56602 Y24.13753
X1.72967 Y24.06230
X1.90539 Y24.02272
X2.08542 Y24.02051
X2.26206 Y24.05584
X2.42746 Y24.12709
X2.57442 Y24.23116
X2.69657 Y24.36354
X2.79703 Y24.53750
X2.85060 Y24.70946
X2.86726 Y24.88879
X2.84626 Y25.06765
X2.78852 Y25.23827
X2.69657 Y25.39313
X2.57445 Y25.52551
X2.44560 Y25.61914
X2.28194 Y25.69437
X2.10623 Y25.73395
X1.92617 Y25.73613
X1.74956 Y25.70082
X1.58416 Y25.62958
X1.43719 Y25.52551
X1.31504 Y25.39313
X1.21459 Y25.21916
X1.16102 Y25.04721
X1.14435 Y24.86788
G04 P0 ( dwell for no time -- G64 should not smooth over this point )
G00 Z5.00000 ( retract )

G00 X1.01456 Y24.21470 ( rapid move to begin. )
F300.00000
G01 Z-0.05000
G04 P0 ( dwell for no time -- G64 should not smooth over this point )
F600.00000
G01 X1.01456 Y24.21470
X0.83605 Y24.64467
X0.83557 Y25.10992
X1.01337 Y25.54020
X1.34219 Y25.86961
X1.77214 Y26.04812
X2.23744 Y26.04860
X2.66769 Y25.87083
X2.99711 Y25.54197
X3.17562 Y25.11203
X3.17610 Y24.64675
X2.99830 Y24.21647
X2.66947 Y23.88706
X2.23953 Y23.70855
X1.77425 Y23.70807
X1.34397 Y23.88587
X1.01456 Y24.21470
G04 P0 ( dwell for no time -- G64 should not smooth over this point )
G00 Z5.00000 ( retract )

G00 X3.15088 Y20.80216 ( rapid move to begin. )
F300.00000
G01 Z-0.05000
G04 P0 ( dwell for no time -- G64 should not smooth over this point )
F600.00000
G01 X3.15088 Y20.80216
X3.18824 Y20.61773
X3.18824 Y19.13739
X3.15611 Y18.96655
X3.06594 Y18.82642
X2.92964 Y18.73330
X2.74499 Y18.69589
X1.26513 Y18.69589
X1.09404 Y18.72807
X0.95388 Y18.81824
X0.86079 Y18.95451
X0.82337 Y19.13917
X0.82337 Y20.61902
X0.85556 Y20.79014
X0.94573 Y20.93027
X1.08202 Y21.02339
X1.26643 Y21.06075
X2.74676 Y21.06075
X2.91763 Y21.02862
X3.05776 Y20.93845
X3.15088 Y20.80216
G04 P0 ( dwell for no time -- G64 should not smooth over this point )
G00 Z5.00000 ( retract )

G00 X2.86779 Y19.11631 ( rapid move to begin. )
F300.00000
G01 Z-0.05000
G04 P0 ( dwell for no time -- G64 should not smooth over this point )
F600.00000
G01 X2.86779 Y19.11631
X2.86779 Y20.64031
X2.83015 Y20.71851
X2.76780 Y20.74031
X1.24380 Y20.74031
X1.16561 Y20.70266
X1.14380 Y20.64031
X1.14380 Y19.11631
X1.18146 Y19.03813
X1.24380 Y19.01631
X2.76780 Y19.01631
X2.83015 Y19.03813
X2.86779 Y19.11631
G04 P0 ( dwell for no time -- G64 should not smooth over this point )
G00 Z5.00000 ( retract )

G00 X0.83557 Y11.77492 ( rapid move to begin. )
F300.00000
G01 Z-0.05000
G04 P0 ( dwell for no time -- G64 should not smooth over this point )
F600.00000
G01 X0.83557 Y11.77492
X1.01337 Y12.20520
X1.34219 Y12.53461
X1.77214 Y12.71312
X2.23744 Y12.71360
X2.66769 Y12.53583
X2.99711 Y12.20697
X3.17562 Y11.77703
X3.17610 Y11.31175
X2.99830 Y10.88147
X2.66947 Y10.55206
X2.23953 Y10.37355
X1.77425 Y10.37307
X1.34397 Y10.55087
X1.01456 Y10.87970
X0.83605 Y11.30967
X0.83557 Y11.77492
G04 P0 ( dwell for no time -- G64 should not smooth over this point )
G00 Z5.00000 ( retract )

G00 X1.14435 Y11.53288 ( rapid move to begin. )
F300.00000
G01 Z-0.05000
G04 P0 ( dwell for no time -- G64 should not smooth over this point )
F600.00000
G01 X1.14435 Y11.53288
X1.16536 Y11.35402
X1.22309 Y11.18340
X1.31504 Y11.02854
X1.43717 Y10.89616
X1.56602 Y10.80253
X1.72967 Y10.72730
X1.90539 Y10.68772
X2.08542 Y10.68551
X2.26206 Y10.72084
X2.42746 Y10.79209
X2.57442 Y10.89616
X2.69657 Y11.02854
X2.79703 Y11.20250
X2.85060 Y11.37446
X2.86726 Y11.55379
X2.84626 Y11.73265
X2.78852 Y11.90327
X2.69657 Y12.05813
X2.57445 Y12.19051
X2.44560 Y12.28414
X2.28194 Y12.35937
X2.10623 Y12.39895
X1.92617 Y12.40113
X1.74956 Y12.36582
X1.58416 Y12.29458
X1.43719 Y12.19051
X1.31504 Y12.05813
X1.21459 Y11.88416
X1.16102 Y11.71221
X1.14435 Y11.53288
G04 P0 ( dwell for no time -- G64 should not smooth over this point )
G00 Z5.00000 ( retract )

G00 X0.82337 Y5.80417 ( rapid move to begin. )
F300.00000
G01 Z-0.05000
G04 P0 ( dwell for no time -- G64 should not smooth over this point )
F600.00000
G01 X0.82337 Y5.80417
X0.82337 Y7.28402
X0.85556 Y7.45514
X0.94573 Y7.59527
X1.08202 Y7.68839
X1.26643 Y7.72575
X2.74676 Y7.72575
X2.91763 Y7.69362
X3.05776 Y7.60345
X3.15088 Y7.46716
X3.18824 Y7.28273
X3.18824 Y5.80239
X3.15611 Y5.63155
X3.06594 Y5.49142
X2.92964 Y5.39830
X2.74499 Y5.36089
X1.26513 Y5.36089
X1.09404 Y5.39307
X0.95388 Y5.48324
X0.86079 Y5.61951
X0.82337 Y5.80417
G04 P0 ( dwell for no time -- G64 should not smooth over this point )
G00 Z5.00000 ( retract )

G00 X2.86779 Y5.78131 ( rapid move to begin. )
F300.00000
G01 Z-0.05000
G04 P0 ( dwell for no time -- G64 should not smooth over this point )
F600.00000
G01 X2.86779 Y5.78131
X2.86779 Y7.30531
X2.83015 Y7.38351
X2.76780 Y7.40531
X1.24380 Y7.40531
X1.16561 Y7.36766
X1.14380 Y7.30531
X1.14380 Y5.78131
X1.18146 Y5.70313
X1.24380 Y5.68131
X2.76780 Y5.68131
X2.83015 Y5.70313
X2.86779 Y5.78131
G04 P0 ( dwell for no time -- G64 should not smooth over this point )
G00 Z5.00000 ( retract )

G00 X13.04931 Y5.39213 ( rapid move to begin. )
F300.00000
G01 Z-0.05000
G04 P0 ( dwell for no time -- G64 should not smooth over this point )
F600.00000
G01 X13.04931 Y5.39213
X13.04931 Y6.91001
X13.08152 Y7.08118
X13.17169 Y7.22133
X13.30796 Y7.31445
X13.49239 Y7.35181
X15.01080 Y7.35181
X15.18166 Y7.31966
X15.32177 Y7.22951
X15.41496 Y7.09314
X15.45230 Y6.90881
X15.45230 Y5.39035
X15.42020 Y5.21956
X15.32997 Y5.07940
X15.19363 Y4.98621
X15.00905 Y4.94882
X13.49109 Y4.94882
X13.32002 Y4.98098
X13.17989 Y5.07117
X13.08672 Y5.20752
X13.04931 Y5.39213
G04 P0 ( dwell for no time -- G64 should not smooth over this point )
G00 Z5.00000 ( retract )

G00 X15.13185 Y5.36927 ( rapid move to begin. )
F300.00000
G01 Z-0.05000
G04 P0 ( dwell for no time -- G64 should not smooth over this point )
F600.00000
G01 X15.13185 Y5.36927
X15.13185 Y6.93137
X15.09421 Y7.00957
X15.03185 Y7.03137
X13.46975 Y7.03137
X13.39157 Y6.99372
X13.36976 Y6.93137
X13.36976 Y5.36927
X13.40742 Y5.29109
X13.46975 Y5.26927
X15.03185 Y5.26927
X15.09421 Y5.29109
X15.13185 Y5.36927
G04 P0 ( dwell for no time -- G64 should not smooth over this point )
G00 Z5.00000 ( retract )

G00 X13.06201 Y13.40585 ( rapid move to begin. )
F300.00000
G01 Z-0.05000
G04 P0 ( dwell for no time -- G64 should not smooth over this point )
F600.00000
G01 X13.06201 Y13.40585
X13.06150 Y13.87870
X13.24220 Y14.31596
X13.57638 Y14.65076
X14.01334 Y14.83216
X14.48621 Y14.83267
X14.92347 Y14.65198
X15.25825 Y14.31779
X15.43965 Y13.88083
X15.44016 Y13.40796
X15.25946 Y12.97070
X14.92528 Y12.63593
X14.48832 Y12.45452
X14.01547 Y12.45401
X13.57821 Y12.63471
X13.24342 Y12.96890
X13.06201 Y13.40585
G04 P0 ( dwell for no time -- G64 should not smooth over this point )
G00 Z5.00000 ( retract )

G00 X13.37031 Y13.63288 ( rapid move to begin. )
F300.00000
G01 Z-0.05000
G04 P0 ( dwell for no time -- G64 should not smooth over this point )
F600.00000
G01 X13.37031 Y13.63288
X13.39173 Y13.45005
X13.44220 Y13.29475
X13.53234 Y13.13425
X13.65390 Y12.99600
X13.80150 Y12.88604
X13.96881 Y12.80918
X14.14839 Y12.76877
X14.33244 Y12.76656
X14.51296 Y12.80273
X14.68200 Y12.87558
X14.83221 Y12.98200
X14.95700 Y13.11733
X15.05093 Y13.27565
X15.10991 Y13.45005
X15.13132 Y13.65378
X15.10991 Y13.83661
X15.05944 Y13.99191
X14.96929 Y14.15241
X14.84773 Y14.29066
X14.70013 Y14.40062
X14.53282 Y14.47748
X14.35324 Y14.51789
X14.16917 Y14.52008
X13.98868 Y14.48393
X13.81964 Y14.41108
X13.66942 Y14.30466
X13.54463 Y14.16933
X13.45070 Y14.01101
X13.39173 Y13.83661
X13.37031 Y13.63288
G04 P0 ( dwell for no time -- G64 should not smooth over this point )
G00 Z5.00000 ( retract )

G00 X28.50904 Y18.44882 ( rapid move to begin. )
F300.00000
G01 Z-0.05000
G04 P0 ( dwell for no time -- G64 should not smooth over this point )
F600.00000
G01 X28.50904 Y18.44882
X26.99109 Y18.44882
X26.82002 Y18.48098
X26.67989 Y18.57117
X26.58672 Y18.70752
X26.54931 Y18.89213
X26.54931 Y20.41003
X26.58151 Y20.58118
X26.67168 Y20.72133
X26.80796 Y20.81445
X26.99238 Y20.85181
X28.51080 Y20.85181
X28.68166 Y20.81966
X28.82177 Y20.72951
X28.91496 Y20.59314
X28.95230 Y20.40881
X28.95230 Y18.89035
X28.92019 Y18.71956
X28.82997 Y18.57940
X28.69363 Y18.48621
X28.50904 Y18.44882
G04 P0 ( dwell for no time -- G64 should not smooth over this point )
G00 Z5.00000 ( retract )

G00 X28.63185 Y18.86927 ( rapid move to begin. )
F300.00000
G01 Z-0.05000
G04 P0 ( dwell for no time -- G64 should not smooth over this point )
F600.00000
G01 X28.63185 Y18.86927
X28.63185 Y20.43137
X28.59421 Y20.50957
X28.53185 Y20.53137
X26.96975 Y20.53137
X26.89157 Y20.49372
X26.86975 Y20.43137
X26.86975 Y18.86927
X26.90742 Y18.79109
X26.96975 Y18.76927
X28.53185 Y18.76927
X28.59421 Y18.79109
X28.63185 Y18.86927
G04 P0 ( dwell for no time -- G64 should not smooth over this point )
G00 Z5.00000 ( retract )

G00 X26.56201 Y26.90585 ( rapid move to begin. )
F300.00000
G01 Z-0.05000
G04 P0 ( dwell for no time -- G64 should not smooth over this point )
F600.00000
G01 X26.56201 Y26.90585
X26.56152 Y27.37872
X26.74219 Y27.81598
X27.07638 Y28.15076
X27.51334 Y28.33216
X27.98621 Y28.33267
X28.42347 Y28.15198
X28.75824 Y27.81779
X28.93965 Y27.38083
X28.94016 Y26.90796
X28.75946 Y26.47070
X28.42527 Y26.13593
X27.98832 Y25.95452
X27.51547 Y25.95401
X27.07821 Y26.13471
X26.74341 Y26.46890
X26.56201 Y26.90585
G04 P0 ( dwell for no time -- G64 should not smooth over this point )
G00 Z5.00000 ( retract )

G00 X26.87031 Y27.13288 ( rapid move to begin. )
F300.00000
G01 Z-0.05000
G04 P0 ( dwell for no time -- G64 should not smooth over this point )
F600.00000
G01 X26.87031 Y27.13288
X26.89172 Y26.95005
X26.94219 Y26.79475
X27.03234 Y26.63425
X27.15390 Y26.49600
X27.30150 Y26.38604
X27.46881 Y26.30918
X27.64839 Y26.26877
X27.83244 Y26.26656
X28.01296 Y26.30273
X28.18199 Y26.37558
X28.33221 Y26.48200
X28.45700 Y26.61733
X28.55093 Y26.77565
X28.60991 Y26.95005
X28.63132 Y27.15378
X28.60991 Y27.33661
X28.55944 Y27.49191
X28.46929 Y27.65241
X28.34773 Y27.79066
X28.20013 Y27.90062
X28.03282 Y27.97748
X27.85324 Y28.01789
X27.66917 Y28.02007
X27.48868 Y27.98393
X27.31964 Y27.91108
X27.16942 Y27.80466
X27.04463 Y27.66932
X26.95070 Y27.51101
X26.89172 Y27.33661
X26.87031 Y27.13288
G04 P0 ( dwell for no time -- G64 should not smooth over this point )
G00 Z5.00000 ( retract )

G00 X16.50904 Y33.44882 ( rapid move to begin. )
F300.00000
G01 Z-0.05000
G04 P0 ( dwell for no time -- G64 should not smooth over this point )
F600.00000
G01 X16.50904 Y33.44882
X14.99116 Y33.44882
X14.81999 Y33.48102
X14.67984 Y33.57119
X14.58672 Y33.70746
X14.54931 Y33.89212
X14.54931 Y35.41003
X14.58151 Y35.58117
X14.67166 Y35.72128
X14.80803 Y35.81447
X14.99236 Y35.85181
X16.51082 Y35.85181
X16.68161 Y35.81970
X16.82177 Y35.72948
X16.91496 Y35.59313
X16.95230 Y35.40881
X16.95230 Y33.89034
X16.92019 Y33.71953
X16.83000 Y33.57940
X16.69365 Y33.48623
X16.50904 Y33.44882
G04 P0 ( dwell for no time -- G64 should not smooth over this point )
G00 Z5.00000 ( retract )

G00 X16.63185 Y33.86926 ( rapid move to begin. )
F300.00000
G01 Z-0.05000
G04 P0 ( dwell for no time -- G64 should not smooth over this point )
F600.00000
G01 X16.63185 Y33.86926
X16.63185 Y35.43136
X16.59421 Y35.50957
X16.53185 Y35.53136
X14.96975 Y35.53136
X14.89157 Y35.49372
X14.86975 Y35.43136
X14.86975 Y33.86926
X14.90742 Y33.79108
X14.96975 Y33.76926
X16.53185 Y33.76926
X16.59421 Y33.79108
X16.63185 Y33.86926
G04 P0 ( dwell for no time -- G64 should not smooth over this point )
G00 Z5.00000 ( retract )

G00 X14.87031 Y42.13287 ( rapid move to begin. )
F300.00000
G01 Z-0.05000
G04 P0 ( dwell for no time -- G64 should not smooth over this point )
F600.00000
G01 X14.87031 Y42.13287
X14.89172 Y41.95004
X14.94219 Y41.79475
X15.03234 Y41.63424
X15.15390 Y41.49599
X15.30150 Y41.38604
X15.46881 Y41.30918
X15.64839 Y41.26876
X15.83244 Y41.26655
X16.01296 Y41.30272
X16.18199 Y41.37557
X16.33221 Y41.48200
X16.45700 Y41.61733
X16.55093 Y41.77565
X16.60991 Y41.95004
X16.63132 Y42.15378
X16.60991 Y42.33661
X16.55944 Y42.49190
X16.46929 Y42.65240
X16.34773 Y42.79066
X16.20013 Y42.90061
X16.03282 Y42.97747
X15.85324 Y43.01788
X15.66917 Y43.02007
X15.48867 Y42.98392
X15.31964 Y42.91108
X15.16942 Y42.80465
X15.04463 Y42.66932
X14.95070 Y42.51100
X14.89172 Y42.33661
X14.87031 Y42.13287
G04 P0 ( dwell for no time -- G64 should not smooth over this point )
G00 Z5.00000 ( retract )

G00 X14.56152 Y42.37872 ( rapid move to begin. )
F300.00000
G01 Z-0.05000
G04 P0 ( dwell for no time -- G64 should not smooth over this point )
F600.00000
G01 X14.56152 Y42.37872
X14.74219 Y42.81598
X15.07638 Y43.15075
X15.51334 Y43.33216
X15.98621 Y43.33267
X16.42347 Y43.15197
X16.75829 Y42.81773
X16.93967 Y42.38090
X16.94016 Y41.90798
X16.75946 Y41.47072
X16.42527 Y41.13592
X15.98832 Y40.95452
X15.51547 Y40.95401
X15.07821 Y41.13470
X14.74341 Y41.46889
X14.56201 Y41.90585
X14.56152 Y42.37872
G04 P0 ( dwell for no time -- G64 should not smooth over this point )
G00 Z5.00000 ( retract )

G00 X40.46754 Y42.39729 ( rapid move to begin. )
F300.00000
G01 Z-0.05000
G04 P0 ( dwell for no time -- G64 should not smooth over this point )
F600.00000
G01 X40.46754 Y42.39729
X40.66251 Y42.86912
X41.02309 Y43.23036
X41.49457 Y43.42611
X42.00480 Y43.42662
X42.47661 Y43.23168
X42.83784 Y42.87107
X43.03360 Y42.39960
X43.03411 Y41.88939
X42.83917 Y41.41756
X42.47856 Y41.05632
X42.00709 Y40.86059
X41.49683 Y40.86005
X41.02505 Y41.05500
X40.66381 Y41.41560
X40.46805 Y41.88708
X40.46754 Y42.39729
G04 P0 ( dwell for no time -- G64 should not smooth over this point )
G00 Z5.00000 ( retract )

G00 X40.77638 Y42.13287 ( rapid move to begin. )
F300.00000
G01 Z-0.05000
G04 P0 ( dwell for no time -- G64 should not smooth over this point )
F600.00000
G01 X40.77638 Y42.13287
X40.79985 Y41.93051
X40.86487 Y41.73745
X40.96863 Y41.56211
X41.10656 Y41.41217
X41.27265 Y41.29422
X41.45964 Y41.21334
X41.65936 Y41.17313
X41.84224 Y41.17313
X42.04199 Y41.21334
X42.22898 Y41.29422
X42.41059 Y41.42617
X42.54529 Y41.57903
X42.64526 Y41.75655
X42.70612 Y41.95096
X42.72525 Y42.15378
X42.70178 Y42.35614
X42.63675 Y42.54920
X42.53299 Y42.72454
X42.39507 Y42.87448
X42.22898 Y42.99243
X42.04199 Y43.07331
X41.86304 Y43.11133
X41.65936 Y43.11349
X41.43975 Y43.06683
X41.25454 Y42.98199
X41.09104 Y42.86048
X40.95634 Y42.70762
X40.85637 Y42.53010
X40.79551 Y42.33569
X40.77638 Y42.13287
G04 P0 ( dwell for no time -- G64 should not smooth over this point )
G00 Z5.00000 ( retract )

G00 X40.77638 Y37.13288 ( rapid move to begin. )
F300.00000
G01 Z-0.05000
G04 P0 ( dwell for no time -- G64 should not smooth over this point )
F600.00000
G01 X40.77638 Y37.13288
X40.79985 Y36.93052
X40.86487 Y36.73746
X40.96863 Y36.56212
X41.10656 Y36.41218
X41.27265 Y36.29423
X41.45964 Y36.21335
X41.65936 Y36.17314
X41.84224 Y36.17314
X42.04199 Y36.21335
X42.22898 Y36.29423
X42.41059 Y36.42618
X42.54529 Y36.57904
X42.64526 Y36.75656
X42.70612 Y36.95097
X42.72525 Y37.15379
X42.70178 Y37.35615
X42.63675 Y37.54921
X42.53299 Y37.72455
X42.39507 Y37.87449
X42.22898 Y37.99244
X42.04199 Y38.07332
X41.86304 Y38.11134
X41.65936 Y38.11350
X41.43975 Y38.06684
X41.25454 Y37.98200
X41.09104 Y37.86049
X40.95634 Y37.70763
X40.85637 Y37.53011
X40.79551 Y37.33570
X40.77638 Y37.13288
G04 P0 ( dwell for no time -- G64 should not smooth over this point )
G00 Z5.00000 ( retract )

G00 X42.83917 Y36.41757 ( rapid move to begin. )
F300.00000
G01 Z-0.05000
G04 P0 ( dwell for no time -- G64 should not smooth over this point )
F600.00000
G01 X42.83917 Y36.41757
X42.47856 Y36.05633
X42.00709 Y35.86057
X41.49688 Y35.86006
X41.02505 Y36.05501
X40.66381 Y36.41561
X40.46808 Y36.88709
X40.46754 Y37.39732
X40.66249 Y37.86910
X41.02309 Y38.23037
X41.49457 Y38.42610
X42.00480 Y38.42663
X42.47661 Y38.23166
X42.83784 Y37.87108
X43.03360 Y37.39961
X43.03411 Y36.88937
X42.83917 Y36.41757
G04 P0 ( dwell for no time -- G64 should not smooth over this point )
G00 Z5.00000 ( retract )

G00 X44.50055 Y36.37500 ( rapid move to begin. )
F300.00000
G01 Z-0.05000
G04 P0 ( dwell for no time -- G64 should not smooth over this point )
F600.00000
G01 X44.50055 Y36.37500
X44.67835 Y36.80520
X45.00718 Y37.13461
X45.43715 Y37.31312
X45.90243 Y37.31360
X46.33268 Y37.13583
X46.66212 Y36.80697
X46.84061 Y36.37703
X46.84111 Y35.91173
X46.66331 Y35.48148
X46.33448 Y35.15206
X45.90451 Y34.97355
X45.43926 Y34.97307
X45.00899 Y35.15087
X44.67957 Y35.47967
X44.50106 Y35.90964
X44.50055 Y36.37500
G04 P0 ( dwell for no time -- G64 should not smooth over this point )
G00 Z5.00000 ( retract )

G00 X44.80937 Y36.13288 ( rapid move to begin. )
F300.00000
G01 Z-0.05000
G04 P0 ( dwell for no time -- G64 should not smooth over this point )
F600.00000
G01 X44.80937 Y36.13288
X44.83037 Y35.95402
X44.88811 Y35.78341
X44.98006 Y35.62854
X45.10218 Y35.49616
X45.23103 Y35.40253
X45.39468 Y35.32730
X45.57040 Y35.28772
X45.75044 Y35.28551
X45.92707 Y35.32085
X46.09247 Y35.39209
X46.23944 Y35.49616
X46.36159 Y35.62854
X46.46204 Y35.80251
X46.51561 Y35.97446
X46.53227 Y36.15379
X46.51127 Y36.33266
X46.45353 Y36.50327
X46.36159 Y36.65813
X46.23946 Y36.79052
X46.11061 Y36.88414
X45.94696 Y36.95937
X45.77124 Y36.99895
X45.59118 Y37.00113
X45.41457 Y36.96583
X45.24917 Y36.89458
X45.10220 Y36.79052
X44.98006 Y36.65813
X44.87960 Y36.48417
X44.82603 Y36.31221
X44.80937 Y36.13288
G04 P0 ( dwell for no time -- G64 should not smooth over this point )
G00 Z5.00000 ( retract )

G00 X40.57773 Y33.30828 ( rapid move to begin. )
F300.00000
G01 Z-0.05000
G04 P0 ( dwell for no time -- G64 should not smooth over this point )
F600.00000
G01 X40.57773 Y33.30828
X40.71402 Y33.40139
X40.89843 Y33.43876
X42.60477 Y33.43876
X42.77556 Y33.40665
X42.91572 Y33.31643
X43.00891 Y33.18008
X43.04625 Y32.99576
X43.04625 Y31.28938
X43.01415 Y31.11857
X42.92395 Y30.97841
X42.78765 Y30.88530
X42.60300 Y30.84788
X40.89713 Y30.84788
X40.72604 Y30.88004
X40.58591 Y30.97023
X40.49279 Y31.10653
X40.45538 Y31.29119
X40.45538 Y32.99703
X40.48756 Y33.16815
X40.57773 Y33.30828
G04 P0 ( dwell for no time -- G64 should not smooth over this point )
G00 Z5.00000 ( retract )

G00 X42.72578 Y31.26833 ( rapid move to begin. )
F300.00000
G01 Z-0.05000
G04 P0 ( dwell for no time -- G64 should not smooth over this point )
F600.00000
G01 X42.72578 Y31.26833
X42.72578 Y33.01829
X42.68814 Y33.09649
X42.62578 Y33.11829
X40.87582 Y33.11829
X40.79764 Y33.08064
X40.77582 Y33.01829
X40.77582 Y31.26833
X40.81349 Y31.19015
X40.87582 Y31.16833
X42.62578 Y31.16833
X42.68814 Y31.19015
X42.72578 Y31.26833
G04 P0 ( dwell for no time -- G64 should not smooth over this point )
G00 Z5.00000 ( retract )

G00 X40.77638 Y28.63287 ( rapid move to begin. )
F300.00000
G01 Z-0.05000
G04 P0 ( dwell for no time -- G64 should not smooth over this point )
F600.00000
G01 X40.77638 Y28.63287
X40.79985 Y28.43051
X40.86487 Y28.23745
X40.96863 Y28.06211
X41.10656 Y27.91217
X41.27265 Y27.79422
X41.45964 Y27.71334
X41.65936 Y27.67313
X41.84224 Y27.67313
X42.04199 Y27.71334
X42.22898 Y27.79422
X42.41059 Y27.92617
X42.54529 Y28.07903
X42.64526 Y28.25655
X42.70612 Y28.45096
X42.72525 Y28.65378
X42.70178 Y28.85614
X42.63675 Y29.04921
X42.53299 Y29.22454
X42.39507 Y29.37448
X42.22898 Y29.49244
X42.04199 Y29.57331
X41.86304 Y29.61133
X41.65936 Y29.61349
X41.43975 Y29.56683
X41.25454 Y29.48200
X41.09104 Y29.36048
X40.95634 Y29.20763
X40.85637 Y29.03010
X40.79551 Y28.83569
X40.77638 Y28.63287
G04 P0 ( dwell for no time -- G64 should not smooth over this point )
G00 Z5.00000 ( retract )

G00 X41.49683 Y27.36005 ( rapid move to begin. )
F300.00000
G01 Z-0.05000
G04 P0 ( dwell for no time -- G64 should not smooth over this point )
F600.00000
G01 X41.49683 Y27.36005
X41.02505 Y27.55500
X40.66381 Y27.91560
X40.46808 Y28.38708
X40.46754 Y28.89729
X40.66251 Y29.36912
X41.02309 Y29.73036
X41.49457 Y29.92611
X42.00480 Y29.92662
X42.47661 Y29.73168
X42.83784 Y29.37107
X43.03360 Y28.89960
X43.03411 Y28.38939
X42.83917 Y27.91756
X42.47856 Y27.55632
X42.00709 Y27.36059
X41.49683 Y27.36005
G04 P0 ( dwell for no time -- G64 should not smooth over this point )
G00 Z5.00000 ( retract )

G00 X44.65057 Y27.05492 ( rapid move to begin. )
F300.00000
G01 Z-0.05000
G04 P0 ( dwell for no time -- G64 should not smooth over this point )
F600.00000
G01 X44.65057 Y27.05492
X44.82837 Y27.48520
X45.15719 Y27.81461
X45.58714 Y27.99312
X46.05242 Y27.99361
X46.48269 Y27.81581
X46.81211 Y27.48698
X46.99062 Y27.05703
X46.99110 Y26.59176
X46.81330 Y26.16148
X46.48447 Y25.83207
X46.05453 Y25.65356
X45.58925 Y25.65307
X45.15897 Y25.83087
X44.82956 Y26.15970
X44.65105 Y26.58965
X44.65057 Y27.05492
G04 P0 ( dwell for no time -- G64 should not smooth over this point )
G00 Z5.00000 ( retract )

G00 X44.95935 Y26.81286 ( rapid move to begin. )
F300.00000
G01 Z-0.05000
G04 P0 ( dwell for no time -- G64 should not smooth over this point )
F600.00000
G01 X44.95935 Y26.81286
X44.98036 Y26.63400
X45.03809 Y26.46338
X45.13004 Y26.30852
X45.25217 Y26.17614
X45.38102 Y26.08251
X45.54467 Y26.00728
X45.72039 Y25.96770
X45.90042 Y25.96549
X46.07706 Y26.00082
X46.24246 Y26.07207
X46.38942 Y26.17614
X46.51157 Y26.30852
X46.61203 Y26.48248
X46.66560 Y26.65444
X46.68226 Y26.83377
X46.66126 Y27.01263
X46.60352 Y27.18325
X46.51157 Y27.33811
X46.38945 Y27.47049
X46.26060 Y27.56412
X46.09694 Y27.63935
X45.92123 Y27.67893
X45.74117 Y27.68111
X45.56456 Y27.64580
X45.39916 Y27.57456
X45.25219 Y27.47049
X45.13004 Y27.33811
X45.02959 Y27.16414
X44.97602 Y26.99219
X44.95935 Y26.81286
G04 P0 ( dwell for no time -- G64 should not smooth over this point )
G00 Z5.00000 ( retract )

G00 X40.77638 Y23.63288 ( rapid move to begin. )
F300.00000
G01 Z-0.05000
G04 P0 ( dwell for no time -- G64 should not smooth over this point )
F600.00000
G01 X40.77638 Y23.63288
X40.79985 Y23.43052
X40.86487 Y23.23746
X40.96863 Y23.06212
X41.10656 Y22.91218
X41.27265 Y22.79423
X41.45964 Y22.71335
X41.65936 Y22.67314
X41.84224 Y22.67314
X42.04199 Y22.71335
X42.22898 Y22.79423
X42.41059 Y22.92618
X42.54529 Y23.07904
X42.64526 Y23.25656
X42.70612 Y23.45097
X42.72525 Y23.65379
X42.70178 Y23.85615
X42.63675 Y24.04922
X42.53299 Y24.22455
X42.39507 Y24.37449
X42.22898 Y24.49245
X42.04199 Y24.57332
X41.86304 Y24.61134
X41.65936 Y24.61350
X41.43975 Y24.56684
X41.25454 Y24.48201
X41.09104 Y24.36049
X40.95634 Y24.20764
X40.85637 Y24.03011
X40.79551 Y23.83570
X40.77638 Y23.63288
G04 P0 ( dwell for no time -- G64 should not smooth over this point )
G00 Z5.00000 ( retract )

G00 X40.46754 Y23.89732 ( rapid move to begin. )
F300.00000
G01 Z-0.05000
G04 P0 ( dwell for no time -- G64 should not smooth over this point )
F600.00000
G01 X40.46754 Y23.89732
X40.66251 Y24.36915
X41.02309 Y24.73037
X41.49457 Y24.92610
X42.00480 Y24.92663
X42.47661 Y24.73166
X42.83784 Y24.37108
X43.03360 Y23.89961
X43.03411 Y23.38937
X42.83917 Y22.91757
X42.47856 Y22.55633
X42.00709 Y22.36057
X41.49688 Y22.36006
X41.02505 Y22.55501
X40.66381 Y22.91561
X40.46808 Y23.38709
X40.46754 Y23.89732
G04 P0 ( dwell for no time -- G64 should not smooth over this point )
G00 Z5.00000 ( retract )

G00 X44.82837 Y21.13520 ( rapid move to begin. )
F300.00000
G01 Z-0.05000
G04 P0 ( dwell for no time -- G64 should not smooth over this point )
F600.00000
G01 X44.82837 Y21.13520
X45.15719 Y21.46461
X45.58714 Y21.64312
X46.05242 Y21.64361
X46.48269 Y21.46581
X46.81211 Y21.13698
X46.99062 Y20.70703
X46.99110 Y20.24176
X46.81330 Y19.81148
X46.48447 Y19.48207
X46.05453 Y19.30356
X45.58925 Y19.30307
X45.15897 Y19.48087
X44.82956 Y19.80970
X44.65105 Y20.23965
X44.65057 Y20.70492
X44.82837 Y21.13520
G04 P0 ( dwell for no time -- G64 should not smooth over this point )
G00 Z5.00000 ( retract )

G00 X44.95935 Y20.46286 ( rapid move to begin. )
F300.00000
G01 Z-0.05000
G04 P0 ( dwell for no time -- G64 should not smooth over this point )
F600.00000
G01 X44.95935 Y20.46286
X44.98036 Y20.28400
X45.03809 Y20.11338
X45.13004 Y19.95852
X45.25217 Y19.82614
X45.38102 Y19.73251
X45.54467 Y19.65728
X45.72039 Y19.61770
X45.90042 Y19.61549
X46.07706 Y19.65082
X46.24246 Y19.72207
X46.38942 Y19.82614
X46.51157 Y19.95852
X46.61203 Y20.13248
X46.66560 Y20.30444
X46.68226 Y20.48377
X46.66126 Y20.66263
X46.60352 Y20.83325
X46.51157 Y20.98811
X46.38945 Y21.12049
X46.26060 Y21.21412
X46.09694 Y21.28935
X45.92123 Y21.32893
X45.74117 Y21.33111
X45.56456 Y21.29580
X45.39916 Y21.22456
X45.25219 Y21.12049
X45.13004 Y20.98811
X45.02959 Y20.81414
X44.97602 Y20.64219
X44.95935 Y20.46286
G04 P0 ( dwell for no time -- G64 should not smooth over this point )
G00 Z5.00000 ( retract )

G00 X42.72578 Y17.76833 ( rapid move to begin. )
F300.00000
G01 Z-0.05000
G04 P0 ( dwell for no time -- G64 should not smooth over this point )
F600.00000
G01 X42.72578 Y17.76833
X42.72578 Y19.51829
X42.68814 Y19.59649
X42.62578 Y19.61829
X40.87582 Y19.61829
X40.79764 Y19.58064
X40.77582 Y19.51829
X40.77582 Y17.76833
X40.81349 Y17.69015
X40.87582 Y17.66833
X42.62578 Y17.66833
X42.68814 Y17.69015
X42.72578 Y17.76833
G04 P0 ( dwell for no time -- G64 should not smooth over this point )
G00 Z5.00000 ( retract )

G00 X40.45538 Y17.79119 ( rapid move to begin. )
F300.00000
G01 Z-0.05000
G04 P0 ( dwell for no time -- G64 should not smooth over this point )
F600.00000
G01 X40.45538 Y17.79119
X40.45538 Y19.49703
X40.48756 Y19.66815
X40.57773 Y19.80828
X40.71402 Y19.90140
X40.89843 Y19.93876
X42.60477 Y19.93876
X42.77556 Y19.90665
X42.91572 Y19.81643
X43.00891 Y19.68009
X43.04625 Y19.49576
X43.04625 Y17.78939
X43.01415 Y17.61857
X42.92395 Y17.47841
X42.78765 Y17.38530
X42.60300 Y17.34788
X40.89713 Y17.34788
X40.72604 Y17.38004
X40.58591 Y17.47023
X40.49279 Y17.60653
X40.45538 Y17.79119
G04 P0 ( dwell for no time -- G64 should not smooth over this point )
G00 Z5.00000 ( retract )

G00 X40.77638 Y15.13288 ( rapid move to begin. )
F300.00000
G01 Z-0.05000
G04 P0 ( dwell for no time -- G64 should not smooth over this point )
F600.00000
G01 X40.77638 Y15.13288
X40.79985 Y14.93051
X40.86487 Y14.73745
X40.96863 Y14.56211
X41.10656 Y14.41218
X41.27265 Y14.29422
X41.45964 Y14.21334
X41.65936 Y14.17314
X41.84224 Y14.17314
X42.04199 Y14.21334
X42.22898 Y14.29422
X42.41059 Y14.42617
X42.54529 Y14.57903
X42.64526 Y14.75655
X42.70612 Y14.95096
X42.72525 Y15.15378
X42.70178 Y15.35614
X42.63675 Y15.54921
X42.53299 Y15.72454
X42.39507 Y15.87448
X42.22898 Y15.99244
X42.04199 Y16.07331
X41.86304 Y16.11133
X41.65936 Y16.11349
X41.43975 Y16.06683
X41.25454 Y15.98200
X41.09104 Y15.86048
X40.95634 Y15.70763
X40.85637 Y15.53011
X40.79551 Y15.33569
X40.77638 Y15.13288
G04 P0 ( dwell for no time -- G64 should not smooth over this point )
G00 Z5.00000 ( retract )

G00 X40.46808 Y14.88708 ( rapid move to begin. )
F300.00000
G01 Z-0.05000
G04 P0 ( dwell for no time -- G64 should not smooth over this point )
F600.00000
G01 X40.46808 Y14.88708
X40.46754 Y15.39729
X40.66251 Y15.86912
X41.02309 Y16.23036
X41.49457 Y16.42609
X42.00483 Y16.42662
X42.47661 Y16.23168
X42.83784 Y15.87108
X43.03360 Y15.39960
X43.03411 Y14.88939
X42.83917 Y14.41756
X42.47856 Y14.05632
X42.00709 Y13.86056
X41.49688 Y13.86006
X41.02505 Y14.05500
X40.66381 Y14.41560
X40.46808 Y14.88708
G04 P0 ( dwell for no time -- G64 should not smooth over this point )
G00 Z5.00000 ( retract )

G00 X40.77638 Y10.13289 ( rapid move to begin. )
F300.00000
G01 Z-0.05000
G04 P0 ( dwell for no time -- G64 should not smooth over this point )
F600.00000
G01 X40.77638 Y10.13289
X40.79985 Y9.93052
X40.86487 Y9.73746
X40.96863 Y9.56212
X41.10656 Y9.41219
X41.27265 Y9.29423
X41.45964 Y9.21335
X41.65936 Y9.17315
X41.84224 Y9.17315
X42.04199 Y9.21335
X42.22898 Y9.29423
X42.41059 Y9.42618
X42.54529 Y9.57904
X42.64526 Y9.75656
X42.70612 Y9.95097
X42.72525 Y10.15379
X42.70178 Y10.35615
X42.63675 Y10.54922
X42.53299 Y10.72455
X42.39507 Y10.87449
X42.22898 Y10.99245
X42.04199 Y11.07332
X41.86304 Y11.11134
X41.65936 Y11.11350
X41.43975 Y11.06684
X41.25454 Y10.98201
X41.09104 Y10.86049
X40.95634 Y10.70764
X40.85637 Y10.53012
X40.79551 Y10.33570
X40.77638 Y10.13289
G04 P0 ( dwell for no time -- G64 should not smooth over this point )
G00 Z5.00000 ( retract )

G00 X41.02505 Y9.05501 ( rapid move to begin. )
F300.00000
G01 Z-0.05000
G04 P0 ( dwell for no time -- G64 should not smooth over this point )
F600.00000
G01 X41.02505 Y9.05501
X40.66381 Y9.41561
X40.46808 Y9.88709
X40.46754 Y10.39730
X40.66251 Y10.86913
X41.02309 Y11.23034
X41.49457 Y11.42610
X42.00480 Y11.42663
X42.47661 Y11.23166
X42.83784 Y10.87109
X43.03360 Y10.39961
X43.03411 Y9.88938
X42.83917 Y9.41757
X42.47856 Y9.05633
X42.00709 Y8.86057
X41.49688 Y8.86004
X41.02505 Y9.05501
G04 P0 ( dwell for no time -- G64 should not smooth over this point )
G00 Z5.00000 ( retract )

G00 X43.04625 Y5.99576 ( rapid move to begin. )
F300.00000
G01 Z-0.05000
G04 P0 ( dwell for no time -- G64 should not smooth over this point )
F600.00000
G01 X43.04625 Y5.99576
X43.04625 Y4.28939
X43.01415 Y4.11857
X42.92395 Y3.97841
X42.78765 Y3.88530
X42.60300 Y3.84788
X40.89713 Y3.84788
X40.72604 Y3.88007
X40.58588 Y3.97024
X40.49279 Y4.10651
X40.45538 Y4.29116
X40.45538 Y5.99703
X40.48756 Y6.16812
X40.57773 Y6.30828
X40.71402 Y6.40140
X40.89843 Y6.43876
X42.60477 Y6.43876
X42.77556 Y6.40665
X42.91572 Y6.31643
X43.00891 Y6.18009
X43.04625 Y5.99576
G04 P0 ( dwell for no time -- G64 should not smooth over this point )
G00 Z5.00000 ( retract )

G00 X42.72578 Y4.26833 ( rapid move to begin. )
F300.00000
G01 Z-0.05000
G04 P0 ( dwell for no time -- G64 should not smooth over this point )
F600.00000
G01 X42.72578 Y4.26833
X42.72578 Y6.01829
X42.68814 Y6.09650
X42.62578 Y6.11829
X40.87582 Y6.11829
X40.79764 Y6.08065
X40.77582 Y6.01829
X40.77582 Y4.26833
X40.81349 Y4.19015
X40.87582 Y4.16833
X42.62578 Y4.16833
X42.70399 Y4.20600
X42.72578 Y4.26833
G04 P0 ( dwell for no time -- G64 should not smooth over this point )
G00 Z5.00000 ( retract )

G00 X55.11935 Y20.46286 ( rapid move to begin. )
F300.00000
G01 Z-0.05000
G04 P0 ( dwell for no time -- G64 should not smooth over this point )
F600.00000
G01 X55.11935 Y20.46286
X55.14036 Y20.28400
X55.19809 Y20.11338
X55.29004 Y19.95852
X55.41217 Y19.82614
X55.54102 Y19.73251
X55.70467 Y19.65728
X55.88039 Y19.61770
X56.06042 Y19.61549
X56.23706 Y19.65082
X56.40246 Y19.72207
X56.54942 Y19.82614
X56.67157 Y19.95852
X56.77203 Y20.13248
X56.82560 Y20.30444
X56.84226 Y20.48377
X56.82126 Y20.66263
X56.76352 Y20.83325
X56.67157 Y20.98811
X56.54945 Y21.12049
X56.42060 Y21.21412
X56.25694 Y21.28935
X56.08123 Y21.32893
X55.90117 Y21.33111
X55.72456 Y21.29580
X55.55916 Y21.22456
X55.41219 Y21.12049
X55.29004 Y20.98811
X55.18959 Y20.81414
X55.13602 Y20.64219
X55.11935 Y20.46286
G04 P0 ( dwell for no time -- G64 should not smooth over this point )
G00 Z5.00000 ( retract )

G00 X56.64447 Y19.48207 ( rapid move to begin. )
F300.00000
G01 Z-0.05000
G04 P0 ( dwell for no time -- G64 should not smooth over this point )
F600.00000
G01 X56.64447 Y19.48207
X56.21453 Y19.30356
X55.74925 Y19.30307
X55.31897 Y19.48087
X54.98951 Y19.80975
X54.81105 Y20.23955
X54.81057 Y20.70492
X54.98837 Y21.13520
X55.31719 Y21.46461
X55.74714 Y21.64312
X56.21242 Y21.64361
X56.64269 Y21.46581
X56.97211 Y21.13698
X57.15062 Y20.70703
X57.15110 Y20.24176
X56.97330 Y19.81148
X56.64447 Y19.48207
G04 P0 ( dwell for no time -- G64 should not smooth over this point )
G00 Z5.00000 ( retract )

G00 X56.64447 Y25.83207 ( rapid move to begin. )
F300.00000
G01 Z-0.05000
G04 P0 ( dwell for no time -- G64 should not smooth over this point )
F600.00000
G01 X56.64447 Y25.83207
X56.21453 Y25.65356
X55.74925 Y25.65307
X55.31897 Y25.83087
X54.98951 Y26.15975
X54.81105 Y26.58955
X54.81057 Y27.05492
X54.98837 Y27.48520
X55.31719 Y27.81461
X55.74714 Y27.99312
X56.21242 Y27.99361
X56.64269 Y27.81581
X56.97211 Y27.48698
X57.15062 Y27.05703
X57.15110 Y26.59176
X56.97330 Y26.16148
X56.64447 Y25.83207
G04 P0 ( dwell for no time -- G64 should not smooth over this point )
G00 Z5.00000 ( retract )

G00 X55.11935 Y26.81286 ( rapid move to begin. )
F300.00000
G01 Z-0.05000
G04 P0 ( dwell for no time -- G64 should not smooth over this point )
F600.00000
G01 X55.11935 Y26.81286
X55.14036 Y26.63400
X55.19809 Y26.46338
X55.29004 Y26.30852
X55.41217 Y26.17614
X55.54102 Y26.08251
X55.70467 Y26.00728
X55.88039 Y25.96770
X56.06042 Y25.96549
X56.23706 Y26.00082
X56.40246 Y26.07207
X56.54942 Y26.17614
X56.67157 Y26.30852
X56.77203 Y26.48248
X56.82560 Y26.65444
X56.84226 Y26.83377
X56.82126 Y27.01263
X56.76352 Y27.18325
X56.67157 Y27.33811
X56.54945 Y27.47049
X56.42060 Y27.56412
X56.25694 Y27.63935
X56.08123 Y27.67893
X55.90117 Y27.68111
X55.72456 Y27.64580
X55.55916 Y27.57456
X55.41219 Y27.47049
X55.29004 Y27.33811
X55.18959 Y27.16414
X55.13602 Y26.99219
X55.11935 Y26.81286
G04 P0 ( dwell for no time -- G64 should not smooth over this point )
G00 Z5.00000 ( retract )

G00 X54.96937 Y36.13288 ( rapid move to begin. )
F300.00000
G01 Z-0.05000
G04 P0 ( dwell for no time -- G64 should not smooth over this point )
F600.00000
G01 X54.96937 Y36.13288
X54.99037 Y35.95402
X55.04811 Y35.78341
X55.14006 Y35.62854
X55.26218 Y35.49616
X55.39103 Y35.40253
X55.55468 Y35.32730
X55.73040 Y35.28772
X55.91044 Y35.28551
X56.08707 Y35.32085
X56.25247 Y35.39209
X56.39944 Y35.49616
X56.52159 Y35.62854
X56.62204 Y35.80251
X56.67561 Y35.97446
X56.69227 Y36.15379
X56.67127 Y36.33266
X56.61353 Y36.50327
X56.52159 Y36.65813
X56.39946 Y36.79052
X56.27061 Y36.88414
X56.10696 Y36.95937
X55.93124 Y36.99895
X55.75118 Y37.00113
X55.57457 Y36.96583
X55.40917 Y36.89458
X55.26220 Y36.79052
X55.14006 Y36.65813
X55.03960 Y36.48417
X54.98603 Y36.31221
X54.96937 Y36.13288
G04 P0 ( dwell for no time -- G64 should not smooth over this point )
G00 Z5.00000 ( retract )

G00 X54.66055 Y36.37492 ( rapid move to begin. )
F300.00000
G01 Z-0.05000
G04 P0 ( dwell for no time -- G64 should not smooth over this point )
F600.00000
G01 X54.66055 Y36.37492
X54.83835 Y36.80520
X55.16718 Y37.13461
X55.59715 Y37.31312
X56.06243 Y37.31360
X56.49268 Y37.13583
X56.82212 Y36.80697
X57.00061 Y36.37703
X57.00111 Y35.91173
X56.82331 Y35.48148
X56.49448 Y35.15206
X56.06451 Y34.97355
X55.59926 Y34.97307
X55.16899 Y35.15087
X54.83955 Y35.47970
X54.66104 Y35.90969
X54.66055 Y36.37492
G04 P0 ( dwell for no time -- G64 should not smooth over this point )
G00 Z5.00000 ( retract )

G00 X64.93831 Y30.28121 ( rapid move to begin. )
F300.00000
G01 Z-0.05000
G04 P0 ( dwell for no time -- G64 should not smooth over this point )
F600.00000
G01 X64.93831 Y30.28121
X64.68012 Y30.66759
X64.58941 Y31.12334
X64.68007 Y31.57905
X64.93826 Y31.96546
X65.34118 Y32.24470
X65.38791 Y32.33086
X65.39627 Y32.40716
X65.36924 Y32.50150
X65.32606 Y32.55776
X64.93828 Y32.82121
X64.68012 Y33.20757
X64.58941 Y33.66334
X64.68007 Y34.11905
X64.93826 Y34.50543
X65.32464 Y34.76362
X65.80257 Y34.85872
X66.53907 Y34.85872
X67.01697 Y34.76367
X67.40335 Y34.50548
X67.66154 Y34.11910
X67.75225 Y33.66334
X67.66159 Y33.20764
X67.40340 Y32.82123
X67.01567 Y32.55783
X66.97242 Y32.50150
X66.94537 Y32.40716
X66.95375 Y32.33086
X67.00056 Y32.24465
X67.40335 Y31.96548
X67.66154 Y31.57910
X67.75225 Y31.12334
X67.66159 Y30.66764
X67.40340 Y30.28126
X67.01702 Y30.02307
X66.53884 Y29.92792
X65.80285 Y29.92792
X65.32469 Y30.02302
X64.93831 Y30.28121
G04 P0 ( dwell for no time -- G64 should not smooth over this point )
G00 Z5.00000 ( retract )

G00 X66.53653 Y30.23645 ( rapid move to begin. )
F300.00000
G01 Z-0.05000
G04 P0 ( dwell for no time -- G64 should not smooth over this point )
F600.00000
G01 X66.53653 Y30.23645
X66.71486 Y30.25665
X66.86688 Y30.30435
X67.04138 Y30.40120
X67.17620 Y30.51966
X67.28440 Y30.66279
X67.35458 Y30.80582
X67.40155 Y30.97905
X67.41166 Y31.17836
X67.38245 Y31.35542
X67.31821 Y31.52299
X67.23396 Y31.65819
X67.11179 Y31.78966
X66.96569 Y31.89385
X66.78227 Y31.97257
X66.60661 Y32.00665
X65.81575 Y32.01072
X65.64661 Y31.99408
X65.45619 Y31.93434
X65.30028 Y31.84547
X65.16546 Y31.72700
X65.05726 Y31.58387
X64.98708 Y31.44084
X64.94011 Y31.26762
X64.92899 Y31.08852
X64.95413 Y30.91082
X65.01456 Y30.74184
X65.10770 Y30.58847
X65.24522 Y30.44382
X65.39368 Y30.34301
X65.55939 Y30.27409
X65.73506 Y30.24001
X66.53653 Y30.23645
G04 P0 ( dwell for no time -- G64 should not smooth over this point )
G00 Z5.00000 ( retract )

G00 X66.53653 Y32.77645 ( rapid move to begin. )
F300.00000
G01 Z-0.05000
G04 P0 ( dwell for no time -- G64 should not smooth over this point )
F600.00000
G01 X66.53653 Y32.77645
X66.71486 Y32.79665
X66.86688 Y32.84435
X67.04138 Y32.94120
X67.17620 Y33.05966
X67.28440 Y33.20279
X67.35458 Y33.34582
X67.40155 Y33.51905
X67.41166 Y33.71836
X67.38245 Y33.89542
X67.31821 Y34.06299
X67.23396 Y34.19819
X67.11179 Y34.32966
X66.96569 Y34.43385
X66.78227 Y34.51257
X66.60661 Y34.54665
X65.81575 Y34.55072
X65.64661 Y34.53408
X65.45619 Y34.47434
X65.30028 Y34.38547
X65.16546 Y34.26700
X65.05726 Y34.12387
X64.98708 Y33.98084
X64.94011 Y33.80762
X64.92899 Y33.62852
X64.95413 Y33.45082
X65.01456 Y33.28184
X65.10770 Y33.12847
X65.24522 Y32.98382
X65.39368 Y32.88301
X65.55939 Y32.81409
X65.73506 Y32.78001
X66.53653 Y32.77645
G04 P0 ( dwell for no time -- G64 should not smooth over this point )
G00 Z5.00000 ( retract )

G00 X66.53653 Y27.27644 ( rapid move to begin. )
F300.00000
G01 Z-0.05000
G04 P0 ( dwell for no time -- G64 should not smooth over this point )
F600.00000
G01 X66.53653 Y27.27644
X66.71486 Y27.29663
X66.86688 Y27.34433
X67.04138 Y27.44118
X67.17620 Y27.55965
X67.28440 Y27.70278
X67.35458 Y27.84580
X67.40155 Y28.01903
X67.41166 Y28.21835
X67.38245 Y28.39541
X67.31821 Y28.56297
X67.23396 Y28.69818
X67.11179 Y28.82965
X66.96569 Y28.93384
X66.78227 Y29.01255
X66.60661 Y29.04664
X65.81575 Y29.05070
X65.64661 Y29.03407
X65.45619 Y28.97433
X65.30028 Y28.88545
X65.16546 Y28.76699
X65.05726 Y28.62386
X64.98708 Y28.48083
X64.94011 Y28.30760
X64.92899 Y28.12851
X64.95413 Y27.95081
X65.01456 Y27.78182
X65.10770 Y27.62846
X65.24522 Y27.48380
X65.39368 Y27.38299
X65.55939 Y27.31408
X65.73506 Y27.27999
X66.53653 Y27.27644
G04 P0 ( dwell for no time -- G64 should not smooth over this point )
G00 Z5.00000 ( retract )

G00 X64.93831 Y27.32119 ( rapid move to begin. )
F300.00000
G01 Z-0.05000
G04 P0 ( dwell for no time -- G64 should not smooth over this point )
F600.00000
G01 X64.93831 Y27.32119
X64.68012 Y27.70758
X64.58941 Y28.16333
X64.68007 Y28.61906
X64.93826 Y29.00544
X65.32464 Y29.26363
X65.80254 Y29.35870
X66.53907 Y29.35870
X67.01697 Y29.26368
X67.40335 Y29.00549
X67.66154 Y28.61911
X67.75225 Y28.16333
X67.66159 Y27.70763
X67.40340 Y27.32122
X67.00056 Y27.04205
X66.96073 Y26.97641
X66.94537 Y26.87951
X66.96076 Y26.81022
X67.01560 Y26.72892
X67.40338 Y26.46547
X67.66154 Y26.07911
X67.75225 Y25.62333
X67.66159 Y25.16763
X67.40340 Y24.78124
X67.01702 Y24.52305
X66.53884 Y24.42790
X65.80285 Y24.42790
X65.32469 Y24.52300
X64.93831 Y24.78119
X64.68012 Y25.16758
X64.58941 Y25.62333
X64.68007 Y26.07906
X64.93823 Y26.46542
X65.32604 Y26.72886
X65.36924 Y26.78520
X65.39627 Y26.87951
X65.38093 Y26.97641
X65.32606 Y27.05774
X64.93831 Y27.32119
G04 P0 ( dwell for no time -- G64 should not smooth over this point )
G00 Z5.00000 ( retract )

G00 X66.53653 Y24.73644 ( rapid move to begin. )
F300.00000
G01 Z-0.05000
G04 P0 ( dwell for no time -- G64 should not smooth over this point )
F600.00000
G01 X66.53653 Y24.73644
X66.71486 Y24.75663
X66.86688 Y24.80433
X67.04138 Y24.90118
X67.17620 Y25.01965
X67.28440 Y25.16278
X67.35458 Y25.30580
X67.40155 Y25.47903
X67.41166 Y25.67835
X67.38245 Y25.85541
X67.31821 Y26.02297
X67.23396 Y26.15818
X67.11179 Y26.28965
X66.96569 Y26.39384
X66.78227 Y26.47255
X66.60661 Y26.50664
X65.81575 Y26.51070
X65.64661 Y26.49407
X65.45619 Y26.43433
X65.30028 Y26.34545
X65.16546 Y26.22699
X65.05726 Y26.08386
X64.98708 Y25.94083
X64.94011 Y25.76760
X64.92899 Y25.58851
X64.95413 Y25.41081
X65.01456 Y25.24182
X65.10770 Y25.08846
X65.24522 Y24.94380
X65.39368 Y24.84299
X65.55939 Y24.77408
X65.73506 Y24.73999
X66.53653 Y24.73644
G04 P0 ( dwell for no time -- G64 should not smooth over this point )
G00 Z5.00000 ( retract )

G00 X66.53653 Y21.77645 ( rapid move to begin. )
F300.00000
G01 Z-0.05000
G04 P0 ( dwell for no time -- G64 should not smooth over this point )
F600.00000
G01 X66.53653 Y21.77645
X66.71486 Y21.79664
X66.86688 Y21.84434
X67.04138 Y21.94119
X67.17620 Y22.05966
X67.28440 Y22.20279
X67.35458 Y22.34582
X67.40155 Y22.51904
X67.41166 Y22.71836
X67.38245 Y22.89542
X67.31821 Y23.06298
X67.23396 Y23.19819
X67.11179 Y23.32966
X66.96569 Y23.43385
X66.78227 Y23.51256
X66.60661 Y23.54665
X65.81575 Y23.55071
X65.64661 Y23.53408
X65.45619 Y23.47434
X65.30028 Y23.38546
X65.16546 Y23.26700
X65.05726 Y23.12387
X64.98708 Y22.98084
X64.94011 Y22.80761
X64.92899 Y22.62852
X64.95413 Y22.45082
X65.01456 Y22.28183
X65.10770 Y22.12847
X65.24522 Y21.98381
X65.39368 Y21.88300
X65.55939 Y21.81409
X65.73506 Y21.78000
X66.53653 Y21.77645
G04 P0 ( dwell for no time -- G64 should not smooth over this point )
G00 Z5.00000 ( retract )

G00 X64.93826 Y20.96545 ( rapid move to begin. )
F300.00000
G01 Z-0.05000
G04 P0 ( dwell for no time -- G64 should not smooth over this point )
F600.00000
G01 X64.93826 Y20.96545
X65.32604 Y21.22888
X65.36924 Y21.28521
X65.39627 Y21.37952
X65.38093 Y21.47642
X65.34108 Y21.54208
X64.93831 Y21.82120
X64.68012 Y22.20759
X64.58941 Y22.66334
X64.68007 Y23.11904
X64.93826 Y23.50543
X65.32464 Y23.76362
X65.80257 Y23.85872
X66.53907 Y23.85872
X67.01697 Y23.76367
X67.40335 Y23.50548
X67.66154 Y23.11909
X67.75225 Y22.66334
X67.66159 Y22.20764
X67.40340 Y21.82123
X67.00056 Y21.54206
X66.96073 Y21.47642
X66.94537 Y21.37952
X66.96076 Y21.31023
X67.01560 Y21.22893
X67.40335 Y20.96548
X67.66154 Y20.57909
X67.75225 Y20.12334
X67.66159 Y19.66764
X67.40340 Y19.28125
X67.01702 Y19.02306
X66.53884 Y18.92791
X65.80285 Y18.92791
X65.32469 Y19.02301
X64.93831 Y19.28120
X64.68012 Y19.66759
X64.58941 Y20.12332
X64.68007 Y20.57904
X64.93826 Y20.96545
G04 P0 ( dwell for no time -- G64 should not smooth over this point )
G00 Z5.00000 ( retract )

G00 X66.53653 Y19.23645 ( rapid move to begin. )
F300.00000
G01 Z-0.05000
G04 P0 ( dwell for no time -- G64 should not smooth over this point )
F600.00000
G01 X66.53653 Y19.23645
X66.71486 Y19.25664
X66.86688 Y19.30434
X67.04138 Y19.40119
X67.17620 Y19.51966
X67.28440 Y19.66279
X67.35458 Y19.80582
X67.40155 Y19.97904
X67.41166 Y20.17836
X67.38245 Y20.35542
X67.31821 Y20.52298
X67.23396 Y20.65819
X67.11179 Y20.78966
X66.96569 Y20.89385
X66.78227 Y20.97256
X66.60661 Y21.00665
X65.81575 Y21.01071
X65.64661 Y20.99408
X65.45619 Y20.93434
X65.30028 Y20.84546
X65.16546 Y20.72700
X65.05726 Y20.58387
X64.98708 Y20.44084
X64.94011 Y20.26761
X64.92899 Y20.08852
X64.95413 Y19.91082
X65.01456 Y19.74183
X65.10770 Y19.58847
X65.24522 Y19.44381
X65.39368 Y19.34300
X65.55939 Y19.27409
X65.73506 Y19.24000
X66.53653 Y19.23645
G04 P0 ( dwell for no time -- G64 should not smooth over this point )
G00 Z5.00000 ( retract )

G00 X75.97682 Y19.23592 ( rapid move to begin. )
F300.00000
G01 Z-0.05000
G04 P0 ( dwell for no time -- G64 should not smooth over this point )
F600.00000
G01 X75.97682 Y19.23592
X75.97682 Y18.95367
X75.95106 Y18.92791
X75.10677 Y18.92791
X74.95673 Y18.99004
X74.84200 Y19.10480
X74.77982 Y19.25484
X74.77982 Y19.74356
X74.80557 Y19.76932
X75.08782 Y19.76932
X75.08782 Y19.33592
X75.09772 Y19.29253
X75.14443 Y19.24582
X75.97682 Y19.23592
G04 P0 ( dwell for no time -- G64 should not smooth over this point )
G00 Z5.00000 ( retract )

G00 X77.88182 Y19.74361 ( rapid move to begin. )
F300.00000
G01 Z-0.05000
G04 P0 ( dwell for no time -- G64 should not smooth over this point )
F600.00000
G01 X77.88182 Y19.74361
X77.88182 Y19.25476
X77.81974 Y19.10483
X77.70501 Y18.99009
X77.55492 Y18.92791
X76.71062 Y18.92791
X76.68482 Y18.95372
X76.68482 Y19.23592
X77.51723 Y19.24582
X77.56394 Y19.29253
X77.57382 Y19.33592
X77.57382 Y19.76932
X77.85611 Y19.76932
X77.88182 Y19.74361
G04 P0 ( dwell for no time -- G64 should not smooth over this point )
G00 Z5.00000 ( retract )

G00 X76.69653 Y21.77645 ( rapid move to begin. )
F300.00000
G01 Z-0.05000
G04 P0 ( dwell for no time -- G64 should not smooth over this point )
F600.00000
G01 X76.69653 Y21.77645
X76.87486 Y21.79664
X77.02688 Y21.84434
X77.20138 Y21.94119
X77.33620 Y22.05966
X77.44440 Y22.20279
X77.51458 Y22.34582
X77.56155 Y22.51904
X77.57166 Y22.71836
X77.54245 Y22.89542
X77.47821 Y23.06298
X77.39396 Y23.19819
X77.27179 Y23.32966
X77.12569 Y23.43385
X76.94227 Y23.51256
X76.76661 Y23.54665
X75.97575 Y23.55071
X75.80661 Y23.53408
X75.61619 Y23.47434
X75.46028 Y23.38546
X75.32546 Y23.26700
X75.21726 Y23.12387
X75.14708 Y22.98084
X75.10011 Y22.80761
X75.08899 Y22.62852
X75.11413 Y22.45082
X75.17456 Y22.28183
X75.26770 Y22.12847
X75.40522 Y21.98381
X75.55368 Y21.88300
X75.71939 Y21.81409
X75.89506 Y21.78000
X76.69653 Y21.77645
G04 P0 ( dwell for no time -- G64 should not smooth over this point )
G00 Z5.00000 ( retract )

G00 X75.48464 Y23.76362 ( rapid move to begin. )
F300.00000
G01 Z-0.05000
G04 P0 ( dwell for no time -- G64 should not smooth over this point )
F600.00000
G01 X75.48464 Y23.76362
X75.96257 Y23.85872
X76.69907 Y23.85872
X77.17697 Y23.76367
X77.56335 Y23.50548
X77.82154 Y23.11909
X77.91225 Y22.66334
X77.82159 Y22.20764
X77.56340 Y21.82123
X77.42510 Y21.72811
X77.37308 Y21.67439
X77.33661 Y21.58587
X77.33491 Y21.51661
X77.36693 Y21.42649
X77.41634 Y21.37018
X77.47595 Y21.33510
X77.55167 Y21.32011
X77.70498 Y21.25661
X77.81969 Y21.14191
X77.88182 Y20.99197
X77.88182 Y20.50307
X77.85606 Y20.47731
X77.57382 Y20.47731
X77.57133 Y20.93299
X77.53617 Y20.98892
X77.47382 Y21.01071
X75.16557 Y21.00823
X75.12549 Y20.98892
X75.09033 Y20.93299
X75.08782 Y20.47731
X74.80562 Y20.47731
X74.77982 Y20.50312
X74.77982 Y20.99179
X74.84195 Y21.14183
X74.95670 Y21.25659
X75.10994 Y21.32009
X75.18571 Y21.33510
X75.24532 Y21.37018
X75.30504 Y21.44508
X75.32848 Y21.53784
X75.31870 Y21.61209
X75.28858 Y21.67439
X75.23656 Y21.72811
X75.09831 Y21.82118
X74.84012 Y22.20759
X74.74941 Y22.66334
X74.84007 Y23.11904
X75.09826 Y23.50543
X75.48464 Y23.76362
G04 P0 ( dwell for no time -- G64 should not smooth over this point )
G00 Z5.00000 ( retract )

G00 X75.97682 Y24.73590 ( rapid move to begin. )
F300.00000
G01 Z-0.05000
G04 P0 ( dwell for no time -- G64 should not smooth over this point )
F600.00000
G01 X75.97682 Y24.73590
X75.97682 Y24.45366
X75.95106 Y24.42790
X75.10677 Y24.42790
X74.95673 Y24.49003
X74.84200 Y24.60479
X74.77982 Y24.75485
X74.77982 Y25.24355
X74.80557 Y25.26930
X75.08782 Y25.26930
X75.08782 Y24.83590
X75.09772 Y24.79252
X75.14443 Y24.74581
X75.97682 Y24.73590
G04 P0 ( dwell for no time -- G64 should not smooth over this point )
G00 Z5.00000 ( retract )

G00 X77.55492 Y24.42790 ( rapid move to begin. )
F300.00000
G01 Z-0.05000
G04 P0 ( dwell for no time -- G64 should not smooth over this point )
F600.00000
G01 X77.55492 Y24.42790
X76.71062 Y24.42790
X76.68482 Y24.45371
X76.68482 Y24.73590
X77.51723 Y24.74581
X77.56394 Y24.79252
X77.57382 Y24.83590
X77.57382 Y25.26930
X77.85611 Y25.26930
X77.88182 Y25.24360
X77.88182 Y24.75478
X77.81972 Y24.60479
X77.70501 Y24.49008
X77.55492 Y24.42790
G04 P0 ( dwell for no time -- G64 should not smooth over this point )
G00 Z5.00000 ( retract )

G00 X78.50056 Y23.87492 ( rapid move to begin. )
F300.00000
G01 Z-0.05000
G04 P0 ( dwell for no time -- G64 should not smooth over this point )
F600.00000
G01 X78.50056 Y23.87492
X78.67836 Y24.30520
X79.00719 Y24.63461
X79.43714 Y24.81312
X79.90244 Y24.81360
X80.33269 Y24.63583
X80.66210 Y24.30697
X80.84061 Y23.87703
X80.84110 Y23.41173
X80.66332 Y22.98148
X80.33447 Y22.65206
X79.90452 Y22.47355
X79.43924 Y22.47307
X79.00897 Y22.65087
X78.67956 Y22.97970
X78.50104 Y23.40964
X78.50056 Y23.87492
G04 P0 ( dwell for no time -- G64 should not smooth over this point )
G00 Z5.00000 ( retract )

G00 X78.80938 Y23.63288 ( rapid move to begin. )
F300.00000
G01 Z-0.05000
G04 P0 ( dwell for no time -- G64 should not smooth over this point )
F600.00000
G01 X78.80938 Y23.63288
X78.83038 Y23.45402
X78.88812 Y23.28341
X78.98006 Y23.12854
X79.10219 Y22.99616
X79.23104 Y22.90253
X79.39469 Y22.82730
X79.57041 Y22.78772
X79.75045 Y22.78551
X79.92708 Y22.82085
X80.09248 Y22.89209
X80.23945 Y22.99616
X80.36159 Y23.12854
X80.46205 Y23.30251
X80.51562 Y23.47446
X80.53228 Y23.65379
X80.51128 Y23.83265
X80.45354 Y24.00327
X80.36159 Y24.15813
X80.23947 Y24.29052
X80.11062 Y24.38414
X79.94697 Y24.45937
X79.77125 Y24.49895
X79.59119 Y24.50113
X79.41458 Y24.46583
X79.24918 Y24.39458
X79.10221 Y24.29052
X78.98006 Y24.15813
X78.87961 Y23.98417
X78.82604 Y23.81221
X78.80938 Y23.63288
G04 P0 ( dwell for no time -- G64 should not smooth over this point )
G00 Z5.00000 ( retract )

G00 X76.69653 Y27.27644 ( rapid move to begin. )
F300.00000
G01 Z-0.05000
G04 P0 ( dwell for no time -- G64 should not smooth over this point )
F600.00000
G01 X76.69653 Y27.27644
X76.87486 Y27.29663
X77.02688 Y27.34433
X77.20138 Y27.44118
X77.33620 Y27.55965
X77.44440 Y27.70278
X77.51458 Y27.84580
X77.56155 Y28.01903
X77.57166 Y28.21835
X77.54245 Y28.39541
X77.47821 Y28.56297
X77.39396 Y28.69818
X77.27179 Y28.82965
X77.12569 Y28.93384
X76.94227 Y29.01255
X76.76661 Y29.04664
X75.97575 Y29.05070
X75.80661 Y29.03407
X75.61619 Y28.97433
X75.46028 Y28.88545
X75.32546 Y28.76699
X75.21726 Y28.62386
X75.14708 Y28.48083
X75.10011 Y28.30760
X75.08899 Y28.12851
X75.11413 Y27.95081
X75.17456 Y27.78182
X75.26770 Y27.62846
X75.40522 Y27.48380
X75.55368 Y27.38299
X75.71939 Y27.31408
X75.89506 Y27.27999
X76.69653 Y27.27644
G04 P0 ( dwell for no time -- G64 should not smooth over this point )
G00 Z5.00000 ( retract )

G00 X75.48464 Y29.26363 ( rapid move to begin. )
F300.00000
G01 Z-0.05000
G04 P0 ( dwell for no time -- G64 should not smooth over this point )
F600.00000
G01 X75.48464 Y29.26363
X75.96254 Y29.35870
X76.69907 Y29.35870
X77.17697 Y29.26368
X77.56335 Y29.00549
X77.82154 Y28.61911
X77.91225 Y28.16333
X77.82159 Y27.70763
X77.56340 Y27.32122
X77.42510 Y27.22810
X77.37308 Y27.17438
X77.33661 Y27.08586
X77.33491 Y27.01660
X77.36693 Y26.92648
X77.41634 Y26.87016
X77.47595 Y26.83509
X77.55167 Y26.82010
X77.70493 Y26.75663
X77.81969 Y26.64187
X77.88182 Y26.49196
X77.88182 Y26.00306
X77.85606 Y25.97730
X77.57382 Y25.97730
X77.57133 Y26.43298
X77.53617 Y26.48891
X77.47382 Y26.51070
X75.16557 Y26.50821
X75.12549 Y26.48891
X75.09033 Y26.43298
X75.08782 Y25.97730
X74.80562 Y25.97730
X74.77982 Y26.00311
X74.77982 Y26.49181
X74.84197 Y26.64189
X74.95665 Y26.75658
X75.10994 Y26.82008
X75.18571 Y26.83509
X75.24532 Y26.87016
X75.30504 Y26.94507
X75.32848 Y27.03783
X75.31870 Y27.11207
X75.28858 Y27.17438
X75.23656 Y27.22810
X75.09831 Y27.32117
X74.84012 Y27.70758
X74.74941 Y28.16333
X74.84007 Y28.61906
X75.09826 Y29.00544
X75.48464 Y29.26363
G04 P0 ( dwell for no time -- G64 should not smooth over this point )
G00 Z5.00000 ( retract )

G00 X75.97682 Y30.23592 ( rapid move to begin. )
F300.00000
G01 Z-0.05000
G04 P0 ( dwell for no time -- G64 should not smooth over this point )
F600.00000
G01 X75.97682 Y30.23592
X75.97682 Y29.95367
X75.95106 Y29.92792
X75.10677 Y29.92792
X74.95668 Y29.99007
X74.84200 Y30.10475
X74.77982 Y30.25484
X74.77982 Y30.74356
X74.80557 Y30.76932
X75.08782 Y30.76932
X75.08782 Y30.33592
X75.09772 Y30.29254
X75.14443 Y30.24582
X75.97682 Y30.23592
G04 P0 ( dwell for no time -- G64 should not smooth over this point )
G00 Z5.00000 ( retract )

G00 X77.88182 Y30.25477 ( rapid move to begin. )
F300.00000
G01 Z-0.05000
G04 P0 ( dwell for no time -- G64 should not smooth over this point )
F600.00000
G01 X77.88182 Y30.25477
X77.81974 Y30.10483
X77.70498 Y29.99010
X77.55492 Y29.92792
X76.71062 Y29.92792
X76.68482 Y29.95372
X76.68482 Y30.23592
X77.47382 Y30.23592
X77.53617 Y30.25774
X77.57382 Y30.33592
X77.57382 Y30.76932
X77.85611 Y30.76932
X77.88182 Y30.74361
X77.88182 Y30.25477
G04 P0 ( dwell for no time -- G64 should not smooth over this point )
G00 Z5.00000 ( retract )

G00 X79.00104 Y28.40966 ( rapid move to begin. )
F300.00000
G01 Z-0.05000
G04 P0 ( dwell for no time -- G64 should not smooth over this point )
F600.00000
G01 X79.00104 Y28.40966
X79.00056 Y28.87491
X79.17836 Y29.30519
X79.50719 Y29.63462
X79.93716 Y29.81311
X80.40244 Y29.81362
X80.83269 Y29.63582
X81.16210 Y29.30699
X81.34061 Y28.87702
X81.34109 Y28.41174
X81.16332 Y27.98149
X80.83447 Y27.65205
X80.40452 Y27.47357
X79.93922 Y27.47308
X79.50897 Y27.65086
X79.17955 Y27.97969
X79.00104 Y28.40966
G04 P0 ( dwell for no time -- G64 should not smooth over this point )
G00 Z5.00000 ( retract )

G00 X79.30937 Y28.63287 ( rapid move to begin. )
F300.00000
G01 Z-0.05000
G04 P0 ( dwell for no time -- G64 should not smooth over this point )
F600.00000
G01 X79.30937 Y28.63287
X79.33038 Y28.45401
X79.38811 Y28.28340
X79.48006 Y28.12853
X79.60219 Y27.99615
X79.73104 Y27.90252
X79.89469 Y27.82729
X80.07041 Y27.78771
X80.25044 Y27.78550
X80.42708 Y27.82084
X80.59248 Y27.89208
X80.73945 Y27.99615
X80.86159 Y28.12853
X80.96205 Y28.30250
X81.01562 Y28.47445
X81.03228 Y28.65378
X81.01128 Y28.83264
X80.95354 Y29.00326
X80.86159 Y29.15812
X80.73947 Y29.29051
X80.61062 Y29.38413
X80.44696 Y29.45936
X80.27125 Y29.49894
X80.09119 Y29.50112
X79.91458 Y29.46582
X79.74918 Y29.39457
X79.60221 Y29.29051
X79.48006 Y29.15812
X79.37961 Y28.98416
X79.32604 Y28.81220
X79.30937 Y28.63287
G04 P0 ( dwell for no time -- G64 should not smooth over this point )
G00 Z5.00000 ( retract )

G00 X79.17955 Y32.97970 ( rapid move to begin. )
F300.00000
G01 Z-0.05000
G04 P0 ( dwell for no time -- G64 should not smooth over this point )
F600.00000
G01 X79.17955 Y32.97970
X79.00104 Y33.40965
X79.00056 Y33.87493
X79.17836 Y34.30520
X79.50719 Y34.63461
X79.93716 Y34.81313
X80.40241 Y34.81361
X80.83269 Y34.63581
X81.16210 Y34.30698
X81.34061 Y33.87703
X81.34109 Y33.41173
X81.16332 Y32.98148
X80.83447 Y32.65207
X80.40452 Y32.47356
X79.93922 Y32.47307
X79.50897 Y32.65085
X79.17955 Y32.97970
G04 P0 ( dwell for no time -- G64 should not smooth over this point )
G00 Z5.00000 ( retract )

G00 X79.30937 Y33.63286 ( rapid move to begin. )
F300.00000
G01 Z-0.05000
G04 P0 ( dwell for no time -- G64 should not smooth over this point )
F600.00000
G01 X79.30937 Y33.63286
X79.33038 Y33.45400
X79.38811 Y33.28339
X79.48006 Y33.12852
X79.60219 Y32.99614
X79.73104 Y32.90251
X79.89469 Y32.82728
X80.07041 Y32.78770
X80.25044 Y32.78549
X80.42708 Y32.82083
X80.59248 Y32.89207
X80.73945 Y32.99614
X80.86159 Y33.12852
X80.96205 Y33.30249
X81.01562 Y33.47444
X81.03228 Y33.65377
X81.01128 Y33.83263
X80.95354 Y34.00325
X80.86159 Y34.15811
X80.73947 Y34.29050
X80.61062 Y34.38412
X80.44696 Y34.45935
X80.27125 Y34.49893
X80.09119 Y34.50111
X79.91458 Y34.46581
X79.74918 Y34.39456
X79.60221 Y34.29050
X79.48006 Y34.15811
X79.37961 Y33.98415
X79.32604 Y33.81219
X79.30937 Y33.63286
G04 P0 ( dwell for no time -- G64 should not smooth over this point )
G00 Z5.00000 ( retract )

G00 X76.69653 Y32.77645 ( rapid move to begin. )
F300.00000
G01 Z-0.05000
G04 P0 ( dwell for no time -- G64 should not smooth over this point )
F600.00000
G01 X76.69653 Y32.77645
X76.87486 Y32.79665
X77.02688 Y32.84435
X77.20138 Y32.94120
X77.33620 Y33.05966
X77.44440 Y33.20279
X77.51458 Y33.34582
X77.56155 Y33.51905
X77.57166 Y33.71836
X77.54245 Y33.89542
X77.47821 Y34.06299
X77.39396 Y34.19819
X77.27179 Y34.32966
X77.12569 Y34.43385
X76.94227 Y34.51257
X76.76661 Y34.54665
X75.97575 Y34.55072
X75.80661 Y34.53408
X75.61619 Y34.47434
X75.46028 Y34.38547
X75.32546 Y34.26700
X75.21726 Y34.12387
X75.14708 Y33.98084
X75.10011 Y33.80762
X75.08899 Y33.62852
X75.11413 Y33.45082
X75.17456 Y33.28184
X75.26770 Y33.12847
X75.40522 Y32.98382
X75.55368 Y32.88301
X75.71939 Y32.81409
X75.89506 Y32.78001
X76.69653 Y32.77645
G04 P0 ( dwell for no time -- G64 should not smooth over this point )
G00 Z5.00000 ( retract )

G00 X75.48464 Y34.76362 ( rapid move to begin. )
F300.00000
G01 Z-0.05000
G04 P0 ( dwell for no time -- G64 should not smooth over this point )
F600.00000
G01 X75.48464 Y34.76362
X75.96257 Y34.85872
X76.69907 Y34.85872
X77.17697 Y34.76367
X77.56335 Y34.50548
X77.82154 Y34.11910
X77.91225 Y33.66334
X77.82159 Y33.20764
X77.56340 Y32.82123
X77.42510 Y32.72812
X77.37308 Y32.67439
X77.33661 Y32.58588
X77.33491 Y32.51661
X77.36693 Y32.42649
X77.41634 Y32.37018
X77.47595 Y32.33510
X77.55167 Y32.32012
X77.70498 Y32.25662
X77.81969 Y32.14191
X77.88182 Y31.99197
X77.88182 Y31.50307
X77.85606 Y31.47732
X77.57382 Y31.47732
X77.57133 Y31.93299
X77.53617 Y31.98893
X77.47382 Y32.01072
X75.16557 Y32.00823
X75.12549 Y31.98893
X75.09033 Y31.93299
X75.08782 Y31.47732
X74.80562 Y31.47732
X74.77982 Y31.50312
X74.77982 Y31.99180
X74.84195 Y32.14183
X74.95670 Y32.25659
X75.10994 Y32.32009
X75.18571 Y32.33510
X75.24532 Y32.37018
X75.30504 Y32.44508
X75.32848 Y32.53784
X75.31870 Y32.61209
X75.28858 Y32.67439
X75.23656 Y32.72812
X75.09831 Y32.82118
X74.84012 Y33.20759
X74.74941 Y33.66334
X74.84007 Y34.11905
X75.09826 Y34.50543
X75.48464 Y34.76362
G04 P0 ( dwell for no time -- G64 should not smooth over this point )
G00 Z5.00000 ( retract )

G00 X89.33950 Y32.97973 ( rapid move to begin. )
F300.00000
G01 Z-0.05000
G04 P0 ( dwell for no time -- G64 should not smooth over this point )
F600.00000
G01 X89.33950 Y32.97973
X89.16104 Y33.40955
X89.16056 Y33.87493
X89.33836 Y34.30520
X89.66719 Y34.63461
X90.09716 Y34.81313
X90.56241 Y34.81361
X90.99269 Y34.63581
X91.32210 Y34.30698
X91.50061 Y33.87703
X91.50109 Y33.41173
X91.32332 Y32.98148
X90.99447 Y32.65207
X90.56452 Y32.47356
X90.09922 Y32.47307
X89.66897 Y32.65085
X89.33950 Y32.97973
G04 P0 ( dwell for no time -- G64 should not smooth over this point )
G00 Z5.00000 ( retract )

G00 X89.46937 Y33.63286 ( rapid move to begin. )
F300.00000
G01 Z-0.05000
G04 P0 ( dwell for no time -- G64 should not smooth over this point )
F600.00000
G01 X89.46937 Y33.63286
X89.49038 Y33.45400
X89.54811 Y33.28339
X89.64006 Y33.12852
X89.76219 Y32.99614
X89.89104 Y32.90251
X90.05469 Y32.82728
X90.23041 Y32.78770
X90.41044 Y32.78549
X90.58708 Y32.82083
X90.75248 Y32.89207
X90.89945 Y32.99614
X91.02159 Y33.12852
X91.12205 Y33.30249
X91.17562 Y33.47444
X91.19228 Y33.65377
X91.17128 Y33.83263
X91.11354 Y34.00325
X91.02159 Y34.15811
X90.89947 Y34.29050
X90.77062 Y34.38412
X90.60696 Y34.45935
X90.43125 Y34.49893
X90.25119 Y34.50111
X90.07458 Y34.46581
X89.90918 Y34.39456
X89.76221 Y34.29050
X89.64006 Y34.15811
X89.53961 Y33.98415
X89.48604 Y33.81219
X89.46937 Y33.63286
G04 P0 ( dwell for no time -- G64 should not smooth over this point )
G00 Z5.00000 ( retract )

G00 X93.85435 Y33.67787 ( rapid move to begin. )
F300.00000
G01 Z-0.05000
G04 P0 ( dwell for no time -- G64 should not smooth over this point )
F600.00000
G01 X93.85435 Y33.67787
X93.87536 Y33.49901
X93.93309 Y33.32839
X94.02504 Y33.17353
X94.14717 Y33.04115
X94.27602 Y32.94752
X94.43967 Y32.87229
X94.61539 Y32.83271
X94.79542 Y32.83050
X94.97206 Y32.86583
X95.13746 Y32.93708
X95.28442 Y33.04115
X95.40657 Y33.17353
X95.50703 Y33.34749
X95.56060 Y33.51945
X95.57726 Y33.69878
X95.55626 Y33.87764
X95.49852 Y34.04826
X95.40657 Y34.20312
X95.28445 Y34.33550
X95.15560 Y34.42913
X94.99194 Y34.50436
X94.81623 Y34.54394
X94.63617 Y34.54612
X94.45956 Y34.51081
X94.29416 Y34.43957
X94.14719 Y34.33550
X94.02504 Y34.20312
X93.92459 Y34.02915
X93.87102 Y33.85720
X93.85435 Y33.67787
G04 P0 ( dwell for no time -- G64 should not smooth over this point )
G00 Z5.00000 ( retract )

G00 X94.48422 Y32.51808 ( rapid move to begin. )
F300.00000
G01 Z-0.05000
G04 P0 ( dwell for no time -- G64 should not smooth over this point )
F600.00000
G01 X94.48422 Y32.51808
X94.05397 Y32.69586
X93.72456 Y33.02469
X93.54605 Y33.45466
X93.54557 Y33.91991
X93.72337 Y34.35019
X94.05219 Y34.67962
X94.48214 Y34.85813
X94.94742 Y34.85862
X95.37769 Y34.68082
X95.70711 Y34.35199
X95.88562 Y33.92202
X95.88610 Y33.45677
X95.70830 Y33.02649
X95.37947 Y32.69708
X94.94953 Y32.51857
X94.48422 Y32.51808
G04 P0 ( dwell for no time -- G64 should not smooth over this point )
G00 Z5.00000 ( retract )

G00 X93.85435 Y28.67788 ( rapid move to begin. )
F300.00000
G01 Z-0.05000
G04 P0 ( dwell for no time -- G64 should not smooth over this point )
F600.00000
G01 X93.85435 Y28.67788
X93.87536 Y28.49902
X93.93309 Y28.32840
X94.02504 Y28.17354
X94.14717 Y28.04116
X94.27602 Y27.94753
X94.43967 Y27.87230
X94.61539 Y27.83272
X94.79542 Y27.83051
X94.97206 Y27.86584
X95.13746 Y27.93709
X95.28442 Y28.04116
X95.40657 Y28.17354
X95.50703 Y28.34750
X95.56060 Y28.51946
X95.57726 Y28.69879
X95.55626 Y28.87765
X95.49852 Y29.04827
X95.40657 Y29.20313
X95.28445 Y29.33551
X95.15560 Y29.42914
X94.99194 Y29.50437
X94.81623 Y29.54395
X94.63617 Y29.54613
X94.45956 Y29.51082
X94.29416 Y29.43958
X94.14719 Y29.33551
X94.02504 Y29.20313
X93.92459 Y29.02916
X93.87102 Y28.85721
X93.85435 Y28.67788
G04 P0 ( dwell for no time -- G64 should not smooth over this point )
G00 Z5.00000 ( retract )

G00 X94.48425 Y27.51807 ( rapid move to begin. )
F300.00000
G01 Z-0.05000
G04 P0 ( dwell for no time -- G64 should not smooth over this point )
F600.00000
G01 X94.48425 Y27.51807
X94.05397 Y27.69587
X93.72456 Y28.02470
X93.54605 Y28.45467
X93.54557 Y28.91992
X93.72337 Y29.35020
X94.05219 Y29.67961
X94.48214 Y29.85812
X94.94744 Y29.85860
X95.37769 Y29.68083
X95.70711 Y29.35197
X95.88562 Y28.92203
X95.88610 Y28.45675
X95.70830 Y28.02647
X95.37947 Y27.69706
X94.94953 Y27.51855
X94.48425 Y27.51807
G04 P0 ( dwell for no time -- G64 should not smooth over this point )
G00 Z5.00000 ( retract )

G00 X91.32210 Y29.30699 ( rapid move to begin. )
F300.00000
G01 Z-0.05000
G04 P0 ( dwell for no time -- G64 should not smooth over this point )
F600.00000
G01 X91.32210 Y29.30699
X91.50061 Y28.87702
X91.50109 Y28.41174
X91.32332 Y27.98149
X90.99447 Y27.65205
X90.56452 Y27.47357
X90.09922 Y27.47308
X89.66897 Y27.65086
X89.33955 Y27.97969
X89.16104 Y28.40963
X89.16056 Y28.87491
X89.33836 Y29.30519
X89.66719 Y29.63462
X90.09716 Y29.81311
X90.56244 Y29.81362
X90.99269 Y29.63582
X91.32210 Y29.30699
G04 P0 ( dwell for no time -- G64 should not smooth over this point )
G00 Z5.00000 ( retract )

G00 X89.46937 Y28.63287 ( rapid move to begin. )
F300.00000
G01 Z-0.05000
G04 P0 ( dwell for no time -- G64 should not smooth over this point )
F600.00000
G01 X89.46937 Y28.63287
X89.49038 Y28.45401
X89.54811 Y28.28340
X89.64006 Y28.12853
X89.76219 Y27.99615
X89.89104 Y27.90252
X90.05469 Y27.82729
X90.23041 Y27.78771
X90.41044 Y27.78550
X90.58708 Y27.82084
X90.75248 Y27.89208
X90.89945 Y27.99615
X91.02159 Y28.12853
X91.12205 Y28.30250
X91.17562 Y28.47445
X91.19228 Y28.65378
X91.17128 Y28.83264
X91.11354 Y29.00326
X91.02159 Y29.15812
X90.89947 Y29.29051
X90.77062 Y29.38413
X90.60696 Y29.45936
X90.43125 Y29.49894
X90.25119 Y29.50112
X90.07458 Y29.46582
X89.90918 Y29.39457
X89.76221 Y29.29051
X89.64006 Y29.15812
X89.53961 Y28.98416
X89.48604 Y28.81220
X89.46937 Y28.63287
G04 P0 ( dwell for no time -- G64 should not smooth over this point )
G00 Z5.00000 ( retract )

G00 X88.66056 Y23.87492 ( rapid move to begin. )
F300.00000
G01 Z-0.05000
G04 P0 ( dwell for no time -- G64 should not smooth over this point )
F600.00000
G01 X88.66056 Y23.87492
X88.83836 Y24.30520
X89.16719 Y24.63461
X89.59714 Y24.81312
X90.06244 Y24.81360
X90.49269 Y24.63583
X90.82210 Y24.30697
X91.00061 Y23.87703
X91.00110 Y23.41173
X90.82332 Y22.98148
X90.49447 Y22.65206
X90.06452 Y22.47355
X89.59924 Y22.47307
X89.16897 Y22.65087
X88.83951 Y22.97975
X88.66104 Y23.40954
X88.66056 Y23.87492
G04 P0 ( dwell for no time -- G64 should not smooth over this point )
G00 Z5.00000 ( retract )

G00 X88.96938 Y23.63288 ( rapid move to begin. )
F300.00000
G01 Z-0.05000
G04 P0 ( dwell for no time -- G64 should not smooth over this point )
F600.00000
G01 X88.96938 Y23.63288
X88.99038 Y23.45402
X89.04812 Y23.28341
X89.14006 Y23.12854
X89.26219 Y22.99616
X89.39104 Y22.90253
X89.55469 Y22.82730
X89.73041 Y22.78772
X89.91045 Y22.78551
X90.08708 Y22.82085
X90.25248 Y22.89209
X90.39945 Y22.99616
X90.52159 Y23.12854
X90.62205 Y23.30251
X90.67562 Y23.47446
X90.69228 Y23.65379
X90.67128 Y23.83265
X90.61354 Y24.00327
X90.52159 Y24.15813
X90.39947 Y24.29052
X90.27062 Y24.38414
X90.10697 Y24.45937
X89.93125 Y24.49895
X89.75119 Y24.50113
X89.57458 Y24.46583
X89.40918 Y24.39458
X89.26221 Y24.29052
X89.14006 Y24.15813
X89.03961 Y23.98417
X88.98604 Y23.81221
X88.96938 Y23.63288
G04 P0 ( dwell for no time -- G64 should not smooth over this point )
G00 Z5.00000 ( retract )

G00 X93.54557 Y23.91993 ( rapid move to begin. )
F300.00000
G01 Z-0.05000
G04 P0 ( dwell for no time -- G64 should not smooth over this point )
F600.00000
G01 X93.54557 Y23.91993
X93.72337 Y24.35021
X94.05219 Y24.67962
X94.48214 Y24.85813
X94.94742 Y24.85861
X95.37769 Y24.68081
X95.70711 Y24.35198
X95.88562 Y23.92201
X95.88610 Y23.45676
X95.70830 Y23.02648
X95.37947 Y22.69707
X94.94953 Y22.51856
X94.48422 Y22.51808
X94.05397 Y22.69585
X93.72456 Y23.02471
X93.54605 Y23.45465
X93.54557 Y23.91993
G04 P0 ( dwell for no time -- G64 should not smooth over this point )
G00 Z5.00000 ( retract )

G00 X93.85435 Y23.67787 ( rapid move to begin. )
F300.00000
G01 Z-0.05000
G04 P0 ( dwell for no time -- G64 should not smooth over this point )
F600.00000
G01 X93.85435 Y23.67787
X93.87536 Y23.49900
X93.93309 Y23.32839
X94.02504 Y23.17352
X94.14717 Y23.04114
X94.27602 Y22.94752
X94.43967 Y22.87228
X94.61539 Y22.83271
X94.79542 Y22.83050
X94.97206 Y22.86583
X95.13746 Y22.93708
X95.28442 Y23.04114
X95.40657 Y23.17352
X95.50703 Y23.34749
X95.56060 Y23.51945
X95.57726 Y23.69877
X95.55626 Y23.87764
X95.49852 Y24.04825
X95.40657 Y24.20311
X95.28445 Y24.33550
X95.15560 Y24.42912
X94.99194 Y24.50436
X94.81623 Y24.54393
X94.63617 Y24.54612
X94.45956 Y24.51081
X94.29416 Y24.43956
X94.14719 Y24.33550
X94.02504 Y24.20311
X93.92459 Y24.02915
X93.87102 Y23.85719
X93.85435 Y23.67787
G04 P0 ( dwell for no time -- G64 should not smooth over this point )
G00 Z5.00000 ( retract )

G00 X94.33609 Y19.85832 ( rapid move to begin. )
F300.00000
G01 Z-0.05000
G04 P0 ( dwell for no time -- G64 should not smooth over this point )
F600.00000
G01 X94.33609 Y19.85832
X94.36180 Y19.83261
X94.36180 Y19.55032
X93.95380 Y19.55032
X93.89146 Y19.52852
X93.85380 Y19.45032
X93.85380 Y19.04232
X93.57160 Y19.04232
X93.54579 Y19.06812
X93.54579 Y19.53139
X93.60795 Y19.68148
X93.72266 Y19.79619
X93.87262 Y19.85832
X94.33609 Y19.85832
G04 P0 ( dwell for no time -- G64 should not smooth over this point )
G00 Z5.00000 ( retract )

G00 X95.06979 Y19.55032 ( rapid move to begin. )
F300.00000
G01 Z-0.05000
G04 P0 ( dwell for no time -- G64 should not smooth over this point )
F600.00000
G01 X95.06979 Y19.55032
X95.06979 Y19.83256
X95.09555 Y19.85832
X95.55900 Y19.85832
X95.70894 Y19.79624
X95.82367 Y19.68148
X95.88580 Y19.53157
X95.88580 Y19.06807
X95.86004 Y19.04232
X95.57779 Y19.04232
X95.57531 Y19.47259
X95.52120 Y19.54044
X95.06979 Y19.55032
G04 P0 ( dwell for no time -- G64 should not smooth over this point )
G00 Z5.00000 ( retract )

G00 X95.88580 Y17.84516 ( rapid move to begin. )
F300.00000
G01 Z-0.05000
G04 P0 ( dwell for no time -- G64 should not smooth over this point )
F600.00000
G01 X95.88580 Y17.84516
X95.82372 Y17.69525
X95.70896 Y17.58050
X95.55892 Y17.51832
X95.09560 Y17.51832
X95.06979 Y17.54412
X95.06979 Y17.82632
X95.47780 Y17.82632
X95.55600 Y17.86399
X95.57779 Y17.92632
X95.57779 Y18.33432
X95.86009 Y18.33432
X95.88580 Y18.30861
X95.88580 Y17.84516
G04 P0 ( dwell for no time -- G64 should not smooth over this point )
G00 Z5.00000 ( retract )

G00 X93.54579 Y17.84527 ( rapid move to begin. )
F300.00000
G01 Z-0.05000
G04 P0 ( dwell for no time -- G64 should not smooth over this point )
F600.00000
G01 X93.54579 Y17.84527
X93.54579 Y18.30856
X93.57155 Y18.33432
X93.85380 Y18.33432
X93.85380 Y17.92632
X93.87561 Y17.86399
X93.95380 Y17.82632
X94.36180 Y17.82632
X94.36180 Y17.54407
X94.33604 Y17.51832
X93.87277 Y17.51832
X93.72273 Y17.58044
X93.60800 Y17.69520
X93.54579 Y17.84527
G04 P0 ( dwell for no time -- G64 should not smooth over this point )
G00 Z5.00000 ( retract )

G00 X93.98135 Y14.79488 ( rapid move to begin. )
F300.00000
G01 Z-0.05000
G04 P0 ( dwell for no time -- G64 should not smooth over this point )
F600.00000
G01 X93.98135 Y14.79488
X94.00236 Y14.61601
X94.06009 Y14.44540
X94.15204 Y14.29054
X94.27417 Y14.15815
X94.40302 Y14.06453
X94.56667 Y13.98929
X94.74239 Y13.94972
X94.92242 Y13.94751
X95.09906 Y13.98284
X95.26446 Y14.05409
X95.41142 Y14.15815
X95.53357 Y14.29054
X95.63403 Y14.46450
X95.68760 Y14.63646
X95.70426 Y14.81578
X95.68326 Y14.99465
X95.62552 Y15.16526
X95.53357 Y15.32012
X95.41145 Y15.45251
X95.28260 Y15.54613
X95.11894 Y15.62137
X94.94323 Y15.66094
X94.76317 Y15.66313
X94.58656 Y15.62782
X94.42116 Y15.55657
X94.27419 Y15.45251
X94.15204 Y15.32012
X94.05159 Y15.14616
X93.99802 Y14.97420
X93.98135 Y14.79488
G04 P0 ( dwell for no time -- G64 should not smooth over this point )
G00 Z5.00000 ( retract )

G00 X94.61125 Y13.63506 ( rapid move to begin. )
F300.00000
G01 Z-0.05000
G04 P0 ( dwell for no time -- G64 should not smooth over this point )
F600.00000
G01 X94.61125 Y13.63506
X94.18097 Y13.81286
X93.85156 Y14.14169
X93.67305 Y14.57166
X93.67257 Y15.03691
X93.85037 Y15.46719
X94.17919 Y15.79660
X94.60914 Y15.97511
X95.07444 Y15.97560
X95.50469 Y15.79782
X95.83411 Y15.46899
X96.01262 Y15.03902
X96.01310 Y14.57377
X95.83530 Y14.14349
X95.50647 Y13.81406
X95.07653 Y13.63555
X94.61125 Y13.63506
G04 P0 ( dwell for no time -- G64 should not smooth over this point )
G00 Z5.00000 ( retract )

G00 X93.98135 Y9.79486 ( rapid move to begin. )
F300.00000
G01 Z-0.05000
G04 P0 ( dwell for no time -- G64 should not smooth over this point )
F600.00000
G01 X93.98135 Y9.79486
X94.00236 Y9.61600
X94.06009 Y9.44538
X94.15204 Y9.29052
X94.27417 Y9.15814
X94.40302 Y9.06451
X94.56667 Y8.98928
X94.74239 Y8.94970
X94.92242 Y8.94749
X95.09906 Y8.98282
X95.26446 Y9.05407
X95.41142 Y9.15814
X95.53357 Y9.29052
X95.63403 Y9.46448
X95.68760 Y9.63644
X95.70426 Y9.81577
X95.68326 Y9.99463
X95.62552 Y10.16525
X95.53357 Y10.32011
X95.41145 Y10.45249
X95.28260 Y10.54612
X95.11894 Y10.62135
X94.94323 Y10.66093
X94.76317 Y10.66311
X94.58656 Y10.62780
X94.42116 Y10.55656
X94.27419 Y10.45249
X94.15204 Y10.32011
X94.05159 Y10.14614
X93.99802 Y9.97419
X93.98135 Y9.79486
G04 P0 ( dwell for no time -- G64 should not smooth over this point )
G00 Z5.00000 ( retract )

G00 X94.61125 Y8.63507 ( rapid move to begin. )
F300.00000
G01 Z-0.05000
G04 P0 ( dwell for no time -- G64 should not smooth over this point )
F600.00000
G01 X94.61125 Y8.63507
X94.18097 Y8.81287
X93.85156 Y9.14170
X93.67305 Y9.57165
X93.67257 Y10.03692
X93.85037 Y10.46720
X94.17919 Y10.79661
X94.60914 Y10.97512
X95.07442 Y10.97561
X95.50469 Y10.79781
X95.83411 Y10.46898
X96.01262 Y10.03903
X96.01310 Y9.57376
X95.83530 Y9.14348
X95.50647 Y8.81407
X95.07653 Y8.63556
X94.61125 Y8.63507
G04 P0 ( dwell for no time -- G64 should not smooth over this point )
G00 Z5.00000 ( retract )

G00 X95.58376 Y5.98776 ( rapid move to begin. )
F300.00000
G01 Z-0.05000
G04 P0 ( dwell for no time -- G64 should not smooth over this point )
F600.00000
G01 X95.58376 Y5.98776
X95.75460 Y5.95565
X95.89476 Y5.86546
X95.98788 Y5.72916
X96.02524 Y5.54473
X96.02524 Y4.06439
X95.99311 Y3.89355
X95.90297 Y3.75345
X95.76659 Y3.66028
X95.58199 Y3.62287
X94.10221 Y3.62287
X93.93104 Y3.65507
X93.79088 Y3.74524
X93.69779 Y3.88151
X93.66037 Y4.06617
X93.66037 Y5.54603
X93.69256 Y5.71715
X93.78273 Y5.85728
X93.91902 Y5.95039
X94.10343 Y5.98776
X95.58376 Y5.98776
G04 P0 ( dwell for no time -- G64 should not smooth over this point )
G00 Z5.00000 ( retract )

G00 X95.70479 Y4.04331 ( rapid move to begin. )
F300.00000
G01 Z-0.05000
G04 P0 ( dwell for no time -- G64 should not smooth over this point )
F600.00000
G01 X95.70479 Y4.04331
X95.70479 Y5.56731
X95.66715 Y5.64552
X95.60480 Y5.66731
X94.08080 Y5.66731
X94.00261 Y5.62967
X93.98080 Y5.56731
X93.98080 Y4.04331
X94.01846 Y3.96513
X94.08080 Y3.94331
X95.60480 Y3.94331
X95.66715 Y3.96513
X95.70479 Y4.04331
G04 P0 ( dwell for no time -- G64 should not smooth over this point )
G00 Z5.00000 ( retract )

G00 X100.53019 Y48.29748 ( rapid move to begin. )
F300.00000
G01 Z-0.05000
G04 P0 ( dwell for no time -- G64 should not smooth over this point )
F600.00000
G01 X100.53019 Y48.29748
X100.50293 Y48.39458
X100.45371 Y48.45633
X100.39196 Y48.49512
X100.30380 Y48.51330
X0.22780 Y48.51330
X0.13968 Y48.49512
X0.04382 Y48.41866
X0.00963 Y48.34762
X0.00080 Y48.28630
X0.00080 Y0.28030
X0.02444 Y0.18101
X0.11068 Y0.08762
X0.22780 Y0.05330
X100.30380 Y0.05330
X100.39196 Y0.07154
X100.48782 Y0.14799
X100.52201 Y0.21904
X100.53079 Y0.28030
X100.53019 Y48.29748

G04 P0 ( dwell for no time -- G64 should not smooth over this point )
G00 Z10.000 ( retract )

M5 ( Spindle off. )
M9 ( Coolant off. )
M2 ( Program end. )

