( pcb2gcode 1.3.2 )
( Software-independent Gcode )

( This file uses only one drill bit. Forced by 'onedrill' option )

G94       (Millimeters per minute feed rate.)
G21       (Units == Millimeters.)
G91.1     (Incremental arc distance mode.)
G90       (Absolute coordinates.)
S10000     (RPM spindle speed.)

G00 Z10.00000 (Retract)
T1
M5      (Spindle stop.)
(MSG, Change tool bit to drill size 0.81300 mm)
M6      (Tool change.)
M0      (Temporary machine stop.)
M3      (Spindle on clockwise.)
G0 Z5.00000

F1000.00000
G0 X5.68880 Y4.80530
G1 Z-1.60000
G1 Z5.00000
G0 X5.68880 Y9.80530
G1 Z-1.60000
G1 Z5.00000
G0 X5.68880 Y14.80530
G1 Z-1.60000
G1 Z5.00000
G0 X5.81580 Y18.68830
G1 Z-1.60000
G1 Z5.00000
G0 X5.81580 Y23.68830
G1 Z-1.60000
G1 Z5.00000
G0 X5.81580 Y28.68830
G1 Z-1.60000
G1 Z5.00000
G0 X10.20080 Y28.64330
G1 Z-1.60000
G1 Z5.00000
G0 X10.70080 Y23.64330
G1 Z-1.60000
G1 Z5.00000
G0 X10.20080 Y33.64330
G1 Z-1.60000
G1 Z5.00000
G0 X5.81580 Y33.68830
G1 Z-1.60000
G1 Z5.00000
G0 X20.36080 Y33.64330
G1 Z-1.60000
G1 Z5.00000
G0 X24.20080 Y33.66330
G1 Z-1.60000
G1 Z5.00000
G0 X24.20080 Y31.12330
G1 Z-1.60000
G1 Z5.00000
G0 X24.20080 Y28.16330
G1 Z-1.60000
G1 Z5.00000
G0 X24.20080 Y25.62330
G1 Z-1.60000
G1 Z5.00000
G0 X24.20080 Y22.66330
G1 Z-1.60000
G1 Z5.00000
G0 X24.20080 Y20.12330
G1 Z-1.60000
G1 Z5.00000
G0 X20.86080 Y23.64330
G1 Z-1.60000
G1 Z5.00000
G0 X20.36080 Y28.64330
G1 Z-1.60000
G1 Z5.00000
G0 X34.36080 Y28.16330
G1 Z-1.60000
G1 Z5.00000
G0 X34.36080 Y25.62330
G1 Z-1.60000
G1 Z5.00000
G0 X34.36080 Y22.66330
G1 Z-1.60000
G1 Z5.00000
G0 X34.36080 Y20.12330
G1 Z-1.60000
G1 Z5.00000
G0 X44.55080 Y20.47330
G1 Z-1.60000
G1 Z5.00000
G0 X44.55080 Y26.82330
G1 Z-1.60000
G1 Z5.00000
G0 X44.70080 Y36.14330
G1 Z-1.60000
G1 Z5.00000
G0 X54.86080 Y36.14330
G1 Z-1.60000
G1 Z5.00000
G0 X58.78080 Y37.14330
G1 Z-1.60000
G1 Z5.00000
G0 X58.78080 Y32.14330
G1 Z-1.60000
G1 Z5.00000
G0 X58.78080 Y28.64330
G1 Z-1.60000
G1 Z5.00000
G0 X54.71080 Y26.82330
G1 Z-1.60000
G1 Z5.00000
G0 X58.78080 Y23.64330
G1 Z-1.60000
G1 Z5.00000
G0 X58.78080 Y18.64330
G1 Z-1.60000
G1 Z5.00000
G0 X58.78080 Y15.14330
G1 Z-1.60000
G1 Z5.00000
G0 X58.78080 Y10.14330
G1 Z-1.60000
G1 Z5.00000
G0 X58.78080 Y5.14330
G1 Z-1.60000
G1 Z5.00000
G0 X54.71080 Y20.47330
G1 Z-1.60000
G1 Z5.00000
G0 X72.78080 Y19.65030
G1 Z-1.60000
G1 Z5.00000
G0 X72.78080 Y27.14330
G1 Z-1.60000
G1 Z5.00000
G0 X84.78080 Y34.65030
G1 Z-1.60000
G1 Z5.00000
G0 X84.78080 Y42.14330
G1 Z-1.60000
G1 Z5.00000
G0 X98.52580 Y38.21330
G1 Z-1.60000
G1 Z5.00000
G0 X98.52580 Y33.21330
G1 Z-1.60000
G1 Z5.00000
G0 X98.52580 Y24.87830
G1 Z-1.60000
G1 Z5.00000
G0 X98.52580 Y19.87830
G1 Z-1.60000
G1 Z5.00000
G0 X98.52580 Y11.54330
G1 Z-1.60000
G1 Z5.00000
G0 X98.52580 Y6.54330
G1 Z-1.60000
G1 Z5.00000
G0 X86.28080 Y6.15030
G1 Z-1.60000
G1 Z5.00000
G0 X86.28080 Y13.64330
G1 Z-1.60000
G1 Z5.00000
G0 X58.78080 Y42.14330
G1 Z-1.60000
G1 Z5.00000
G0 X34.36080 Y33.66330
G1 Z-1.60000
G1 Z5.00000
G0 X34.36080 Y31.12330
G1 Z-1.60000
G1 Z5.00000

G00 Z10.000 ( All done -- retract )

M5      (Spindle off.)
M9      (Coolant off.)
M2      (Program end.)

