( pcb2gcode 1.3.2 )
( Software-independent Gcode )

G94 ( Millimeters per minute feed rate. )
G21 ( Units == Millimeters. )

G90 ( Absolute coordinates. )
S10000 ( RPM spindle speed. )
G64 P0.01000 ( set maximum deviation from commanded toolpath )
F600.00000 ( Feedrate. )

F600.00000 ( Feedrate. )
M3 ( Spindle on clockwise. )
G04 P0 ( dwell for no time -- G64 should not smooth over this point )
G00 Z5.00000 ( retract )

G00 X0.00140 Y48.29748 ( rapid move to begin. )
F300.00000
G01 Z-0.05000
G04 P0 ( dwell for no time -- G64 should not smooth over this point )
F600.00000
G01 X0.00140 Y48.29748
X0.02866 Y48.39458
X0.07788 Y48.45633
X0.13963 Y48.49512
X0.22780 Y48.51330
X100.30380 Y48.51330
X100.39191 Y48.49512
X100.48777 Y48.41866
X100.52196 Y48.34762
X100.53079 Y48.28630
X100.53079 Y0.28030
X100.51365 Y0.19567
X100.43763 Y0.09846
X100.37819 Y0.06659
X100.30380 Y0.05330
X0.22780 Y0.05330
X0.13963 Y0.07154
X0.04377 Y0.14799
X0.00958 Y0.21904
X0.00080 Y0.28030
X0.00140 Y48.29748
G04 P0 ( dwell for no time -- G64 should not smooth over this point )
G00 Z5.00000 ( retract )

G00 X5.63634 Y38.42330 ( rapid move to begin. )
F300.00000
G01 Z-0.05000
G04 P0 ( dwell for no time -- G64 should not smooth over this point )
F600.00000
G01 X5.63634 Y38.42330
X3.74079 Y36.52775
X3.74079 Y8.30891
X6.38239 Y5.66731
X6.47305 Y5.66482
X6.52898 Y5.62967
X6.54828 Y5.58959
X6.55079 Y5.48009
X6.61656 Y5.39540
X6.71145 Y5.20912
X6.77632 Y4.96703
X6.78618 Y4.73737
X6.74805 Y4.51070
X6.67315 Y4.31555
X6.55079 Y4.12314
X6.54828 Y4.02106
X6.52898 Y3.98098
X6.47305 Y3.94583
X6.37096 Y3.94331
X6.17863 Y3.82099
X5.96327 Y3.74065
X5.75679 Y3.70793
X5.52710 Y3.71779
X5.28501 Y3.78266
X5.09875 Y3.87758
X5.01412 Y3.94331
X4.90452 Y3.94583
X4.86444 Y3.96513
X4.82928 Y4.02106
X4.82680 Y4.11171
X1.86297 Y7.07554
X1.68235 Y7.31509
X1.57570 Y7.58148
X1.54080 Y7.85331
X1.54164 Y36.99636
X1.58245 Y37.28041
X1.68235 Y37.52158
X1.86297 Y37.76113
X4.40297 Y40.30113
X4.61989 Y40.46869
X4.88369 Y40.58164
X5.18080 Y40.62330
X54.72383 Y40.62246
X55.00785 Y40.58164
X55.24902 Y40.48175
X55.47874 Y40.30976
X55.64719 Y40.14131
X55.80612 Y39.93422
X55.91907 Y39.67042
X55.96078 Y39.37331
X55.96078 Y36.51891
X59.23639 Y33.24330
X81.81813 Y33.24330
X83.89974 Y35.32491
X83.90223 Y35.45364
X83.93738 Y35.50957
X83.99974 Y35.53136
X84.13603 Y35.53136
X84.24249 Y35.60876
X84.50891 Y35.71541
X84.78079 Y35.75031
X97.08879 Y35.75031
X97.38584 Y35.70865
X97.64962 Y35.59570
X97.86656 Y35.42814
X99.21939 Y34.07531
X99.31005 Y34.07282
X99.36598 Y34.03766
X99.38528 Y33.99758
X99.38779 Y33.88808
X99.45356 Y33.80340
X99.55592 Y33.59761
X99.61332 Y33.37503
X99.62318 Y33.14536
X99.58505 Y32.91869
X99.51015 Y32.72354
X99.38779 Y32.53114
X99.38528 Y32.42906
X99.35013 Y32.37313
X99.31005 Y32.35382
X99.20796 Y32.35131
X99.01563 Y32.22898
X98.82046 Y32.15405
X98.57289 Y32.11483
X98.36410 Y32.12578
X98.14154 Y32.18316
X97.93575 Y32.28557
X97.85112 Y32.35131
X97.74152 Y32.35382
X97.70144 Y32.37313
X97.66628 Y32.42906
X97.66380 Y32.51971
X96.63319 Y33.55031
X85.23634 Y33.55031
X83.04173 Y31.35690
X82.81201 Y31.18491
X82.57081 Y31.08502
X82.27378 Y31.04331
X58.78079 Y31.04331
X58.50886 Y31.07826
X58.28257 Y31.16833
X57.90581 Y31.16833
X57.84345 Y31.19015
X57.80581 Y31.26833
X57.80581 Y31.56269
X54.08296 Y35.28554
X53.91539 Y35.50248
X53.80244 Y35.76626
X53.76078 Y36.06331
X53.76078 Y38.42330
X5.63634 Y38.42330
G04 P0 ( dwell for no time -- G64 should not smooth over this point )
G00 Z5.00000 ( retract )

G00 X9.90926 Y32.58831 ( rapid move to begin. )
F300.00000
G01 Z-0.05000
G04 P0 ( dwell for no time -- G64 should not smooth over this point )
F600.00000
G01 X9.90926 Y32.58831
X5.81580 Y32.58831
X5.57696 Y32.61509
X5.35903 Y32.68819
X5.16106 Y32.80503
X4.99174 Y32.96042
X4.85839 Y33.14765
X4.76690 Y33.35854
X4.72126 Y33.58379
X4.72344 Y33.81366
X4.76690 Y34.01813
X4.86883 Y34.24711
X4.99172 Y34.41625
X5.16106 Y34.57165
X5.37813 Y34.69700
X5.59741 Y34.76593
X5.81580 Y34.78831
X10.15579 Y34.78831
X10.45297 Y34.74663
X10.71683 Y34.63357
X10.93379 Y34.46593
X11.12869 Y34.23312
X11.23102 Y34.02730
X11.28508 Y33.82535
X11.29922 Y33.59593
X11.26537 Y33.36858
X11.18500 Y33.15324
X11.06158 Y32.95931
X10.90057 Y32.79530
X10.70895 Y32.66832
X10.49514 Y32.58397
X10.26842 Y32.54592
X10.03877 Y32.55583
X9.90926 Y32.58831
G04 P0 ( dwell for no time -- G64 should not smooth over this point )
G00 Z5.00000 ( retract )

G00 X9.90926 Y27.58832 ( rapid move to begin. )
F300.00000
G01 Z-0.05000
G04 P0 ( dwell for no time -- G64 should not smooth over this point )
F600.00000
G01 X9.90926 Y27.58832
X5.81580 Y27.58832
X5.57696 Y27.61510
X5.35903 Y27.68820
X5.16106 Y27.80504
X4.99174 Y27.96043
X4.85839 Y28.14766
X4.76690 Y28.35855
X4.72126 Y28.58380
X4.72344 Y28.81367
X4.76690 Y29.01814
X4.86883 Y29.24712
X4.99172 Y29.41626
X5.16106 Y29.57166
X5.37813 Y29.69701
X5.59741 Y29.76594
X5.81580 Y29.78832
X10.15579 Y29.78832
X10.45297 Y29.74664
X10.71683 Y29.63358
X10.93379 Y29.46594
X11.12869 Y29.23313
X11.23102 Y29.02731
X11.28508 Y28.82536
X11.29922 Y28.59594
X11.26537 Y28.36859
X11.18500 Y28.15325
X11.06158 Y27.95932
X10.90057 Y27.79531
X10.70895 Y27.66833
X10.49514 Y27.58398
X10.26842 Y27.54593
X10.03877 Y27.55584
X9.90926 Y27.58832
G04 P0 ( dwell for no time -- G64 should not smooth over this point )
G00 Z5.00000 ( retract )

G00 X10.40933 Y22.58831 ( rapid move to begin. )
F300.00000
G01 Z-0.05000
G04 P0 ( dwell for no time -- G64 should not smooth over this point )
F600.00000
G01 X10.40933 Y22.58831
X5.81580 Y22.58831
X5.57696 Y22.61508
X5.35903 Y22.68818
X5.16106 Y22.80502
X4.99174 Y22.96042
X4.85839 Y23.14764
X4.76690 Y23.35854
X4.72126 Y23.58379
X4.72344 Y23.81366
X4.76690 Y24.01813
X4.86883 Y24.24711
X4.99172 Y24.41625
X5.16106 Y24.57164
X5.37813 Y24.69699
X5.59741 Y24.76593
X5.81580 Y24.78830
X10.65579 Y24.78830
X10.92762 Y24.75340
X11.21662 Y24.63369
X11.43356 Y24.46613
X11.62853 Y24.23342
X11.73090 Y24.02763
X11.78830 Y23.80505
X11.79816 Y23.57538
X11.76544 Y23.36888
X11.68513 Y23.15356
X11.56176 Y22.95958
X11.40077 Y22.79552
X11.20923 Y22.66850
X10.99544 Y22.58407
X10.76877 Y22.54594
X10.53908 Y22.55580
X10.40933 Y22.58831
G04 P0 ( dwell for no time -- G64 should not smooth over this point )
G00 Z5.00000 ( retract )

G00 X6.99822 Y17.94918 ( rapid move to begin. )
F300.00000
G01 Z-0.05000
G04 P0 ( dwell for no time -- G64 should not smooth over this point )
F600.00000
G01 X6.99822 Y17.94918
X6.99822 Y19.42903
X6.96606 Y19.60013
X6.87589 Y19.74023
X6.73952 Y19.83340
X6.55516 Y19.87076
X5.07485 Y19.87076
X4.90396 Y19.83861
X4.76380 Y19.74844
X4.67071 Y19.61217
X4.63335 Y19.42774
X4.63335 Y17.94740
X4.66548 Y17.77653
X4.75565 Y17.63640
X4.89195 Y17.54328
X5.07660 Y17.50587
X6.55646 Y17.50587
X6.72753 Y17.53803
X6.86769 Y17.62822
X6.96080 Y17.76452
X6.99822 Y17.94918
G04 P0 ( dwell for no time -- G64 should not smooth over this point )
G00 Z5.00000 ( retract )

G00 X4.95380 Y17.92632 ( rapid move to begin. )
F300.00000
G01 Z-0.05000
G04 P0 ( dwell for no time -- G64 should not smooth over this point )
F600.00000
G01 X4.95380 Y17.92632
X4.95380 Y19.45032
X4.99144 Y19.52852
X5.05380 Y19.55032
X6.57780 Y19.55032
X6.65598 Y19.51267
X6.67779 Y19.45032
X6.67779 Y17.92632
X6.64013 Y17.84814
X6.57780 Y17.82632
X5.05380 Y17.82632
X4.99144 Y17.84814
X4.95380 Y17.92632
G04 P0 ( dwell for no time -- G64 should not smooth over this point )
G00 Z5.00000 ( retract )

G00 X6.23431 Y15.85144 ( rapid move to begin. )
F300.00000
G01 Z-0.05000
G04 P0 ( dwell for no time -- G64 should not smooth over this point )
F600.00000
G01 X6.23431 Y15.85144
X5.86273 Y15.98553
X5.39202 Y15.96198
X5.14323 Y15.85152
X5.38544 Y15.60925
X5.60917 Y15.66313
X5.78920 Y15.66094
X5.99207 Y15.60925
X6.23431 Y15.85144
G04 P0 ( dwell for no time -- G64 should not smooth over this point )
G00 Z5.00000 ( retract )

G00 X6.84541 Y15.10207 ( rapid move to begin. )
F300.00000
G01 Z-0.05000
G04 P0 ( dwell for no time -- G64 should not smooth over this point )
F600.00000
G01 X6.84541 Y15.10207
X6.73489 Y15.35088
X6.49230 Y15.10831
X6.53357 Y14.97420
X6.55024 Y14.81578
X6.53357 Y14.63646
X6.49230 Y14.50242
X6.73487 Y14.25980
X6.86896 Y14.63138
X6.84541 Y15.10207
G04 P0 ( dwell for no time -- G64 should not smooth over this point )
G00 Z5.00000 ( retract )

G00 X6.23185 Y13.75076 ( rapid move to begin. )
F300.00000
G01 Z-0.05000
G04 P0 ( dwell for no time -- G64 should not smooth over this point )
F600.00000
G01 X6.23185 Y13.75076
X5.99212 Y14.00141
X5.76842 Y13.94751
X5.58836 Y13.94972
X5.38544 Y14.00141
X5.14320 Y13.75922
X5.51478 Y13.62516
X5.98549 Y13.64870
X6.23185 Y13.75076
G04 P0 ( dwell for no time -- G64 should not smooth over this point )
G00 Z5.00000 ( retract )

G00 X4.88524 Y15.10819 ( rapid move to begin. )
F300.00000
G01 Z-0.05000
G04 P0 ( dwell for no time -- G64 should not smooth over this point )
F600.00000
G01 X4.88524 Y15.10819
X4.64102 Y15.35045
X4.50856 Y14.97931
X4.53210 Y14.50862
X4.64262 Y14.25980
X4.88524 Y14.50242
X4.84399 Y14.63646
X4.82733 Y14.79488
X4.84399 Y14.97420
X4.88524 Y15.10819
G04 P0 ( dwell for no time -- G64 should not smooth over this point )
G00 Z5.00000 ( retract )

G00 X10.80639 Y6.24331 ( rapid move to begin. )
F300.00000
G01 Z-0.05000
G04 P0 ( dwell for no time -- G64 should not smooth over this point )
F600.00000
G01 X10.80639 Y6.24331
X58.32509 Y6.24331
X59.00992 Y6.92814
X59.22686 Y7.09571
X59.49064 Y7.20866
X59.78777 Y7.25032
X85.82513 Y7.25032
X85.90578 Y7.32977
X86.13547 Y7.50175
X86.40189 Y7.60840
X86.67377 Y7.64330
X98.53623 Y7.64277
X98.76458 Y7.61658
X98.98251 Y7.54348
X99.20415 Y7.40531
X99.31005 Y7.40282
X99.35013 Y7.38351
X99.38528 Y7.32758
X99.38779 Y7.21897
X99.48315 Y7.08400
X99.56819 Y6.89301
X99.62031 Y6.64785
X99.62031 Y6.43879
X99.57464 Y6.21354
X99.48315 Y6.00264
X99.38779 Y5.86774
X99.38528 Y5.75906
X99.36598 Y5.71898
X99.31005 Y5.68382
X99.20413 Y5.68131
X98.96341 Y5.53467
X98.76458 Y5.47008
X98.53623 Y5.44387
X87.16184 Y5.44331
X87.15932 Y5.34702
X87.10522 Y5.27917
X86.92544 Y5.26927
X86.81901 Y5.19193
X86.57781 Y5.09203
X86.28079 Y5.05032
X60.24337 Y5.05032
X59.75577 Y4.56272
X59.75577 Y4.26833
X59.71810 Y4.19015
X59.65577 Y4.16833
X59.27901 Y4.16833
X59.05265 Y4.07826
X58.78079 Y4.04331
X10.35079 Y4.04331
X10.07885 Y4.07826
X9.81249 Y4.18492
X9.57296 Y4.36554
X4.90396 Y9.03530
X4.77239 Y9.19778
X4.66609 Y9.40157
X4.60449 Y9.62303
X4.59027 Y9.85244
X4.62949 Y10.10002
X4.70442 Y10.29519
X4.82779 Y10.48912
X4.98877 Y10.65318
X5.18034 Y10.78020
X5.39413 Y10.86461
X5.62080 Y10.90273
X5.87112 Y10.88960
X6.09255 Y10.82801
X6.29636 Y10.72171
X6.46659 Y10.58313
X10.80639 Y6.24331
G04 P0 ( dwell for no time -- G64 should not smooth over this point )
G00 Z5.00000 ( retract )

G00 X10.37319 Y3.73531 ( rapid move to begin. )
F300.00000
G01 Z-0.05000
G04 P0 ( dwell for no time -- G64 should not smooth over this point )
F600.00000
G01 X10.37319 Y3.73531
X58.75829 Y3.73531
X59.30233 Y3.84354
X59.63408 Y3.84781
X59.80555 Y3.88007
X59.94571 Y3.97024
X60.03880 Y4.10651
X60.07621 Y4.29116
X60.08137 Y4.39942
X60.11386 Y4.47791
X60.34055 Y4.70465
X60.46501 Y4.74232
X86.25831 Y4.74232
X86.81784 Y4.85360
X86.94964 Y4.93378
X87.21137 Y4.98095
X87.40197 Y5.10468
X87.51543 Y5.13531
X98.50332 Y5.13531
X99.06283 Y5.24659
X99.20029 Y5.33602
X99.43755 Y5.39307
X99.57771 Y5.48324
X99.67080 Y5.61951
X99.71406 Y5.82345
X99.82247 Y6.00622
X99.92935 Y6.54333
X99.82252 Y7.08042
X99.73308 Y7.21788
X99.67603 Y7.45514
X99.58586 Y7.59527
X99.44959 Y7.68839
X99.24566 Y7.73162
X99.06288 Y7.84003
X98.50360 Y7.95130
X86.69595 Y7.95130
X86.13669 Y7.84008
X85.77228 Y7.59659
X85.64619 Y7.55832
X59.80995 Y7.55832
X59.25069 Y7.44709
X58.77629 Y7.13010
X58.25420 Y6.60919
X58.17462 Y6.56327
X58.10355 Y6.55131
X11.02803 Y6.55131
X10.95683 Y6.56330
X10.86750 Y6.61783
X6.70027 Y10.78506
X6.22588 Y11.10205
X5.68877 Y11.20893
X5.15169 Y11.10210
X4.69634 Y10.79783
X4.46452 Y10.45089
X4.38638 Y10.37914
X4.29482 Y10.35112
X4.17511 Y10.37391
X4.10025 Y10.43355
X4.05217 Y10.53962
X4.04879 Y23.21071
X4.08674 Y23.33588
X4.15438 Y23.40218
X4.24315 Y23.43507
X4.33757 Y23.42885
X4.39992 Y23.40040
X4.47958 Y23.30997
X4.51849 Y23.15204
X4.82329 Y22.69590
X5.27864 Y22.39164
X5.83820 Y22.28031
X10.47456 Y22.28031
X10.70022 Y22.23964
X11.23783 Y22.34658
X11.69320 Y22.65084
X11.99747 Y23.10621
X12.10433 Y23.64332
X11.99752 Y24.18041
X11.66727 Y24.66806
X11.19287 Y24.98503
X10.63359 Y25.09630
X5.83797 Y25.09630
X5.27869 Y24.98508
X4.82332 Y24.68081
X4.51857 Y24.22470
X4.46657 Y24.04353
X4.38186 Y23.96560
X4.29078 Y23.93974
X4.19703 Y23.95336
X4.11717 Y24.00398
X4.06480 Y24.08297
X4.04879 Y24.16590
X4.04879 Y28.21073
X4.07336 Y28.31283
X4.15438 Y28.40219
X4.21702 Y28.42970
X4.29068 Y28.43694
X4.35758 Y28.42218
X4.42134 Y28.38451
X4.48791 Y28.29069
X4.51905 Y28.15121
X4.82329 Y27.69589
X5.27864 Y27.39163
X5.83817 Y27.28032
X9.97454 Y27.28032
X10.20022 Y27.23966
X10.73783 Y27.34659
X11.19318 Y27.65086
X11.49744 Y28.10623
X11.60433 Y28.64334
X11.49750 Y29.18040
X11.16722 Y29.66808
X10.69287 Y29.98504
X10.13359 Y30.09632
X5.83797 Y30.09632
X5.27869 Y29.98509
X4.82334 Y29.68083
X4.51857 Y29.22469
X4.47963 Y29.06681
X4.39987 Y28.97626
X4.31166 Y28.94212
X4.21704 Y28.94697
X4.15436 Y28.97450
X4.08674 Y29.04077
X4.04879 Y29.16592
X4.04879 Y33.21072
X4.07336 Y33.31282
X4.15438 Y33.40218
X4.21702 Y33.42969
X4.29068 Y33.43693
X4.35758 Y33.42217
X4.42134 Y33.38450
X4.48791 Y33.29068
X4.51905 Y33.15123
X4.82329 Y32.69591
X5.27864 Y32.39164
X5.83820 Y32.28031
X9.97454 Y32.28031
X10.20022 Y32.23965
X10.73783 Y32.34658
X11.19318 Y32.65085
X11.49744 Y33.10622
X11.60433 Y33.64333
X11.49750 Y34.18041
X11.16727 Y34.66807
X10.69287 Y34.98503
X10.13359 Y35.09631
X5.83797 Y35.09631
X5.27869 Y34.98508
X4.82334 Y34.68084
X4.51910 Y34.22550
X4.48788 Y34.08600
X4.42128 Y33.99212
X4.35761 Y33.95453
X4.26411 Y33.93954
X4.19703 Y33.95336
X4.13271 Y33.99009
X4.07336 Y34.06383
X4.04879 Y34.16591
X4.04879 Y36.30609
X4.06071 Y36.37721
X4.11527 Y36.46661
X5.69748 Y38.04883
X5.78686 Y38.10339
X5.85801 Y38.11530
X53.26518 Y38.11152
X53.37564 Y38.05833
X53.42487 Y37.99658
X53.44895 Y37.92783
X53.45278 Y36.08554
X53.56401 Y35.52628
X53.88098 Y35.05186
X57.41882 Y31.51405
X57.48013 Y31.39952
X57.51744 Y31.11857
X57.60764 Y30.97841
X57.74394 Y30.88530
X57.92898 Y30.84783
X58.25918 Y30.84354
X58.80319 Y30.73531
X82.25130 Y30.73531
X82.81082 Y30.84659
X83.28524 Y31.16358
X85.29750 Y33.17584
X85.35625 Y33.21773
X85.45803 Y33.24231
X96.42458 Y33.24148
X96.51325 Y33.21773
X96.57203 Y33.17584
X97.30947 Y32.43840
X97.46565 Y32.16142
X97.60195 Y32.06833
X97.80586 Y32.02504
X97.98864 Y31.91664
X98.52577 Y31.80975
X99.06283 Y31.91659
X99.24738 Y32.02522
X99.43755 Y32.06307
X99.57771 Y32.15324
X99.67080 Y32.28951
X99.71406 Y32.49345
X99.82247 Y32.67622
X99.92935 Y33.21333
X99.82252 Y33.75042
X99.73308 Y33.88788
X99.67603 Y34.12514
X99.58586 Y34.26527
X99.44957 Y34.35836
X99.37032 Y34.38105
X99.30380 Y34.42651
X98.10027 Y35.63007
X97.62587 Y35.94703
X97.06659 Y36.05831
X84.80296 Y36.05831
X84.24368 Y35.94708
X84.11183 Y35.86690
X83.84998 Y35.81970
X83.70982 Y35.72948
X83.61663 Y35.59311
X83.58432 Y35.46619
X83.53886 Y35.39966
X81.75702 Y33.61783
X81.69824 Y33.57594
X81.60965 Y33.55217
X59.41203 Y33.55651
X59.29750 Y33.61783
X56.30642 Y36.61622
X56.26878 Y36.74055
X56.26878 Y39.35089
X56.15750 Y39.91040
X55.84059 Y40.38474
X55.72220 Y40.50311
X55.24788 Y40.82005
X54.68860 Y40.93133
X5.20297 Y40.93133
X4.64369 Y40.82010
X4.16929 Y40.50311
X1.66104 Y37.99486
X1.34405 Y37.52046
X1.23277 Y36.96115
X1.23277 Y7.87554
X1.34400 Y7.31628
X1.66099 Y6.84188
X4.47247 Y4.03041
X4.62865 Y3.75342
X4.76495 Y3.66033
X4.96886 Y3.61705
X5.15164 Y3.50864
X5.68877 Y3.40176
X6.22583 Y3.50859
X6.41038 Y3.61723
X6.60055 Y3.65507
X6.74071 Y3.74524
X6.83380 Y3.88151
X6.87706 Y4.08545
X6.98547 Y4.26823
X7.09235 Y4.80534
X6.98552 Y5.34239
X6.87688 Y5.52695
X6.83903 Y5.71715
X6.74886 Y5.85728
X6.61257 Y5.95037
X6.53332 Y5.97305
X6.46680 Y6.01852
X4.08644 Y8.40622
X4.04879 Y8.53055
X4.05667 Y9.09184
X4.10023 Y9.17711
X4.17508 Y9.23677
X4.26784 Y9.26022
X4.36203 Y9.24330
X4.45814 Y9.16830
X4.70899 Y8.79387
X9.33923 Y4.16363
X9.81363 Y3.84664
X10.37319 Y3.73531
G04 P0 ( dwell for no time -- G64 should not smooth over this point )
G00 Z5.00000 ( retract )

G00 X32.87127 Y19.75095 ( rapid move to begin. )
F300.00000
G01 Z-0.05000
G04 P0 ( dwell for no time -- G64 should not smooth over this point )
F600.00000
G01 X32.87127 Y19.75095
X33.08714 Y19.35580
X33.45069 Y19.06292
X33.91079 Y18.92791
X34.00677 Y18.92791
X34.00677 Y19.23594
X33.81673 Y19.25664
X33.64612 Y19.31232
X33.50682 Y19.38964
X33.35539 Y19.51966
X33.25788 Y19.64564
X33.19494 Y19.76932
X32.88150 Y19.76932
X32.87127 Y19.75095
G04 P0 ( dwell for no time -- G64 should not smooth over this point )
G00 Z5.00000 ( retract )

G00 X35.85023 Y19.75093 ( rapid move to begin. )
F300.00000
G01 Z-0.05000
G04 P0 ( dwell for no time -- G64 should not smooth over this point )
F600.00000
G01 X35.85023 Y19.75093
X35.84004 Y19.76932
X35.52722 Y19.76932
X35.41149 Y19.57247
X35.28637 Y19.44381
X35.15561 Y19.35281
X34.97220 Y19.27409
X34.81614 Y19.24204
X34.71477 Y19.23960
X34.71477 Y18.92791
X34.81068 Y18.92791
X35.27078 Y19.06287
X35.63433 Y19.35575
X35.85023 Y19.75093
G04 P0 ( dwell for no time -- G64 should not smooth over this point )
G00 Z5.00000 ( retract )

G00 X41.90518 Y21.56332 ( rapid move to begin. )
F300.00000
G01 Z-0.05000
G04 P0 ( dwell for no time -- G64 should not smooth over this point )
F600.00000
G01 X41.90518 Y21.56332
X34.36077 Y21.56332
X34.14238 Y21.58575
X33.92310 Y21.65468
X33.72295 Y21.76774
X33.35539 Y22.05966
X33.24719 Y22.20279
X33.16997 Y22.36481
X33.12699 Y22.53903
X33.11993 Y22.71836
X33.14914 Y22.89542
X33.21338 Y23.06298
X33.29763 Y23.19819
X33.41980 Y23.32966
X33.59898 Y23.45026
X33.72295 Y23.55894
X33.90400 Y23.66349
X34.14238 Y23.74094
X34.36077 Y23.76331
X42.36078 Y23.76331
X42.63261 Y23.72841
X42.89901 Y23.62176
X43.13856 Y23.44114
X45.32857 Y21.25113
X45.46715 Y21.08095
X45.57345 Y20.87711
X45.63832 Y20.63502
X45.64818 Y20.40536
X45.61546 Y20.19885
X45.53515 Y19.98354
X45.41178 Y19.78956
X45.25079 Y19.62550
X45.05925 Y19.49848
X44.84546 Y19.41405
X44.59789 Y19.37483
X44.36847 Y19.38905
X44.14701 Y19.45065
X43.94323 Y19.55695
X43.77297 Y19.69550
X41.90518 Y21.56332
G04 P0 ( dwell for no time -- G64 should not smooth over this point )
G00 Z5.00000 ( retract )

G00 X42.33858 Y24.07131 ( rapid move to begin. )
F300.00000
G01 Z-0.05000
G04 P0 ( dwell for no time -- G64 should not smooth over this point )
F600.00000
G01 X42.33858 Y24.07131
X35.13662 Y24.07502
X35.02803 Y24.12605
X34.96872 Y24.20512
X34.94868 Y24.30195
X34.98549 Y24.42219
X35.07543 Y24.50179
X35.27075 Y24.56290
X35.63435 Y24.85579
X35.85023 Y25.25091
X35.84004 Y25.26930
X35.52722 Y25.26930
X35.42389 Y25.08846
X35.30172 Y24.95699
X35.15561 Y24.85280
X34.97220 Y24.77408
X34.79653 Y24.73999
X34.00571 Y24.73593
X33.81673 Y24.75663
X33.64612 Y24.81231
X33.50682 Y24.88963
X33.35539 Y25.01965
X33.25788 Y25.14563
X33.19494 Y25.26930
X32.88150 Y25.26930
X32.87127 Y25.25094
X33.08714 Y24.85579
X33.45069 Y24.56293
X33.99494 Y24.39427
X34.07959 Y24.29994
X34.10197 Y24.20283
X34.07015 Y24.08594
X34.00162 Y24.01358
X33.82366 Y23.96009
X33.12821 Y23.50548
X32.87005 Y23.11909
X32.77934 Y22.66334
X32.87000 Y22.20764
X33.12819 Y21.82123
X33.51663 Y21.55699
X33.56075 Y21.49796
X33.58615 Y21.39933
X33.57411 Y21.32052
X33.52046 Y21.23396
X33.08719 Y20.89093
X32.87129 Y20.49576
X32.88150 Y20.47731
X33.19428 Y20.47731
X33.29763 Y20.65819
X33.41980 Y20.78966
X33.56590 Y20.89385
X33.74932 Y20.97256
X33.92498 Y21.00665
X34.71584 Y21.01071
X34.90479 Y20.99001
X35.07540 Y20.93434
X35.21469 Y20.85702
X35.36613 Y20.72700
X35.46364 Y20.60101
X35.52661 Y20.47731
X35.83997 Y20.47731
X35.85023 Y20.49576
X35.61873 Y20.91950
X35.59224 Y21.00790
X35.60662 Y21.11023
X35.64477 Y21.17454
X35.72765 Y21.23622
X35.80654 Y21.25468
X41.69657 Y21.25448
X41.78524 Y21.23073
X41.84402 Y21.18885
X43.53924 Y19.49362
X44.01364 Y19.17663
X44.55077 Y19.06975
X45.08783 Y19.17658
X45.54320 Y19.48085
X45.84747 Y19.93622
X45.95435 Y20.47333
X45.84752 Y21.01041
X45.53052 Y21.48481
X43.37229 Y23.64307
X42.89786 Y23.96004
X42.33858 Y24.07131
G04 P0 ( dwell for no time -- G64 should not smooth over this point )
G00 Z5.00000 ( retract )

G00 X42.75519 Y27.06331 ( rapid move to begin. )
F300.00000
G01 Z-0.05000
G04 P0 ( dwell for no time -- G64 should not smooth over this point )
F600.00000
G01 X42.75519 Y27.06331
X34.36077 Y27.06331
X34.14238 Y27.08573
X33.92310 Y27.15467
X33.72295 Y27.26773
X33.35539 Y27.55965
X33.24719 Y27.70278
X33.16997 Y27.86480
X33.12699 Y28.03902
X33.11993 Y28.21835
X33.14914 Y28.39541
X33.21338 Y28.56297
X33.31003 Y28.71418
X33.43515 Y28.84283
X33.59898 Y28.95025
X33.72295 Y29.05893
X33.90400 Y29.16348
X34.12194 Y29.23658
X34.35031 Y29.26277
X43.22382 Y29.26246
X43.50785 Y29.22165
X43.74902 Y29.12175
X43.97874 Y28.94976
X45.32857 Y27.60113
X45.47856 Y27.41339
X45.58092 Y27.20760
X45.63832 Y26.98502
X45.64818 Y26.75536
X45.61005 Y26.52869
X45.52565 Y26.31490
X45.39862 Y26.12333
X45.23456 Y25.96234
X45.04063 Y25.83898
X44.84546 Y25.76405
X44.61879 Y25.72592
X44.38910 Y25.73578
X44.14701 Y25.80065
X43.94323 Y25.90695
X43.78074 Y26.03849
X42.75519 Y27.06331
G04 P0 ( dwell for no time -- G64 should not smooth over this point )
G00 Z5.00000 ( retract )

G00 X43.18831 Y29.57138 ( rapid move to begin. )
F300.00000
G01 Z-0.05000
G04 P0 ( dwell for no time -- G64 should not smooth over this point )
F600.00000
G01 X43.18831 Y29.57138
X35.13672 Y29.57499
X35.04538 Y29.61260
X34.96875 Y29.70506
X34.94868 Y29.80178
X34.98541 Y29.92208
X35.07527 Y30.00171
X35.27075 Y30.06289
X35.63435 Y30.35578
X35.85025 Y30.75090
X35.84004 Y30.76932
X35.52722 Y30.76932
X35.42389 Y30.58847
X35.30172 Y30.45700
X35.15561 Y30.35281
X34.97220 Y30.27409
X34.79653 Y30.24001
X34.00571 Y30.23594
X33.81673 Y30.25665
X33.64612 Y30.31232
X33.50682 Y30.38964
X33.35539 Y30.51966
X33.25788 Y30.64565
X33.19494 Y30.76932
X32.88150 Y30.76932
X32.87127 Y30.75093
X33.08714 Y30.35578
X33.45069 Y30.06292
X33.99494 Y29.89429
X34.07959 Y29.79995
X34.10197 Y29.70285
X34.07015 Y29.58596
X34.00162 Y29.51359
X33.82369 Y29.46010
X33.12824 Y29.00549
X32.87005 Y28.61911
X32.77934 Y28.16333
X32.87000 Y27.70763
X33.12819 Y27.32122
X33.51663 Y27.05698
X33.56075 Y26.99795
X33.58615 Y26.89932
X33.57411 Y26.82051
X33.52046 Y26.73394
X33.08717 Y26.39089
X32.87127 Y25.99577
X32.88150 Y25.97730
X33.19428 Y25.97730
X33.29763 Y26.15818
X33.41980 Y26.28965
X33.56590 Y26.39384
X33.74932 Y26.47255
X33.92498 Y26.50664
X34.71584 Y26.51070
X34.90479 Y26.49000
X35.07540 Y26.43433
X35.21469 Y26.35701
X35.36613 Y26.22699
X35.46364 Y26.10100
X35.52661 Y25.97730
X35.83997 Y25.97730
X35.85023 Y25.99574
X35.61873 Y26.41949
X35.59224 Y26.50788
X35.60662 Y26.61022
X35.64477 Y26.67453
X35.72765 Y26.73621
X35.80654 Y26.75467
X42.53355 Y26.75531
X42.63525 Y26.73072
X42.69403 Y26.68883
X43.53924 Y25.84362
X44.01364 Y25.52663
X44.55077 Y25.41975
X45.08783 Y25.52658
X45.54320 Y25.83085
X45.84747 Y26.28622
X45.95435 Y26.82333
X45.84752 Y27.36041
X45.53052 Y27.83481
X44.22227 Y29.14306
X43.74793 Y29.46000
X43.18831 Y29.57138
G04 P0 ( dwell for no time -- G64 should not smooth over this point )
G00 Z5.00000 ( retract )

G00 X41.76513 Y34.76332 ( rapid move to begin. )
F300.00000
G01 Z-0.05000
G04 P0 ( dwell for no time -- G64 should not smooth over this point )
F600.00000
G01 X41.76513 Y34.76332
X43.92296 Y36.92115
X44.09319 Y37.05973
X44.29700 Y37.16603
X44.51846 Y37.22762
X44.74785 Y37.24185
X44.99542 Y37.20263
X45.20919 Y37.11823
X45.40078 Y36.99120
X45.56179 Y36.82712
X45.68511 Y36.63319
X45.76004 Y36.43801
X45.79816 Y36.21134
X45.78831 Y35.98168
X45.72344 Y35.73959
X45.61714 Y35.53578
X45.47856 Y35.36555
X42.99855 Y32.88555
X42.75900 Y32.70493
X42.49261 Y32.59827
X42.22078 Y32.56332
X34.35031 Y32.56388
X34.12194 Y32.59009
X33.92310 Y32.65468
X33.72295 Y32.76774
X33.59306 Y32.88176
X33.49021 Y32.94120
X33.35539 Y33.05966
X33.24719 Y33.20279
X33.16997 Y33.36482
X33.12699 Y33.53904
X33.11993 Y33.71836
X33.14914 Y33.89542
X33.21338 Y34.06299
X33.31003 Y34.21419
X33.43515 Y34.34284
X33.59898 Y34.45026
X33.72295 Y34.55895
X33.92310 Y34.67200
X34.14238 Y34.74094
X34.36077 Y34.76332
X41.76513 Y34.76332
G04 P0 ( dwell for no time -- G64 should not smooth over this point )
G00 Z5.00000 ( retract )

G00 X46.10434 Y36.14335 ( rapid move to begin. )
F300.00000
G01 Z-0.05000
G04 P0 ( dwell for no time -- G64 should not smooth over this point )
F600.00000
G01 X46.10434 Y36.14335
X45.99750 Y36.68041
X45.69324 Y37.13578
X45.23787 Y37.44004
X44.70076 Y37.54693
X44.16370 Y37.44010
X43.68930 Y37.12310
X41.70401 Y35.13784
X41.58949 Y35.07652
X34.38295 Y35.07132
X33.82369 Y34.96009
X33.12821 Y34.50548
X32.87005 Y34.11910
X32.77934 Y33.66334
X32.87000 Y33.20764
X33.12819 Y32.82123
X33.51663 Y32.55700
X33.56075 Y32.49797
X33.58615 Y32.39934
X33.57411 Y32.32052
X33.52046 Y32.23396
X33.08719 Y31.89093
X32.87129 Y31.49576
X32.88150 Y31.47732
X33.19428 Y31.47732
X33.29763 Y31.65819
X33.41980 Y31.78966
X33.56590 Y31.89385
X33.74932 Y31.97257
X33.92498 Y32.00665
X34.71584 Y32.01072
X34.90479 Y31.99002
X35.07540 Y31.93434
X35.21469 Y31.85702
X35.36613 Y31.72700
X35.46364 Y31.60102
X35.52661 Y31.47732
X35.83997 Y31.47732
X35.85023 Y31.49576
X35.61873 Y31.91951
X35.59224 Y32.00790
X35.60662 Y32.11024
X35.64477 Y32.17455
X35.72765 Y32.23622
X35.80654 Y32.25469
X42.19830 Y32.25532
X42.75783 Y32.36660
X43.23223 Y32.68356
X45.68049 Y35.13182
X45.99745 Y35.60622
X46.10434 Y36.14335
G04 P0 ( dwell for no time -- G64 should not smooth over this point )
G00 Z5.00000 ( retract )

G00 X58.80319 Y35.73532 ( rapid move to begin. )
F300.00000
G01 Z-0.05000
G04 P0 ( dwell for no time -- G64 should not smooth over this point )
F600.00000
G01 X58.80319 Y35.73532
X79.75829 Y35.73532
X80.31783 Y35.84660
X80.79223 Y36.16357
X85.29750 Y40.66884
X85.35625 Y40.71073
X85.45803 Y40.73531
X93.91854 Y40.73531
X93.98961 Y40.72340
X94.07902 Y40.66884
X97.51424 Y37.23362
X97.98864 Y36.91663
X98.52574 Y36.80977
X99.06283 Y36.91658
X99.51820 Y37.22084
X99.82247 Y37.67621
X99.92935 Y38.21335
X99.82252 Y38.75041
X99.50552 Y39.22480
X95.60728 Y43.12307
X95.13286 Y43.44003
X94.57358 Y43.55131
X84.80296 Y43.55131
X84.24368 Y43.44008
X83.76928 Y43.12312
X79.26401 Y38.61784
X79.17460 Y38.56328
X79.10353 Y38.55132
X58.80296 Y38.55132
X58.24368 Y38.44009
X57.78834 Y38.13583
X57.48407 Y37.68046
X57.37719 Y37.14335
X57.48402 Y36.60626
X57.78828 Y36.15092
X58.24363 Y35.84665
X58.80319 Y35.73532
G04 P0 ( dwell for no time -- G64 should not smooth over this point )
G00 Z5.00000 ( retract )

G00 X58.16288 Y41.00295 ( rapid move to begin. )
F300.00000
G01 Z-0.05000
G04 P0 ( dwell for no time -- G64 should not smooth over this point )
F600.00000
G01 X58.16288 Y41.00295
X58.58130 Y40.85045
X59.09633 Y40.87278
X59.39669 Y40.99721
X59.40403 Y41.01946
X59.16926 Y41.25429
X59.07195 Y41.21334
X58.89301 Y41.17532
X58.68935 Y41.17313
X58.48960 Y41.21334
X58.39232 Y41.25431
X58.15745 Y41.01949
X58.16288 Y41.00295
G04 P0 ( dwell for no time -- G64 should not smooth over this point )
G00 Z5.00000 ( retract )

G00 X57.48788 Y42.34280 ( rapid move to begin. )
F300.00000
G01 Z-0.05000
G04 P0 ( dwell for no time -- G64 should not smooth over this point )
F600.00000
G01 X57.48788 Y42.34280
X57.51021 Y41.82777
X57.63464 Y41.52739
X57.65686 Y41.52007
X57.88851 Y41.75167
X57.82981 Y41.93051
X57.80634 Y42.13287
X57.82547 Y42.33569
X57.88851 Y42.53495
X57.65689 Y42.76660
X57.64038 Y42.76119
X57.48788 Y42.34280
G04 P0 ( dwell for no time -- G64 should not smooth over this point )
G00 Z5.00000 ( retract )

G00 X58.16479 Y43.28946 ( rapid move to begin. )
F300.00000
G01 Z-0.05000
G04 P0 ( dwell for no time -- G64 should not smooth over this point )
F600.00000
G01 X58.16479 Y43.28946
X58.15747 Y43.26721
X58.39230 Y43.03234
X58.48960 Y43.07331
X58.68935 Y43.11349
X58.89301 Y43.11133
X59.07195 Y43.07331
X59.16918 Y43.03236
X59.40405 Y43.26719
X59.39862 Y43.28372
X58.98023 Y43.43622
X58.46519 Y43.41390
X58.16479 Y43.28946
G04 P0 ( dwell for no time -- G64 should not smooth over this point )
G00 Z5.00000 ( retract )

G00 X60.05132 Y42.45891 ( rapid move to begin. )
F300.00000
G01 Z-0.05000
G04 P0 ( dwell for no time -- G64 should not smooth over this point )
F600.00000
G01 X60.05132 Y42.45891
X59.92689 Y42.75926
X59.90464 Y42.76660
X59.67304 Y42.53503
X59.73174 Y42.35614
X59.75521 Y42.15378
X59.73608 Y41.95096
X59.67304 Y41.75167
X59.90461 Y41.52005
X59.92115 Y41.52548
X60.07365 Y41.94387
X60.05132 Y42.45891
G04 P0 ( dwell for no time -- G64 should not smooth over this point )
G00 Z5.00000 ( retract )

G00 X58.16479 Y29.78946 ( rapid move to begin. )
F300.00000
G01 Z-0.05000
G04 P0 ( dwell for no time -- G64 should not smooth over this point )
F600.00000
G01 X58.16479 Y29.78946
X58.15747 Y29.76721
X58.39230 Y29.53234
X58.48960 Y29.57331
X58.68935 Y29.61349
X58.89301 Y29.61133
X59.07195 Y29.57331
X59.16918 Y29.53236
X59.40405 Y29.76719
X59.39862 Y29.78372
X58.98023 Y29.93622
X58.46519 Y29.91390
X58.16479 Y29.78946
G04 P0 ( dwell for no time -- G64 should not smooth over this point )
G00 Z5.00000 ( retract )

G00 X57.48788 Y28.84280 ( rapid move to begin. )
F300.00000
G01 Z-0.05000
G04 P0 ( dwell for no time -- G64 should not smooth over this point )
F600.00000
G01 X57.48788 Y28.84280
X57.51021 Y28.32777
X57.63464 Y28.02739
X57.65686 Y28.02007
X57.88851 Y28.25167
X57.82981 Y28.43051
X57.80634 Y28.63287
X57.82547 Y28.83569
X57.88851 Y29.03496
X57.65689 Y29.26660
X57.64038 Y29.26119
X57.48788 Y28.84280
G04 P0 ( dwell for no time -- G64 should not smooth over this point )
G00 Z5.00000 ( retract )

G00 X58.58130 Y27.35045 ( rapid move to begin. )
F300.00000
G01 Z-0.05000
G04 P0 ( dwell for no time -- G64 should not smooth over this point )
F600.00000
G01 X58.58130 Y27.35045
X59.09633 Y27.37278
X59.39669 Y27.49721
X59.40403 Y27.51946
X59.16926 Y27.75429
X59.07195 Y27.71334
X58.89301 Y27.67532
X58.68935 Y27.67313
X58.48960 Y27.71334
X58.39232 Y27.75431
X58.15745 Y27.51949
X58.16288 Y27.50295
X58.58130 Y27.35045
G04 P0 ( dwell for no time -- G64 should not smooth over this point )
G00 Z5.00000 ( retract )

G00 X59.67304 Y28.25167 ( rapid move to begin. )
F300.00000
G01 Z-0.05000
G04 P0 ( dwell for no time -- G64 should not smooth over this point )
F600.00000
G01 X59.67304 Y28.25167
X59.90461 Y28.02005
X59.92115 Y28.02548
X60.07365 Y28.44387
X60.05132 Y28.95891
X59.92689 Y29.25926
X59.90464 Y29.26660
X59.67304 Y29.03503
X59.73174 Y28.85614
X59.75521 Y28.65378
X59.73608 Y28.45096
X59.67304 Y28.25167
G04 P0 ( dwell for no time -- G64 should not smooth over this point )
G00 Z5.00000 ( retract )

G00 X57.48407 Y24.18046 ( rapid move to begin. )
F300.00000
G01 Z-0.05000
G04 P0 ( dwell for no time -- G64 should not smooth over this point )
F600.00000
G01 X57.48407 Y24.18046
X57.37719 Y23.64335
X57.48402 Y23.10627
X57.78828 Y22.65089
X58.24363 Y22.34663
X58.80317 Y22.23533
X69.25831 Y22.23533
X69.81783 Y22.34658
X70.29222 Y22.66357
X72.62026 Y24.99161
X72.69542 Y25.04106
X72.76654 Y25.05729
X72.86608 Y25.04106
X72.94126 Y24.99161
X74.03423 Y23.89862
X74.50865 Y23.58163
X75.06816 Y23.47032
X98.50332 Y23.47032
X99.06283 Y23.58158
X99.51820 Y23.88584
X99.82247 Y24.34121
X99.92935 Y24.87835
X99.82252 Y25.41541
X99.51825 Y25.87078
X99.06288 Y26.17504
X98.50360 Y26.28632
X75.67702 Y26.29153
X75.56249 Y26.35284
X73.79227 Y28.12305
X73.31787 Y28.44004
X72.78076 Y28.54692
X72.24368 Y28.44009
X71.76928 Y28.12310
X68.76403 Y25.11784
X68.67462 Y25.06328
X68.60355 Y25.05132
X58.80296 Y25.05132
X58.24368 Y24.94009
X57.78834 Y24.63583
X57.48407 Y24.18046
G04 P0 ( dwell for no time -- G64 should not smooth over this point )
G00 Z5.00000 ( retract )

G00 X53.30277 Y20.49553 ( rapid move to begin. )
F300.00000
G01 Z-0.05000
G04 P0 ( dwell for no time -- G64 should not smooth over this point )
F600.00000
G01 X53.30277 Y20.49553
X53.41400 Y19.93627
X53.73099 Y19.46187
X55.52923 Y17.66363
X56.00363 Y17.34664
X56.56319 Y17.23531
X71.75130 Y17.23531
X72.31084 Y17.34659
X72.78523 Y17.66358
X73.30728 Y18.18446
X73.38688 Y18.23041
X73.45803 Y18.24232
X98.27530 Y18.24232
X98.83474 Y18.35357
X99.34614 Y18.69685
X99.43755 Y18.72807
X99.57771 Y18.81824
X99.67080 Y18.95451
X99.71406 Y19.15845
X99.82247 Y19.34122
X99.92935 Y19.87833
X99.82252 Y20.41542
X99.73308 Y20.55288
X99.67603 Y20.79014
X99.58586 Y20.93027
X99.44959 Y21.02339
X99.24566 Y21.06662
X99.06288 Y21.17503
X98.52577 Y21.28191
X97.98866 Y21.17508
X97.85836 Y21.08933
X97.74513 Y21.05831
X72.80296 Y21.05831
X72.24368 Y20.94709
X72.11183 Y20.86690
X71.84993 Y20.81966
X71.70982 Y20.72951
X71.61663 Y20.59314
X71.58432 Y20.46619
X71.53885 Y20.39967
X71.24719 Y20.10919
X71.16761 Y20.06327
X71.09654 Y20.05131
X57.17203 Y20.05651
X57.05750 Y20.11783
X56.18527 Y20.99006
X56.12395 Y21.10467
X56.11879 Y26.80087
X56.00752 Y27.36041
X55.70325 Y27.81578
X55.24788 Y28.12005
X54.71077 Y28.22693
X54.17369 Y28.12010
X53.71832 Y27.81583
X53.41405 Y27.36046
X53.30277 Y26.80115
X53.30277 Y20.49553
G04 P0 ( dwell for no time -- G64 should not smooth over this point )
G00 Z5.00000 ( retract )

G00 X58.16479 Y16.28946 ( rapid move to begin. )
F300.00000
G01 Z-0.05000
G04 P0 ( dwell for no time -- G64 should not smooth over this point )
F600.00000
G01 X58.16479 Y16.28946
X58.15747 Y16.26721
X58.39230 Y16.03234
X58.48960 Y16.07331
X58.68935 Y16.11349
X58.89301 Y16.11133
X59.07195 Y16.07331
X59.16918 Y16.03237
X59.40405 Y16.26719
X59.39862 Y16.28372
X58.98023 Y16.43623
X58.46519 Y16.41390
X58.16479 Y16.28946
G04 P0 ( dwell for no time -- G64 should not smooth over this point )
G00 Z5.00000 ( retract )

G00 X57.51021 Y14.82777 ( rapid move to begin. )
F300.00000
G01 Z-0.05000
G04 P0 ( dwell for no time -- G64 should not smooth over this point )
F600.00000
G01 X57.51021 Y14.82777
X57.63464 Y14.52739
X57.65686 Y14.52008
X57.88851 Y14.75167
X57.82981 Y14.93051
X57.80634 Y15.13288
X57.82547 Y15.33569
X57.88851 Y15.53496
X57.65689 Y15.76661
X57.64038 Y15.76120
X57.48788 Y15.34281
X57.51021 Y14.82777
G04 P0 ( dwell for no time -- G64 should not smooth over this point )
G00 Z5.00000 ( retract )

G00 X58.15745 Y14.01949 ( rapid move to begin. )
F300.00000
G01 Z-0.05000
G04 P0 ( dwell for no time -- G64 should not smooth over this point )
F600.00000
G01 X58.15745 Y14.01949
X58.16288 Y14.00296
X58.58130 Y13.85045
X59.09633 Y13.87278
X59.39669 Y13.99722
X59.40403 Y14.01947
X59.16926 Y14.25429
X59.07195 Y14.21334
X58.89301 Y14.17532
X58.68935 Y14.17314
X58.48960 Y14.21334
X58.39232 Y14.25431
X58.15745 Y14.01949
G04 P0 ( dwell for no time -- G64 should not smooth over this point )
G00 Z5.00000 ( retract )

G00 X60.07365 Y14.94387 ( rapid move to begin. )
F300.00000
G01 Z-0.05000
G04 P0 ( dwell for no time -- G64 should not smooth over this point )
F600.00000
G01 X60.07365 Y14.94387
X60.05132 Y15.45891
X59.92689 Y15.75926
X59.90464 Y15.76661
X59.67304 Y15.53503
X59.73174 Y15.35614
X59.75521 Y15.15378
X59.73608 Y14.95096
X59.67304 Y14.75167
X59.90461 Y14.52005
X59.92115 Y14.52549
X60.07365 Y14.94387
G04 P0 ( dwell for no time -- G64 should not smooth over this point )
G00 Z5.00000 ( retract )

G00 X62.30296 Y15.05132 ( rapid move to begin. )
F300.00000
G01 Z-0.05000
G04 P0 ( dwell for no time -- G64 should not smooth over this point )
F600.00000
G01 X62.30296 Y15.05132
X61.74370 Y14.94009
X61.26928 Y14.62310
X57.80104 Y11.15485
X57.48407 Y10.68046
X57.37719 Y10.14335
X57.48402 Y9.60627
X57.78828 Y9.15090
X58.24363 Y8.84663
X58.78076 Y8.73975
X59.31782 Y8.84658
X59.79222 Y9.16357
X62.79749 Y12.16885
X62.85624 Y12.21073
X62.95802 Y12.23532
X85.61658 Y12.23448
X85.70525 Y12.21073
X85.76402 Y12.16885
X87.36923 Y10.56362
X87.84365 Y10.24663
X88.40316 Y10.13532
X98.50332 Y10.13532
X99.06283 Y10.24658
X99.51820 Y10.55084
X99.82247 Y11.00621
X99.92935 Y11.54335
X99.82252 Y12.08041
X99.51825 Y12.53578
X99.06288 Y12.84004
X98.50360 Y12.95132
X89.01202 Y12.95653
X88.89749 Y13.01784
X87.29226 Y14.62305
X86.81787 Y14.94004
X86.25859 Y15.05132
X62.30296 Y15.05132
G04 P0 ( dwell for no time -- G64 should not smooth over this point )
G00 Z5.00000 ( retract )

G00 X62.73633 Y12.54332 ( rapid move to begin. )
F300.00000
G01 Z-0.05000
G04 P0 ( dwell for no time -- G64 should not smooth over this point )
F600.00000
G01 X62.73633 Y12.54332
X59.55856 Y9.36555
X59.37081 Y9.21559
X59.16499 Y9.11318
X58.94244 Y9.05580
X58.71277 Y9.04594
X58.48610 Y9.08407
X58.29093 Y9.15900
X58.09700 Y9.28232
X57.93291 Y9.44333
X57.80589 Y9.63492
X57.71607 Y9.86888
X57.68336 Y10.07535
X57.69321 Y10.30502
X57.75808 Y10.54711
X57.86438 Y10.75092
X57.99595 Y10.91338
X61.50296 Y14.42114
X61.74248 Y14.60176
X62.00890 Y14.70842
X62.28078 Y14.74332
X86.29382 Y14.74248
X86.57784 Y14.70166
X86.81901 Y14.60176
X87.04873 Y14.42978
X88.83638 Y12.64332
X98.52580 Y12.64332
X98.74413 Y12.62094
X98.98251 Y12.54350
X99.18048 Y12.42666
X99.34982 Y12.27126
X99.47271 Y12.10212
X99.56819 Y11.89303
X99.61810 Y11.66867
X99.62031 Y11.43880
X99.57464 Y11.21355
X99.48315 Y11.00266
X99.33583 Y10.79991
X99.16356 Y10.64774
X98.96341 Y10.53469
X98.76458 Y10.47010
X98.53623 Y10.44388
X88.38078 Y10.44332
X88.08365 Y10.48503
X87.84248 Y10.58493
X87.61279 Y10.75691
X85.82519 Y12.54332
X62.73633 Y12.54332
G04 P0 ( dwell for no time -- G64 should not smooth over this point )
G00 Z5.00000 ( retract )

G00 X73.23634 Y18.55032 ( rapid move to begin. )
F300.00000
G01 Z-0.05000
G04 P0 ( dwell for no time -- G64 should not smooth over this point )
F600.00000
G01 X73.23634 Y18.55032
X72.55155 Y17.86553
X72.33461 Y17.69797
X72.07081 Y17.58502
X71.77378 Y17.54331
X56.54079 Y17.54331
X56.26886 Y17.57826
X56.00249 Y17.68492
X55.76296 Y17.86553
X53.93297 Y19.69553
X53.75235 Y19.93508
X53.64570 Y20.20147
X53.61080 Y20.47330
X53.61080 Y26.82330
X53.63752 Y27.06214
X53.71062 Y27.28007
X53.82746 Y27.47804
X53.98286 Y27.64738
X54.15200 Y27.77026
X54.38098 Y27.87219
X54.58545 Y27.91565
X54.81532 Y27.91784
X55.06045 Y27.86574
X55.26957 Y27.77024
X55.45420 Y27.63338
X55.59408 Y27.47804
X55.71943 Y27.26097
X55.78836 Y27.04169
X55.81079 Y26.82330
X55.81079 Y20.92890
X56.99639 Y19.74331
X71.31813 Y19.74331
X71.89974 Y20.32491
X71.90223 Y20.45364
X71.93738 Y20.50957
X71.99974 Y20.53137
X72.13603 Y20.53137
X72.24248 Y20.60876
X72.48368 Y20.70866
X72.78079 Y20.75031
X97.86334 Y20.75031
X97.93578 Y20.80614
X98.14159 Y20.90851
X98.36417 Y20.96588
X98.57294 Y20.97681
X98.82049 Y20.93759
X99.01566 Y20.86266
X99.20801 Y20.74031
X99.31005 Y20.73782
X99.35013 Y20.71851
X99.38528 Y20.66258
X99.38779 Y20.56058
X99.51015 Y20.36812
X99.58508 Y20.17295
X99.62318 Y19.94625
X99.61330 Y19.71661
X99.55592 Y19.49406
X99.45350 Y19.28824
X99.38779 Y19.20366
X99.38528 Y19.09406
X99.36598 Y19.05398
X99.31005 Y19.01882
X99.21939 Y19.01631
X99.06570 Y18.86386
X98.83598 Y18.69190
X98.56961 Y18.58527
X98.29778 Y18.55032
X73.23634 Y18.55032
G04 P0 ( dwell for no time -- G64 should not smooth over this point )
G00 Z5.00000 ( retract )

G00 X75.50138 Y25.97832 ( rapid move to begin. )
F300.00000
G01 Z-0.05000
G04 P0 ( dwell for no time -- G64 should not smooth over this point )
F600.00000
G01 X75.50138 Y25.97832
X98.52580 Y25.97832
X98.74413 Y25.95594
X98.96341 Y25.88701
X99.16356 Y25.77395
X99.33583 Y25.62178
X99.47271 Y25.43712
X99.56819 Y25.22803
X99.61810 Y25.00367
X99.62031 Y24.77380
X99.57464 Y24.54855
X99.48315 Y24.33766
X99.33583 Y24.13491
X99.16356 Y23.98274
X98.96341 Y23.86969
X98.74413 Y23.80075
X98.52580 Y23.77832
X75.04578 Y23.77832
X74.74865 Y23.82003
X74.50748 Y23.91993
X74.27779 Y24.09191
X72.78079 Y25.58777
X70.05857 Y22.86555
X69.81902 Y22.68493
X69.55262 Y22.57828
X69.28079 Y22.54333
X58.77032 Y22.54388
X58.54195 Y22.57010
X58.34312 Y22.63469
X58.12605 Y22.76004
X57.95674 Y22.91544
X57.82339 Y23.10266
X57.73835 Y23.29367
X57.68844 Y23.51803
X57.68625 Y23.74787
X57.73190 Y23.97314
X57.82339 Y24.18401
X57.95671 Y24.37126
X58.12605 Y24.52666
X58.32402 Y24.64350
X58.56240 Y24.72094
X58.78079 Y24.74332
X68.82514 Y24.74332
X72.00296 Y27.92114
X72.20532 Y28.08017
X72.40708 Y28.17732
X72.64652 Y28.23455
X72.91498 Y28.23455
X73.15442 Y28.17732
X73.37512 Y28.06826
X73.55856 Y27.92114
X75.50138 Y25.97832
G04 P0 ( dwell for no time -- G64 should not smooth over this point )
G00 Z5.00000 ( retract )

G00 X79.32512 Y38.24332 ( rapid move to begin. )
F300.00000
G01 Z-0.05000
G04 P0 ( dwell for no time -- G64 should not smooth over this point )
F600.00000
G01 X79.32512 Y38.24332
X84.00296 Y42.92114
X84.21988 Y43.08870
X84.48368 Y43.20165
X84.78079 Y43.24331
X94.59578 Y43.24331
X94.86761 Y43.20841
X95.13401 Y43.10176
X95.37355 Y42.92114
X99.30357 Y38.99115
X99.44215 Y38.82097
X99.54845 Y38.61713
X99.61004 Y38.39569
X99.62427 Y38.16628
X99.59046 Y37.93888
X99.50065 Y37.70492
X99.37362 Y37.51335
X99.20956 Y37.35236
X99.03425 Y37.23850
X98.82046 Y37.15407
X98.57289 Y37.11485
X98.36410 Y37.12580
X98.14154 Y37.18317
X97.93575 Y37.28559
X97.74797 Y37.43552
X94.14021 Y41.04331
X85.23634 Y41.04331
X80.55855 Y36.36555
X80.31900 Y36.18493
X80.05260 Y36.07827
X79.78077 Y36.04332
X58.78079 Y36.04332
X58.56240 Y36.06575
X58.34312 Y36.13469
X58.14297 Y36.24774
X57.97071 Y36.39991
X57.82339 Y36.60266
X57.73190 Y36.81355
X57.68625 Y37.03880
X57.68844 Y37.26867
X57.73835 Y37.49303
X57.83383 Y37.70212
X57.95671 Y37.87126
X58.12605 Y38.02666
X58.32402 Y38.14350
X58.54195 Y38.21660
X58.77032 Y38.24279
X79.32512 Y38.24332

G04 P0 ( dwell for no time -- G64 should not smooth over this point )
G00 Z10.000 ( retract )

M5 ( Spindle off. )
M9 ( Coolant off. )
M2 ( Program end. )

