( pcb2gcode 1.3.2 )
( Software-independent Gcode )

G94 ( Millimeters per minute feed rate. )
G21 ( Units == Millimeters. )

G90 ( Absolute coordinates. )
S10000 ( RPM spindle speed. )
G64 P0.01000 ( set maximum deviation from commanded toolpath )
F600.00000 ( Feedrate. )

F600.00000 ( Feedrate. )
M3 ( Spindle on clockwise. )
G04 P0 ( dwell for no time -- G64 should not smooth over this point )
G00 Z5.00000 ( retract )

G00 X1.45858 Y0.10331 ( rapid move to begin. )
G01 Z-2.50000 F300.00000 ( plunge. )
G04 P0 ( dwell for no time -- G64 should not smooth over this point )
F600.00000
G01 X1.45858 Y0.10331
X1.42802 Y0.06933
X1.37074 Y0.05140
X1.31232 Y0.07040
X1.28195 Y0.10331
X0.19389 Y0.10685
X0.09312 Y0.16580
X0.06617 Y0.20870
X0.05081 Y0.28030
X0.05081 Y48.28630
X0.07103 Y48.36801
X0.14608 Y48.44307
X0.22780 Y48.46329
X50.11580 Y48.46329
Z-0.60000
X50.41580 Y48.46329
Z-2.50000 F300.00000
F600.00000
G01 X100.30380 Y48.46329
X100.38546 Y48.44307
X100.46051 Y48.36801
X100.48078 Y48.28630
X100.48078 Y0.28030
X100.45259 Y0.18533
X100.38264 Y0.12239
X100.30380 Y0.10331
X51.03119 Y0.10331
Z-0.60000
X50.73119 Y0.10331
Z-2.50000 F300.00000
F600.00000
G01 X1.45858 Y0.10331

G04 P0 ( dwell for no time -- G64 should not smooth over this point )
G00 Z10.000 ( retract )

M5 ( Spindle off. )
M9 ( Coolant off. )
M2 ( Program end. )

