( pcb2gcode 1.3.2 )
( Software-independent Gcode )

( This file uses only one drill bit. Forced by 'onedrill' option )

G94       (Millimeters per minute feed rate.)
G21       (Units == Millimeters.)
G91.1     (Incremental arc distance mode.)
G90       (Absolute coordinates.)
S10000     (RPM spindle speed.)

G00 Z10.00000 (Retract)
T1
M5      (Spindle stop.)
(MSG, Change tool bit to drill size 0.81300 mm)
M6      (Tool change.)
M0      (Temporary machine stop.)
M3      (Spindle on clockwise.)
G0 Z5.00000

F1000.00000
G0 X4.50880 Y4.80530
G1 Z-1.60000
G1 Z5.00000
G0 X4.50880 Y9.80530
G1 Z-1.60000
G1 Z5.00000
G0 X4.50880 Y14.80530
G1 Z-1.60000
G1 Z5.00000
G0 X4.63580 Y18.68830
G1 Z-1.60000
G1 Z5.00000
G0 X4.63580 Y23.68830
G1 Z-1.60000
G1 Z5.00000
G0 X4.63580 Y28.68830
G1 Z-1.60000
G1 Z5.00000
G0 X9.02080 Y28.64330
G1 Z-1.60000
G1 Z5.00000
G0 X9.52080 Y23.64330
G1 Z-1.60000
G1 Z5.00000
G0 X9.02080 Y33.64330
G1 Z-1.60000
G1 Z5.00000
G0 X4.63580 Y33.68830
G1 Z-1.60000
G1 Z5.00000
G0 X19.18080 Y33.64330
G1 Z-1.60000
G1 Z5.00000
G0 X23.02080 Y33.66330
G1 Z-1.60000
G1 Z5.00000
G0 X23.02080 Y31.12330
G1 Z-1.60000
G1 Z5.00000
G0 X23.02080 Y28.16330
G1 Z-1.60000
G1 Z5.00000
G0 X23.02080 Y25.62330
G1 Z-1.60000
G1 Z5.00000
G0 X23.02080 Y22.66330
G1 Z-1.60000
G1 Z5.00000
G0 X23.02080 Y20.12330
G1 Z-1.60000
G1 Z5.00000
G0 X19.68080 Y23.64330
G1 Z-1.60000
G1 Z5.00000
G0 X19.18080 Y28.64330
G1 Z-1.60000
G1 Z5.00000
G0 X33.18080 Y28.16330
G1 Z-1.60000
G1 Z5.00000
G0 X33.18080 Y25.62330
G1 Z-1.60000
G1 Z5.00000
G0 X33.18080 Y22.66330
G1 Z-1.60000
G1 Z5.00000
G0 X33.18080 Y20.12330
G1 Z-1.60000
G1 Z5.00000
G0 X37.02080 Y22.64330
G1 Z-1.60000
G1 Z5.00000
G0 X37.02080 Y28.14330
G1 Z-1.60000
G1 Z5.00000
G0 X33.18080 Y31.12330
G1 Z-1.60000
G1 Z5.00000
G0 X33.18080 Y33.66330
G1 Z-1.60000
G1 Z5.00000
G0 X36.52080 Y33.64330
G1 Z-1.60000
G1 Z5.00000
G0 X46.68080 Y33.64330
G1 Z-1.60000
G1 Z5.00000
G0 X51.60080 Y33.64330
G1 Z-1.60000
G1 Z5.00000
G0 X51.60080 Y30.64330
G1 Z-1.60000
G1 Z5.00000
G0 X51.60080 Y25.64330
G1 Z-1.60000
G1 Z5.00000
G0 X51.60080 Y20.64330
G1 Z-1.60000
G1 Z5.00000
G0 X51.60080 Y17.14330
G1 Z-1.60000
G1 Z5.00000
G0 X51.60080 Y12.14330
G1 Z-1.60000
G1 Z5.00000
G0 X51.60080 Y7.14330
G1 Z-1.60000
G1 Z5.00000
G0 X47.18080 Y22.64330
G1 Z-1.60000
G1 Z5.00000
G0 X47.18080 Y28.14330
G1 Z-1.60000
G1 Z5.00000
G0 X51.60080 Y38.64330
G1 Z-1.60000
G1 Z5.00000
G0 X51.60080 Y43.64330
G1 Z-1.60000
G1 Z5.00000
G0 X63.10080 Y27.64330
G1 Z-1.60000
G1 Z5.00000
G0 X63.10080 Y20.15030
G1 Z-1.60000
G1 Z5.00000
G0 X76.60080 Y14.14330
G1 Z-1.60000
G1 Z5.00000
G0 X76.60080 Y6.65030
G1 Z-1.60000
G1 Z5.00000
G0 X88.10080 Y8.14330
G1 Z-1.60000
G1 Z5.00000
G0 X88.10080 Y13.14330
G1 Z-1.60000
G1 Z5.00000
G0 X88.10080 Y20.64330
G1 Z-1.60000
G1 Z5.00000
G0 X88.10080 Y25.64330
G1 Z-1.60000
G1 Z5.00000
G0 X88.10080 Y34.64330
G1 Z-1.60000
G1 Z5.00000
G0 X88.10080 Y39.64330
G1 Z-1.60000
G1 Z5.00000
G0 X76.60080 Y41.14330
G1 Z-1.60000
G1 Z5.00000
G0 X76.60080 Y33.65030
G1 Z-1.60000
G1 Z5.00000

G00 Z10.000 ( All done -- retract )

M5      (Spindle off.)
M9      (Coolant off.)
M2      (Program end.)

