( pcb2gcode 1.3.2 )
( Software-independent Gcode )

G94 ( Millimeters per minute feed rate. )
G21 ( Units == Millimeters. )

G90 ( Absolute coordinates. )
S10000 ( RPM spindle speed. )
G64 P0.01000 ( set maximum deviation from commanded toolpath )
F600.00000 ( Feedrate. )

F600.00000 ( Feedrate. )
M3 ( Spindle on clockwise. )
G04 P0 ( dwell for no time -- G64 should not smooth over this point )
G00 Z5.00000 ( retract )

G00 X1.23934 Y39.63288 ( rapid move to begin. )
F300.00000
G01 Z-0.05000
G04 P0 ( dwell for no time -- G64 should not smooth over this point )
F600.00000
G01 X1.23934 Y39.63288
X1.26034 Y39.45401
X1.31808 Y39.28340
X1.41002 Y39.12853
X1.53215 Y38.99615
X1.66100 Y38.90253
X1.82465 Y38.82729
X2.00037 Y38.78772
X2.18041 Y38.78551
X2.35704 Y38.82084
X2.52244 Y38.89209
X2.66941 Y38.99615
X2.79156 Y39.12853
X2.89201 Y39.30250
X2.94558 Y39.47446
X2.96224 Y39.65378
X2.94124 Y39.83265
X2.88350 Y40.00326
X2.79156 Y40.15812
X2.66943 Y40.29051
X2.54058 Y40.38413
X2.37693 Y40.45937
X2.20121 Y40.49894
X2.02115 Y40.50113
X1.84454 Y40.46582
X1.67914 Y40.39457
X1.53217 Y40.29051
X1.41002 Y40.15812
X1.30957 Y39.98416
X1.25600 Y39.81220
X1.23934 Y39.63288
G04 P0 ( dwell for no time -- G64 should not smooth over this point )
G00 Z5.00000 ( retract )

G00 X1.86923 Y38.47306 ( rapid move to begin. )
F300.00000
G01 Z-0.05000
G04 P0 ( dwell for no time -- G64 should not smooth over this point )
F600.00000
G01 X1.86923 Y38.47306
X1.43895 Y38.65086
X1.10952 Y38.97969
X0.93101 Y39.40966
X0.93052 Y39.87491
X1.10832 Y40.30519
X1.43715 Y40.63460
X1.86712 Y40.81311
X2.33240 Y40.81360
X2.76265 Y40.63582
X3.09206 Y40.30699
X3.27057 Y39.87702
X3.27106 Y39.41174
X3.09328 Y38.98149
X2.76445 Y38.65206
X2.33448 Y38.47355
X1.86923 Y38.47306
G04 P0 ( dwell for no time -- G64 should not smooth over this point )
G00 Z5.00000 ( retract )

G00 X0.95049 Y35.55511 ( rapid move to begin. )
F300.00000
G01 Z-0.05000
G04 P0 ( dwell for no time -- G64 should not smooth over this point )
F600.00000
G01 X0.95049 Y35.55511
X1.04068 Y35.69527
X1.17698 Y35.78838
X1.36141 Y35.82575
X2.84175 Y35.82575
X3.01259 Y35.79362
X3.15269 Y35.70347
X3.24586 Y35.56710
X3.28322 Y35.38275
X3.28322 Y33.90243
X3.25107 Y33.73154
X3.16090 Y33.59139
X3.02463 Y33.49829
X2.83997 Y33.46088
X1.36011 Y33.46088
X1.18899 Y33.49306
X1.04886 Y33.58323
X0.95575 Y33.71953
X0.91833 Y33.90419
X0.91833 Y35.38404
X0.95049 Y35.55511
G04 P0 ( dwell for no time -- G64 should not smooth over this point )
G00 Z5.00000 ( retract )

G00 X2.96278 Y33.88133 ( rapid move to begin. )
F300.00000
G01 Z-0.05000
G04 P0 ( dwell for no time -- G64 should not smooth over this point )
F600.00000
G01 X2.96278 Y33.88133
X2.96278 Y35.40533
X2.92513 Y35.48353
X2.86278 Y35.50533
X1.33878 Y35.50533
X1.26060 Y35.46768
X1.23878 Y35.40533
X1.23878 Y33.88133
X1.27645 Y33.80315
X1.33878 Y33.78133
X2.86278 Y33.78133
X2.92513 Y33.80315
X2.96278 Y33.88133
G04 P0 ( dwell for no time -- G64 should not smooth over this point )
G00 Z5.00000 ( retract )

G00 X1.43715 Y26.63461 ( rapid move to begin. )
F300.00000
G01 Z-0.05000
G04 P0 ( dwell for no time -- G64 should not smooth over this point )
F600.00000
G01 X1.43715 Y26.63461
X1.86712 Y26.81312
X2.33240 Y26.81360
X2.76265 Y26.63582
X3.09206 Y26.30697
X3.27057 Y25.87702
X3.27106 Y25.41175
X3.09328 Y24.98150
X2.76445 Y24.65206
X2.33448 Y24.47355
X1.86923 Y24.47307
X1.43895 Y24.65087
X1.10952 Y24.97969
X0.93101 Y25.40966
X0.93052 Y25.87492
X1.10832 Y26.30519
X1.43715 Y26.63461
G04 P0 ( dwell for no time -- G64 should not smooth over this point )
G00 Z5.00000 ( retract )

G00 X1.23934 Y25.63288 ( rapid move to begin. )
F300.00000
G01 Z-0.05000
G04 P0 ( dwell for no time -- G64 should not smooth over this point )
F600.00000
G01 X1.23934 Y25.63288
X1.26034 Y25.45401
X1.31808 Y25.28340
X1.41002 Y25.12854
X1.53215 Y24.99615
X1.66100 Y24.90253
X1.82465 Y24.82729
X2.00037 Y24.78772
X2.18041 Y24.78551
X2.35704 Y24.82084
X2.52244 Y24.89209
X2.66941 Y24.99615
X2.79156 Y25.12854
X2.89201 Y25.30250
X2.94558 Y25.47446
X2.96224 Y25.65378
X2.94124 Y25.83265
X2.88350 Y26.00326
X2.79156 Y26.15813
X2.66943 Y26.29051
X2.54058 Y26.38414
X2.37693 Y26.45937
X2.20121 Y26.49894
X2.02115 Y26.50113
X1.84454 Y26.46582
X1.67914 Y26.39458
X1.53217 Y26.29051
X1.41002 Y26.15813
X1.30957 Y25.98416
X1.25600 Y25.81220
X1.23934 Y25.63288
G04 P0 ( dwell for no time -- G64 should not smooth over this point )
G00 Z5.00000 ( retract )

G00 X0.91833 Y19.90416 ( rapid move to begin. )
F300.00000
G01 Z-0.05000
G04 P0 ( dwell for no time -- G64 should not smooth over this point )
F600.00000
G01 X0.91833 Y19.90416
X0.91833 Y21.38402
X0.95049 Y21.55511
X1.04068 Y21.69527
X1.17698 Y21.78839
X1.36141 Y21.82575
X2.84175 Y21.82575
X3.01259 Y21.79362
X3.15269 Y21.70347
X3.24586 Y21.56710
X3.28322 Y21.38272
X3.28322 Y19.90244
X3.25107 Y19.73155
X3.16090 Y19.59139
X3.02463 Y19.49830
X2.83997 Y19.46088
X1.36011 Y19.46088
X1.18902 Y19.49304
X1.04891 Y19.58321
X0.95572 Y19.71958
X0.91833 Y19.90416
G04 P0 ( dwell for no time -- G64 should not smooth over this point )
G00 Z5.00000 ( retract )

G00 X2.96278 Y19.88130 ( rapid move to begin. )
F300.00000
G01 Z-0.05000
G04 P0 ( dwell for no time -- G64 should not smooth over this point )
F600.00000
G01 X2.96278 Y19.88130
X2.96278 Y21.40530
X2.92513 Y21.48351
X2.86278 Y21.50530
X1.33878 Y21.50530
X1.26060 Y21.46766
X1.23878 Y21.40530
X1.23878 Y19.88130
X1.27645 Y19.80312
X1.33878 Y19.78130
X2.86278 Y19.78130
X2.92513 Y19.80312
X2.96278 Y19.88130
G04 P0 ( dwell for no time -- G64 should not smooth over this point )
G00 Z5.00000 ( retract )

G00 X1.23934 Y13.13288 ( rapid move to begin. )
F300.00000
G01 Z-0.05000
G04 P0 ( dwell for no time -- G64 should not smooth over this point )
F600.00000
G01 X1.23934 Y13.13288
X1.26034 Y12.95401
X1.31808 Y12.78340
X1.41002 Y12.62854
X1.53215 Y12.49615
X1.66100 Y12.40253
X1.82465 Y12.32729
X2.00037 Y12.28772
X2.18041 Y12.28551
X2.35704 Y12.32084
X2.52244 Y12.39209
X2.66941 Y12.49615
X2.79156 Y12.62854
X2.89201 Y12.80250
X2.94558 Y12.97446
X2.96224 Y13.15378
X2.94124 Y13.33265
X2.88350 Y13.50326
X2.79156 Y13.65813
X2.66943 Y13.79051
X2.54058 Y13.88414
X2.37693 Y13.95937
X2.20121 Y13.99894
X2.02115 Y14.00113
X1.84454 Y13.96582
X1.67914 Y13.89457
X1.53217 Y13.79051
X1.41002 Y13.65813
X1.30957 Y13.48416
X1.25600 Y13.31220
X1.23934 Y13.13288
G04 P0 ( dwell for no time -- G64 should not smooth over this point )
G00 Z5.00000 ( retract )

G00 X1.43895 Y12.15086 ( rapid move to begin. )
F300.00000
G01 Z-0.05000
G04 P0 ( dwell for no time -- G64 should not smooth over this point )
F600.00000
G01 X1.43895 Y12.15086
X1.10952 Y12.47969
X0.93101 Y12.90966
X0.93052 Y13.37492
X1.10832 Y13.80519
X1.43715 Y14.13460
X1.86712 Y14.31312
X2.33240 Y14.31360
X2.76265 Y14.13582
X3.09206 Y13.80697
X3.27057 Y13.37702
X3.27106 Y12.91175
X3.09328 Y12.48150
X2.76445 Y12.15206
X2.33448 Y11.97355
X1.86923 Y11.97306
X1.43895 Y12.15086
G04 P0 ( dwell for no time -- G64 should not smooth over this point )
G00 Z5.00000 ( retract )

G00 X1.17698 Y9.28839 ( rapid move to begin. )
F300.00000
G01 Z-0.05000
G04 P0 ( dwell for no time -- G64 should not smooth over this point )
F600.00000
G01 X1.17698 Y9.28839
X1.36141 Y9.32575
X2.84175 Y9.32575
X3.01259 Y9.29362
X3.15269 Y9.20347
X3.24586 Y9.06710
X3.28322 Y8.88272
X3.28322 Y7.40244
X3.25107 Y7.23155
X3.16090 Y7.09139
X3.02463 Y6.99830
X2.83997 Y6.96088
X1.36011 Y6.96088
X1.18902 Y6.99304
X1.04891 Y7.08321
X0.95572 Y7.21958
X0.91833 Y7.40416
X0.91833 Y8.88402
X0.95049 Y9.05511
X1.04068 Y9.19527
X1.17698 Y9.28839
G04 P0 ( dwell for no time -- G64 should not smooth over this point )
G00 Z5.00000 ( retract )

G00 X2.96278 Y7.38130 ( rapid move to begin. )
F300.00000
G01 Z-0.05000
G04 P0 ( dwell for no time -- G64 should not smooth over this point )
F600.00000
G01 X2.96278 Y7.38130
X2.96278 Y8.90530
X2.92513 Y8.98351
X2.86278 Y9.00530
X1.33878 Y9.00530
X1.26060 Y8.96766
X1.23878 Y8.90530
X1.23878 Y7.38130
X1.27645 Y7.30312
X1.33878 Y7.28130
X2.86278 Y7.28130
X2.92513 Y7.30312
X2.96278 Y7.38130
G04 P0 ( dwell for no time -- G64 should not smooth over this point )
G00 Z5.00000 ( retract )

G00 X12.39928 Y5.89213 ( rapid move to begin. )
F300.00000
G01 Z-0.05000
G04 P0 ( dwell for no time -- G64 should not smooth over this point )
F600.00000
G01 X12.39928 Y5.89213
X12.39928 Y7.41008
X12.43144 Y7.58115
X12.52164 Y7.72128
X12.65798 Y7.81445
X12.84236 Y7.85181
X14.36075 Y7.85181
X14.53164 Y7.81966
X14.67180 Y7.72949
X14.76491 Y7.59322
X14.80228 Y7.40879
X14.80228 Y5.89037
X14.77012 Y5.71951
X14.67997 Y5.57940
X14.54360 Y5.48621
X14.35902 Y5.44882
X12.84107 Y5.44882
X12.67002 Y5.48098
X12.52986 Y5.57120
X12.43667 Y5.70755
X12.39928 Y5.89213
G04 P0 ( dwell for no time -- G64 should not smooth over this point )
G00 Z5.00000 ( retract )

G00 X14.48183 Y5.86927 ( rapid move to begin. )
F300.00000
G01 Z-0.05000
G04 P0 ( dwell for no time -- G64 should not smooth over this point )
F600.00000
G01 X14.48183 Y5.86927
X14.48183 Y7.43137
X14.44419 Y7.50957
X14.38183 Y7.53137
X12.81973 Y7.53137
X12.74155 Y7.49372
X12.71973 Y7.43137
X12.71973 Y5.86927
X12.75740 Y5.79109
X12.81973 Y5.76927
X14.38183 Y5.76927
X14.44419 Y5.79109
X14.48183 Y5.86927
G04 P0 ( dwell for no time -- G64 should not smooth over this point )
G00 Z5.00000 ( retract )

G00 X12.72029 Y14.13288 ( rapid move to begin. )
F300.00000
G01 Z-0.05000
G04 P0 ( dwell for no time -- G64 should not smooth over this point )
F600.00000
G01 X12.72029 Y14.13288
X12.74170 Y13.95005
X12.79217 Y13.79475
X12.88232 Y13.63425
X13.00388 Y13.49600
X13.15148 Y13.38604
X13.31879 Y13.30918
X13.49837 Y13.26877
X13.68242 Y13.26656
X13.86293 Y13.30273
X14.03197 Y13.37558
X14.18219 Y13.48200
X14.30698 Y13.61733
X14.40091 Y13.77565
X14.45988 Y13.95005
X14.48130 Y14.15378
X14.45988 Y14.33661
X14.40941 Y14.49191
X14.31927 Y14.65241
X14.19771 Y14.79066
X14.05011 Y14.90062
X13.88280 Y14.97748
X13.70322 Y15.01789
X13.51914 Y15.02007
X13.33865 Y14.98393
X13.16961 Y14.91108
X13.01940 Y14.80466
X12.89461 Y14.66933
X12.80068 Y14.51101
X12.74170 Y14.33661
X12.72029 Y14.13288
G04 P0 ( dwell for no time -- G64 should not smooth over this point )
G00 Z5.00000 ( retract )

G00 X12.59217 Y14.81596 ( rapid move to begin. )
F300.00000
G01 Z-0.05000
G04 P0 ( dwell for no time -- G64 should not smooth over this point )
F600.00000
G01 X12.59217 Y14.81596
X12.92636 Y15.15076
X13.36332 Y15.33216
X13.83616 Y15.33267
X14.27342 Y15.15198
X14.60822 Y14.81779
X14.78963 Y14.38083
X14.79011 Y13.90796
X14.60944 Y13.47070
X14.27525 Y13.13593
X13.83830 Y12.95452
X13.36542 Y12.95401
X12.92816 Y13.13471
X12.59334 Y13.46895
X12.41196 Y13.90578
X12.41148 Y14.37870
X12.59217 Y14.81596
G04 P0 ( dwell for no time -- G64 should not smooth over this point )
G00 Z5.00000 ( retract )

G00 X27.98183 Y19.36927 ( rapid move to begin. )
F300.00000
G01 Z-0.05000
G04 P0 ( dwell for no time -- G64 should not smooth over this point )
F600.00000
G01 X27.98183 Y19.36927
X27.98183 Y20.93137
X27.94419 Y21.00957
X27.88183 Y21.03137
X26.31973 Y21.03137
X26.24155 Y20.99372
X26.21973 Y20.93137
X26.21973 Y19.36927
X26.25740 Y19.29108
X26.31973 Y19.26927
X27.88183 Y19.26927
X27.94419 Y19.29108
X27.98183 Y19.36927
G04 P0 ( dwell for no time -- G64 should not smooth over this point )
G00 Z5.00000 ( retract )

G00 X28.27012 Y19.21951 ( rapid move to begin. )
F300.00000
G01 Z-0.05000
G04 P0 ( dwell for no time -- G64 should not smooth over this point )
F600.00000
G01 X28.27012 Y19.21951
X28.17997 Y19.07940
X28.04360 Y18.98621
X27.85902 Y18.94882
X26.34106 Y18.94882
X26.17002 Y18.98098
X26.02986 Y19.07120
X25.93667 Y19.20754
X25.89928 Y19.39213
X25.89928 Y20.91008
X25.93144 Y21.08115
X26.02163 Y21.22128
X26.15798 Y21.31445
X26.34236 Y21.35181
X27.86075 Y21.35181
X28.03164 Y21.31966
X28.17179 Y21.22949
X28.26491 Y21.09321
X28.30227 Y20.90878
X28.30227 Y19.39040
X28.27012 Y19.21951
G04 P0 ( dwell for no time -- G64 should not smooth over this point )
G00 Z5.00000 ( retract )

G00 X28.29011 Y27.40796 ( rapid move to begin. )
F300.00000
G01 Z-0.05000
G04 P0 ( dwell for no time -- G64 should not smooth over this point )
F600.00000
G01 X28.29011 Y27.40796
X28.10944 Y26.97070
X27.77525 Y26.63593
X27.33829 Y26.45452
X26.86542 Y26.45401
X26.42816 Y26.63471
X26.09339 Y26.96889
X25.91198 Y27.40585
X25.91147 Y27.87872
X26.09217 Y28.31598
X26.42636 Y28.65076
X26.86331 Y28.83216
X27.33616 Y28.83267
X27.77342 Y28.65197
X28.10822 Y28.31779
X28.28963 Y27.88083
X28.29011 Y27.40796
G04 P0 ( dwell for no time -- G64 should not smooth over this point )
G00 Z5.00000 ( retract )

G00 X26.22029 Y27.63288 ( rapid move to begin. )
F300.00000
G01 Z-0.05000
G04 P0 ( dwell for no time -- G64 should not smooth over this point )
F600.00000
G01 X26.22029 Y27.63288
X26.24170 Y27.45005
X26.29217 Y27.29475
X26.38231 Y27.13425
X26.50388 Y26.99600
X26.65148 Y26.88604
X26.81879 Y26.80918
X26.99837 Y26.76877
X27.18241 Y26.76656
X27.36293 Y26.80273
X27.53197 Y26.87557
X27.68218 Y26.98200
X27.80697 Y27.11733
X27.90090 Y27.27565
X27.95988 Y27.45005
X27.98129 Y27.65378
X27.95988 Y27.83661
X27.90941 Y27.99190
X27.81927 Y28.15241
X27.69770 Y28.29066
X27.55010 Y28.40062
X27.38279 Y28.47748
X27.20322 Y28.51789
X27.01914 Y28.52007
X26.83865 Y28.48393
X26.66961 Y28.41108
X26.51940 Y28.30466
X26.39461 Y28.16932
X26.30068 Y28.01101
X26.24170 Y27.83661
X26.22029 Y27.63288
G04 P0 ( dwell for no time -- G64 should not smooth over this point )
G00 Z5.00000 ( retract )

G00 X37.62636 Y25.63288 ( rapid move to begin. )
F300.00000
G01 Z-0.05000
G04 P0 ( dwell for no time -- G64 should not smooth over this point )
F600.00000
G01 X37.62636 Y25.63288
X37.64983 Y25.43052
X37.71485 Y25.23745
X37.81861 Y25.06212
X37.95653 Y24.91218
X38.12263 Y24.79422
X38.30962 Y24.71335
X38.50934 Y24.67314
X38.69222 Y24.67314
X38.89197 Y24.71335
X39.07896 Y24.79422
X39.26057 Y24.92618
X39.39527 Y25.07903
X39.49524 Y25.25655
X39.55610 Y25.45097
X39.57523 Y25.65378
X39.55176 Y25.85615
X39.48673 Y26.04921
X39.38297 Y26.22455
X39.24505 Y26.37448
X39.07896 Y26.49244
X38.89197 Y26.57331
X38.71302 Y26.61134
X38.50934 Y26.61350
X38.28973 Y26.56684
X38.10452 Y26.48200
X37.94102 Y26.36049
X37.80632 Y26.20763
X37.70634 Y26.03011
X37.64549 Y25.83570
X37.62636 Y25.63288
G04 P0 ( dwell for no time -- G64 should not smooth over this point )
G00 Z5.00000 ( retract )

G00 X39.68912 Y24.91757 ( rapid move to begin. )
F300.00000
G01 Z-0.05000
G04 P0 ( dwell for no time -- G64 should not smooth over this point )
F600.00000
G01 X39.68912 Y24.91757
X39.32854 Y24.55633
X38.85707 Y24.36057
X38.34686 Y24.36006
X37.87503 Y24.55501
X37.51374 Y24.91566
X37.31800 Y25.38701
X37.31752 Y25.89729
X37.51247 Y26.36912
X37.87307 Y26.73036
X38.34455 Y26.92610
X38.85476 Y26.92663
X39.32659 Y26.73166
X39.68782 Y26.37108
X39.88356 Y25.89961
X39.88409 Y25.38940
X39.68912 Y24.91757
G04 P0 ( dwell for no time -- G64 should not smooth over this point )
G00 Z5.00000 ( retract )

G00 X39.76573 Y21.81645 ( rapid move to begin. )
F300.00000
G01 Z-0.05000
G04 P0 ( dwell for no time -- G64 should not smooth over this point )
F600.00000
G01 X39.76573 Y21.81645
X39.85884 Y21.68016
X39.89621 Y21.49573
X39.89621 Y19.78941
X39.86407 Y19.61854
X39.77390 Y19.47841
X39.63761 Y19.38529
X39.45295 Y19.34788
X37.74711 Y19.34788
X37.57599 Y19.38006
X37.43586 Y19.47023
X37.34274 Y19.60653
X37.30533 Y19.79118
X37.30533 Y21.49702
X37.33749 Y21.66807
X37.42771 Y21.80822
X37.56405 Y21.90142
X37.74838 Y21.93875
X39.45475 Y21.93875
X39.62557 Y21.90665
X39.76573 Y21.81645
G04 P0 ( dwell for no time -- G64 should not smooth over this point )
G00 Z5.00000 ( retract )

G00 X39.57576 Y19.76832 ( rapid move to begin. )
F300.00000
G01 Z-0.05000
G04 P0 ( dwell for no time -- G64 should not smooth over this point )
F600.00000
G01 X39.57576 Y19.76832
X39.57576 Y21.51828
X39.53812 Y21.59649
X39.47576 Y21.61828
X37.72580 Y21.61828
X37.64762 Y21.58064
X37.62580 Y21.51828
X37.62580 Y19.76832
X37.66347 Y19.69014
X37.72580 Y19.66832
X39.47576 Y19.66832
X39.53812 Y19.69014
X39.57576 Y19.76832
G04 P0 ( dwell for no time -- G64 should not smooth over this point )
G00 Z5.00000 ( retract )

G00 X37.51247 Y17.86912 ( rapid move to begin. )
F300.00000
G01 Z-0.05000
G04 P0 ( dwell for no time -- G64 should not smooth over this point )
F600.00000
G01 X37.51247 Y17.86912
X37.87307 Y18.23035
X38.34455 Y18.42611
X38.85476 Y18.42662
X39.32659 Y18.23168
X39.68782 Y17.87107
X39.88356 Y17.39960
X39.88409 Y16.88939
X39.68912 Y16.41756
X39.32854 Y16.05632
X38.85707 Y15.86059
X38.34681 Y15.86005
X37.87503 Y16.05500
X37.51379 Y16.41560
X37.31803 Y16.88708
X37.31752 Y17.39729
X37.51247 Y17.86912
G04 P0 ( dwell for no time -- G64 should not smooth over this point )
G00 Z5.00000 ( retract )

G00 X37.62636 Y17.13287 ( rapid move to begin. )
F300.00000
G01 Z-0.05000
G04 P0 ( dwell for no time -- G64 should not smooth over this point )
F600.00000
G01 X37.62636 Y17.13287
X37.64983 Y16.93051
X37.71485 Y16.73744
X37.81861 Y16.56211
X37.95653 Y16.41217
X38.12263 Y16.29421
X38.30962 Y16.21334
X38.50934 Y16.17313
X38.69222 Y16.17313
X38.89197 Y16.21334
X39.07896 Y16.29421
X39.26057 Y16.42617
X39.39527 Y16.57902
X39.49524 Y16.75655
X39.55610 Y16.95096
X39.57523 Y17.15378
X39.55176 Y17.35614
X39.48673 Y17.54920
X39.38297 Y17.72454
X39.24505 Y17.87448
X39.07896 Y17.99243
X38.89197 Y18.07331
X38.71302 Y18.11133
X38.50934 Y18.11349
X38.28973 Y18.06683
X38.10452 Y17.98199
X37.94102 Y17.86048
X37.80632 Y17.70762
X37.70634 Y17.53010
X37.64549 Y17.33569
X37.62636 Y17.13287
G04 P0 ( dwell for no time -- G64 should not smooth over this point )
G00 Z5.00000 ( retract )

G00 X37.62636 Y12.13288 ( rapid move to begin. )
F300.00000
G01 Z-0.05000
G04 P0 ( dwell for no time -- G64 should not smooth over this point )
F600.00000
G01 X37.62636 Y12.13288
X37.64983 Y11.93052
X37.71485 Y11.73745
X37.81861 Y11.56212
X37.95653 Y11.41218
X38.12263 Y11.29422
X38.30962 Y11.21335
X38.50934 Y11.17314
X38.69222 Y11.17314
X38.89197 Y11.21335
X39.07896 Y11.29422
X39.26057 Y11.42618
X39.39527 Y11.57903
X39.49524 Y11.75656
X39.55610 Y11.95097
X39.57523 Y12.15379
X39.55176 Y12.35615
X39.48673 Y12.54921
X39.38297 Y12.72455
X39.24505 Y12.87449
X39.07896 Y12.99244
X38.89197 Y13.07332
X38.71302 Y13.11134
X38.50934 Y13.11350
X38.28973 Y13.06684
X38.10452 Y12.98200
X37.94102 Y12.86049
X37.80632 Y12.70763
X37.70634 Y12.53011
X37.64549 Y12.33570
X37.62636 Y12.13288
G04 P0 ( dwell for no time -- G64 should not smooth over this point )
G00 Z5.00000 ( retract )

G00 X37.31803 Y11.88709 ( rapid move to begin. )
F300.00000
G01 Z-0.05000
G04 P0 ( dwell for no time -- G64 should not smooth over this point )
F600.00000
G01 X37.31803 Y11.88709
X37.31752 Y12.39730
X37.51247 Y12.86913
X37.87307 Y13.23036
X38.34455 Y13.42610
X38.85476 Y13.42663
X39.32659 Y13.23166
X39.68782 Y12.87108
X39.88356 Y12.39961
X39.88409 Y11.88940
X39.68912 Y11.41757
X39.32854 Y11.05633
X38.85707 Y10.86057
X38.34686 Y10.86006
X37.87503 Y11.05501
X37.51379 Y11.41561
X37.31803 Y11.88709
G04 P0 ( dwell for no time -- G64 should not smooth over this point )
G00 Z5.00000 ( retract )

G00 X37.30533 Y6.29119 ( rapid move to begin. )
F300.00000
G01 Z-0.05000
G04 P0 ( dwell for no time -- G64 should not smooth over this point )
F600.00000
G01 X37.30533 Y6.29119
X37.30533 Y7.99702
X37.33749 Y8.16807
X37.42771 Y8.30823
X37.56405 Y8.40142
X37.74838 Y8.43876
X39.45475 Y8.43876
X39.62557 Y8.40665
X39.76573 Y8.31646
X39.85884 Y8.18016
X39.89621 Y7.99573
X39.89621 Y6.28941
X39.86407 Y6.11854
X39.77390 Y5.97841
X39.63761 Y5.88529
X39.45295 Y5.84788
X37.74711 Y5.84788
X37.57599 Y5.88006
X37.43586 Y5.97023
X37.34274 Y6.10653
X37.30533 Y6.29119
G04 P0 ( dwell for no time -- G64 should not smooth over this point )
G00 Z5.00000 ( retract )

G00 X39.57576 Y6.26833 ( rapid move to begin. )
F300.00000
G01 Z-0.05000
G04 P0 ( dwell for no time -- G64 should not smooth over this point )
F600.00000
G01 X39.57576 Y6.26833
X39.57576 Y8.01828
X39.53812 Y8.09649
X39.47576 Y8.11828
X37.72580 Y8.11828
X37.64762 Y8.08064
X37.62580 Y8.01828
X37.62580 Y6.26833
X37.66347 Y6.19015
X37.72580 Y6.16833
X39.47576 Y6.16833
X39.53812 Y6.19015
X39.57576 Y6.26833
G04 P0 ( dwell for no time -- G64 should not smooth over this point )
G00 Z5.00000 ( retract )

G00 X42.15932 Y22.63289 ( rapid move to begin. )
F300.00000
G01 Z-0.05000
G04 P0 ( dwell for no time -- G64 should not smooth over this point )
F600.00000
G01 X42.15932 Y22.63289
X42.18033 Y22.45402
X42.23806 Y22.28341
X42.33001 Y22.12854
X42.45213 Y21.99616
X42.58099 Y21.90253
X42.74464 Y21.82730
X42.92036 Y21.78773
X43.10039 Y21.78552
X43.27702 Y21.82085
X43.44243 Y21.89209
X43.58939 Y21.99616
X43.71154 Y22.12854
X43.81200 Y22.30251
X43.86557 Y22.47447
X43.88223 Y22.65379
X43.86122 Y22.83266
X43.80349 Y23.00327
X43.71154 Y23.15813
X43.58942 Y23.29052
X43.46056 Y23.38414
X43.29691 Y23.45938
X43.12119 Y23.49895
X42.94113 Y23.50113
X42.76453 Y23.46583
X42.59912 Y23.39458
X42.45216 Y23.29052
X42.33001 Y23.15813
X42.22955 Y22.98417
X42.17598 Y22.81221
X42.15932 Y22.63289
G04 P0 ( dwell for no time -- G64 should not smooth over this point )
G00 Z5.00000 ( retract )

G00 X42.78711 Y23.81312 ( rapid move to begin. )
F300.00000
G01 Z-0.05000
G04 P0 ( dwell for no time -- G64 should not smooth over this point )
F600.00000
G01 X42.78711 Y23.81312
X43.25241 Y23.81360
X43.68266 Y23.63583
X44.01207 Y23.30698
X44.19058 Y22.87703
X44.19107 Y22.41175
X44.01327 Y21.98148
X43.68444 Y21.65206
X43.25449 Y21.47355
X42.78922 Y21.47307
X42.35894 Y21.65087
X42.02953 Y21.97970
X41.85102 Y22.40965
X41.85053 Y22.87492
X42.02833 Y23.30520
X42.35716 Y23.63461
X42.78711 Y23.81312
G04 P0 ( dwell for no time -- G64 should not smooth over this point )
G00 Z5.00000 ( retract )

G00 X42.78919 Y26.97306 ( rapid move to begin. )
F300.00000
G01 Z-0.05000
G04 P0 ( dwell for no time -- G64 should not smooth over this point )
F600.00000
G01 X42.78919 Y26.97306
X42.35894 Y27.15086
X42.02953 Y27.47969
X41.85102 Y27.90966
X41.85053 Y28.37491
X42.02833 Y28.80519
X42.35716 Y29.13463
X42.78711 Y29.31311
X43.25241 Y29.31362
X43.68266 Y29.13582
X44.01207 Y28.80699
X44.19058 Y28.37702
X44.19107 Y27.91177
X44.01327 Y27.48149
X43.68444 Y27.15205
X43.25449 Y26.97357
X42.78919 Y26.97306
G04 P0 ( dwell for no time -- G64 should not smooth over this point )
G00 Z5.00000 ( retract )

G00 X42.15932 Y28.13287 ( rapid move to begin. )
F300.00000
G01 Z-0.05000
G04 P0 ( dwell for no time -- G64 should not smooth over this point )
F600.00000
G01 X42.15932 Y28.13287
X42.18033 Y27.95401
X42.23806 Y27.78340
X42.33001 Y27.62853
X42.45213 Y27.49615
X42.58099 Y27.40252
X42.74464 Y27.32729
X42.92036 Y27.28772
X43.10039 Y27.28551
X43.27702 Y27.32084
X43.44243 Y27.39208
X43.58939 Y27.49615
X43.71154 Y27.62853
X43.81200 Y27.80250
X43.86557 Y27.97446
X43.88223 Y28.15378
X43.86122 Y28.33265
X43.80349 Y28.50326
X43.71154 Y28.65812
X43.58942 Y28.79051
X43.46056 Y28.88413
X43.29691 Y28.95937
X43.12119 Y28.99894
X42.94113 Y29.00112
X42.76453 Y28.96582
X42.59912 Y28.89457
X42.45216 Y28.79051
X42.33001 Y28.65812
X42.22955 Y28.48416
X42.17598 Y28.31220
X42.15932 Y28.13287
G04 P0 ( dwell for no time -- G64 should not smooth over this point )
G00 Z5.00000 ( retract )

G00 X37.87503 Y29.55502 ( rapid move to begin. )
F300.00000
G01 Z-0.05000
G04 P0 ( dwell for no time -- G64 should not smooth over this point )
F600.00000
G01 X37.87503 Y29.55502
X37.51379 Y29.91560
X37.31803 Y30.38707
X37.31752 Y30.89728
X37.51247 Y31.36911
X37.87312 Y31.73040
X38.35912 Y31.94067
X38.43230 Y32.03721
X38.44620 Y32.15197
X38.42402 Y32.22304
X38.38412 Y32.27899
X38.27952 Y32.34008
X37.74711 Y32.34788
X37.57599 Y32.38006
X37.43586 Y32.47023
X37.34274 Y32.60653
X37.30533 Y32.79118
X37.30533 Y34.49702
X37.33749 Y34.66812
X37.42768 Y34.80827
X37.56398 Y34.90139
X37.74841 Y34.93875
X39.45475 Y34.93875
X39.62559 Y34.90662
X39.76573 Y34.81645
X39.85884 Y34.68016
X39.89621 Y34.49573
X39.89621 Y32.78941
X39.86407 Y32.61854
X39.77390 Y32.47841
X39.63761 Y32.38529
X39.45295 Y32.34788
X38.97896 Y32.34788
X38.87640 Y32.32306
X38.81643 Y32.27892
X38.77657 Y32.22294
X38.75293 Y32.10401
X38.77980 Y32.01270
X38.84175 Y31.94046
X39.32659 Y31.73167
X39.68782 Y31.37107
X39.88356 Y30.89960
X39.88409 Y30.38939
X39.68912 Y29.91756
X39.32854 Y29.55632
X38.85707 Y29.36058
X38.34686 Y29.36005
X37.87503 Y29.55502
G04 P0 ( dwell for no time -- G64 should not smooth over this point )
G00 Z5.00000 ( retract )

G00 X37.62636 Y30.63287 ( rapid move to begin. )
F300.00000
G01 Z-0.05000
G04 P0 ( dwell for no time -- G64 should not smooth over this point )
F600.00000
G01 X37.62636 Y30.63287
X37.64983 Y30.43051
X37.71485 Y30.23744
X37.81861 Y30.06211
X37.95653 Y29.91217
X38.12263 Y29.79421
X38.30962 Y29.71334
X38.50934 Y29.67313
X38.69222 Y29.67313
X38.89197 Y29.71334
X39.07896 Y29.79421
X39.26057 Y29.92617
X39.39527 Y30.07902
X39.49524 Y30.25654
X39.55610 Y30.45096
X39.57523 Y30.65377
X39.55176 Y30.85614
X39.48673 Y31.04920
X39.38297 Y31.22454
X39.24505 Y31.37447
X39.07896 Y31.49243
X38.89197 Y31.57330
X38.71302 Y31.61133
X38.50934 Y31.61349
X38.28973 Y31.56683
X38.10452 Y31.48199
X37.94102 Y31.36048
X37.80632 Y31.20762
X37.70634 Y31.03010
X37.64549 Y30.83569
X37.62636 Y30.63287
G04 P0 ( dwell for no time -- G64 should not smooth over this point )
G00 Z5.00000 ( retract )

G00 X39.57576 Y32.76832 ( rapid move to begin. )
F300.00000
G01 Z-0.05000
G04 P0 ( dwell for no time -- G64 should not smooth over this point )
F600.00000
G01 X39.57576 Y32.76832
X39.57576 Y34.51828
X39.53812 Y34.59649
X39.47576 Y34.61828
X37.72580 Y34.61828
X37.64762 Y34.58064
X37.62580 Y34.51828
X37.62580 Y32.76832
X37.66347 Y32.69014
X37.72580 Y32.66832
X39.47576 Y32.66832
X39.53812 Y32.69014
X39.57576 Y32.76832
G04 P0 ( dwell for no time -- G64 should not smooth over this point )
G00 Z5.00000 ( retract )

G00 X42.65934 Y33.63286 ( rapid move to begin. )
F300.00000
G01 Z-0.05000
G04 P0 ( dwell for no time -- G64 should not smooth over this point )
F600.00000
G01 X42.65934 Y33.63286
X42.68035 Y33.45400
X42.73808 Y33.28339
X42.83003 Y33.12852
X42.95216 Y32.99614
X43.08101 Y32.90251
X43.24466 Y32.82728
X43.42038 Y32.78770
X43.60041 Y32.78549
X43.77705 Y32.82083
X43.94245 Y32.89207
X44.08942 Y32.99614
X44.21156 Y33.12852
X44.31202 Y33.30249
X44.36559 Y33.47444
X44.38225 Y33.65377
X44.36125 Y33.83263
X44.30351 Y34.00325
X44.21156 Y34.15811
X44.08944 Y34.29050
X43.96059 Y34.38412
X43.79693 Y34.45935
X43.62122 Y34.49893
X43.44116 Y34.50111
X43.26455 Y34.46581
X43.09915 Y34.39456
X42.95218 Y34.29050
X42.83003 Y34.15811
X42.72958 Y33.98415
X42.67601 Y33.81219
X42.65934 Y33.63286
G04 P0 ( dwell for no time -- G64 should not smooth over this point )
G00 Z5.00000 ( retract )

G00 X44.18444 Y32.65207 ( rapid move to begin. )
F300.00000
G01 Z-0.05000
G04 P0 ( dwell for no time -- G64 should not smooth over this point )
F600.00000
G01 X44.18444 Y32.65207
X43.75449 Y32.47356
X43.28919 Y32.47307
X42.85894 Y32.65085
X42.52953 Y32.97970
X42.35101 Y33.40965
X42.35053 Y33.87493
X42.52833 Y34.30520
X42.85716 Y34.63461
X43.28711 Y34.81313
X43.75238 Y34.81361
X44.18266 Y34.63581
X44.51207 Y34.30698
X44.69058 Y33.87703
X44.69107 Y33.41176
X44.51327 Y32.98148
X44.18444 Y32.65207
G04 P0 ( dwell for no time -- G64 should not smooth over this point )
G00 Z5.00000 ( retract )

G00 X39.68912 Y37.91756 ( rapid move to begin. )
F300.00000
G01 Z-0.05000
G04 P0 ( dwell for no time -- G64 should not smooth over this point )
F600.00000
G01 X39.68912 Y37.91756
X39.32854 Y37.55633
X38.85707 Y37.36057
X38.34686 Y37.36006
X37.87503 Y37.55500
X37.51379 Y37.91561
X37.31803 Y38.38708
X37.31752 Y38.89729
X37.51247 Y39.36912
X37.87307 Y39.73036
X38.34455 Y39.92609
X38.85476 Y39.92663
X39.32659 Y39.73166
X39.68782 Y39.37108
X39.88356 Y38.89960
X39.88409 Y38.38939
X39.68912 Y37.91756
G04 P0 ( dwell for no time -- G64 should not smooth over this point )
G00 Z5.00000 ( retract )

G00 X37.62636 Y38.63288 ( rapid move to begin. )
F300.00000
G01 Z-0.05000
G04 P0 ( dwell for no time -- G64 should not smooth over this point )
F600.00000
G01 X37.62636 Y38.63288
X37.64983 Y38.43052
X37.71485 Y38.23745
X37.81861 Y38.06212
X37.95653 Y37.91218
X38.12263 Y37.79422
X38.30962 Y37.71335
X38.50934 Y37.67314
X38.69222 Y37.67314
X38.89197 Y37.71335
X39.07896 Y37.79422
X39.26057 Y37.92618
X39.39527 Y38.07903
X39.49524 Y38.25655
X39.55610 Y38.45096
X39.57523 Y38.65378
X39.55176 Y38.85615
X39.48673 Y39.04921
X39.38297 Y39.22455
X39.24505 Y39.37448
X39.07896 Y39.49244
X38.89197 Y39.57331
X38.71302 Y39.61134
X38.50934 Y39.61350
X38.28973 Y39.56684
X38.10452 Y39.48200
X37.94102 Y39.36049
X37.80632 Y39.20763
X37.70634 Y39.03011
X37.64549 Y38.83570
X37.62636 Y38.63288
G04 P0 ( dwell for no time -- G64 should not smooth over this point )
G00 Z5.00000 ( retract )

G00 X39.68912 Y42.91755 ( rapid move to begin. )
F300.00000
G01 Z-0.05000
G04 P0 ( dwell for no time -- G64 should not smooth over this point )
F600.00000
G01 X39.68912 Y42.91755
X39.32854 Y42.55632
X38.85707 Y42.36058
X38.34686 Y42.36005
X37.87503 Y42.55502
X37.51379 Y42.91560
X37.31803 Y43.38707
X37.31752 Y43.89728
X37.51247 Y44.36911
X37.87307 Y44.73035
X38.34455 Y44.92611
X38.85476 Y44.92662
X39.32659 Y44.73167
X39.68782 Y44.37107
X39.88356 Y43.89959
X39.88409 Y43.38938
X39.68912 Y42.91755
G04 P0 ( dwell for no time -- G64 should not smooth over this point )
G00 Z5.00000 ( retract )

G00 X37.62636 Y43.63287 ( rapid move to begin. )
F300.00000
G01 Z-0.05000
G04 P0 ( dwell for no time -- G64 should not smooth over this point )
F600.00000
G01 X37.62636 Y43.63287
X37.64983 Y43.43051
X37.71485 Y43.23744
X37.81861 Y43.06211
X37.95653 Y42.91217
X38.12263 Y42.79421
X38.30962 Y42.71334
X38.50934 Y42.67313
X38.69222 Y42.67313
X38.89197 Y42.71334
X39.07896 Y42.79421
X39.26057 Y42.92617
X39.39527 Y43.07902
X39.49524 Y43.25654
X39.55610 Y43.45095
X39.57523 Y43.65377
X39.55176 Y43.85614
X39.48673 Y44.04920
X39.38297 Y44.22454
X39.24505 Y44.37447
X39.07896 Y44.49243
X38.89197 Y44.57330
X38.71302 Y44.61133
X38.50934 Y44.61349
X38.28973 Y44.56683
X38.10452 Y44.48199
X37.94102 Y44.36048
X37.80632 Y44.20762
X37.70634 Y44.03010
X37.64549 Y43.83569
X37.62636 Y43.63287
G04 P0 ( dwell for no time -- G64 should not smooth over this point )
G00 Z5.00000 ( retract )

G00 X52.81934 Y33.63286 ( rapid move to begin. )
F300.00000
G01 Z-0.05000
G04 P0 ( dwell for no time -- G64 should not smooth over this point )
F600.00000
G01 X52.81934 Y33.63286
X52.84035 Y33.45400
X52.89808 Y33.28339
X52.99003 Y33.12852
X53.11216 Y32.99614
X53.24101 Y32.90251
X53.40466 Y32.82728
X53.58038 Y32.78770
X53.76041 Y32.78549
X53.93705 Y32.82083
X54.10245 Y32.89207
X54.24942 Y32.99614
X54.37156 Y33.12852
X54.47202 Y33.30249
X54.52559 Y33.47444
X54.54225 Y33.65377
X54.52125 Y33.83263
X54.46351 Y34.00325
X54.37156 Y34.15811
X54.24944 Y34.29050
X54.12059 Y34.38412
X53.95693 Y34.45935
X53.78122 Y34.49893
X53.60116 Y34.50111
X53.42455 Y34.46581
X53.25915 Y34.39456
X53.11218 Y34.29050
X52.99003 Y34.15811
X52.88958 Y33.98415
X52.83601 Y33.81219
X52.81934 Y33.63286
G04 P0 ( dwell for no time -- G64 should not smooth over this point )
G00 Z5.00000 ( retract )

G00 X54.34444 Y32.65207 ( rapid move to begin. )
F300.00000
G01 Z-0.05000
G04 P0 ( dwell for no time -- G64 should not smooth over this point )
F600.00000
G01 X54.34444 Y32.65207
X53.91449 Y32.47356
X53.44919 Y32.47307
X53.01894 Y32.65085
X52.68947 Y32.97973
X52.51101 Y33.40955
X52.51053 Y33.87493
X52.68833 Y34.30520
X53.01716 Y34.63461
X53.44711 Y34.81313
X53.91238 Y34.81361
X54.34266 Y34.63581
X54.67207 Y34.30698
X54.85058 Y33.87703
X54.85107 Y33.41176
X54.67327 Y32.98148
X54.34444 Y32.65207
G04 P0 ( dwell for no time -- G64 should not smooth over this point )
G00 Z5.00000 ( retract )

G00 X57.38649 Y32.77645 ( rapid move to begin. )
F300.00000
G01 Z-0.05000
G04 P0 ( dwell for no time -- G64 should not smooth over this point )
F600.00000
G01 X57.38649 Y32.77645
X57.56483 Y32.79665
X57.71685 Y32.84435
X57.89134 Y32.94120
X58.02617 Y33.05966
X58.13437 Y33.20279
X58.20455 Y33.34582
X58.25152 Y33.51905
X58.26163 Y33.71836
X58.23242 Y33.89542
X58.16818 Y34.06299
X58.08393 Y34.19819
X57.96175 Y34.32966
X57.81565 Y34.43385
X57.63224 Y34.51257
X57.45657 Y34.54665
X56.66572 Y34.55072
X56.49658 Y34.53408
X56.30616 Y34.47434
X56.15025 Y34.38547
X56.01543 Y34.26700
X55.90722 Y34.12387
X55.83704 Y33.98084
X55.79008 Y33.80762
X55.77895 Y33.62852
X55.80410 Y33.45082
X55.86453 Y33.28184
X55.95767 Y33.12847
X56.09518 Y32.98382
X56.24365 Y32.88301
X56.40936 Y32.81409
X56.58502 Y32.78001
X57.38649 Y32.77645
G04 P0 ( dwell for no time -- G64 should not smooth over this point )
G00 Z5.00000 ( retract )

G00 X57.38649 Y30.23645 ( rapid move to begin. )
F300.00000
G01 Z-0.05000
G04 P0 ( dwell for no time -- G64 should not smooth over this point )
F600.00000
G01 X57.38649 Y30.23645
X57.56483 Y30.25665
X57.71685 Y30.30435
X57.89134 Y30.40120
X58.02617 Y30.51966
X58.13437 Y30.66279
X58.20455 Y30.80582
X58.25152 Y30.97905
X58.26163 Y31.17836
X58.23242 Y31.35542
X58.16818 Y31.52299
X58.08393 Y31.65819
X57.96175 Y31.78966
X57.81565 Y31.89385
X57.63224 Y31.97257
X57.45657 Y32.00665
X56.66572 Y32.01072
X56.49658 Y31.99408
X56.30616 Y31.93434
X56.15025 Y31.84547
X56.01543 Y31.72700
X55.90722 Y31.58387
X55.83704 Y31.44084
X55.79008 Y31.26762
X55.77895 Y31.08852
X55.80410 Y30.91082
X55.86453 Y30.74184
X55.95767 Y30.58847
X56.09518 Y30.44382
X56.24365 Y30.34301
X56.40936 Y30.27409
X56.58502 Y30.24001
X57.38649 Y30.23645
G04 P0 ( dwell for no time -- G64 should not smooth over this point )
G00 Z5.00000 ( retract )

G00 X57.38880 Y29.92792 ( rapid move to begin. )
F300.00000
G01 Z-0.05000
G04 P0 ( dwell for no time -- G64 should not smooth over this point )
F600.00000
G01 X57.38880 Y29.92792
X56.65281 Y29.92792
X56.17466 Y30.02302
X55.78827 Y30.28121
X55.53008 Y30.66759
X55.43938 Y31.12334
X55.53003 Y31.57905
X55.78822 Y31.96546
X56.19114 Y32.24470
X56.23788 Y32.33086
X56.24624 Y32.40716
X56.21921 Y32.50150
X56.17603 Y32.55776
X55.78827 Y32.82121
X55.53008 Y33.20759
X55.43938 Y33.66334
X55.53003 Y34.11905
X55.78822 Y34.50543
X56.17461 Y34.76362
X56.65254 Y34.85872
X57.38903 Y34.85872
X57.86693 Y34.76367
X58.25332 Y34.50548
X58.51151 Y34.11910
X58.60221 Y33.66334
X58.51156 Y33.20764
X58.25337 Y32.82123
X57.85053 Y32.54206
X57.81070 Y32.47643
X57.79533 Y32.37953
X57.81072 Y32.31024
X57.86556 Y32.22893
X58.25332 Y31.96548
X58.51151 Y31.57910
X58.60221 Y31.12334
X58.51156 Y30.66764
X58.25337 Y30.28126
X57.86699 Y30.02307
X57.38880 Y29.92792
G04 P0 ( dwell for no time -- G64 should not smooth over this point )
G00 Z5.00000 ( retract )

G00 X57.38649 Y27.27644 ( rapid move to begin. )
F300.00000
G01 Z-0.05000
G04 P0 ( dwell for no time -- G64 should not smooth over this point )
F600.00000
G01 X57.38649 Y27.27644
X57.56483 Y27.29663
X57.71685 Y27.34433
X57.89134 Y27.44118
X58.02617 Y27.55965
X58.13437 Y27.70278
X58.20455 Y27.84580
X58.25152 Y28.01903
X58.26163 Y28.21835
X58.23242 Y28.39541
X58.16818 Y28.56297
X58.08393 Y28.69818
X57.96175 Y28.82965
X57.81565 Y28.93384
X57.63224 Y29.01255
X57.45657 Y29.04664
X56.66572 Y29.05070
X56.49658 Y29.03407
X56.30616 Y28.97433
X56.15025 Y28.88545
X56.01543 Y28.76699
X55.90722 Y28.62386
X55.83704 Y28.48083
X55.79008 Y28.30760
X55.77895 Y28.12851
X55.80410 Y27.95081
X55.86453 Y27.78182
X55.95767 Y27.62846
X56.09518 Y27.48380
X56.24365 Y27.38299
X56.40936 Y27.31408
X56.58502 Y27.27999
X57.38649 Y27.27644
G04 P0 ( dwell for no time -- G64 should not smooth over this point )
G00 Z5.00000 ( retract )

G00 X57.38649 Y24.73644 ( rapid move to begin. )
F300.00000
G01 Z-0.05000
G04 P0 ( dwell for no time -- G64 should not smooth over this point )
F600.00000
G01 X57.38649 Y24.73644
X57.56483 Y24.75663
X57.71685 Y24.80433
X57.89134 Y24.90118
X58.02617 Y25.01965
X58.13437 Y25.16278
X58.20455 Y25.30580
X58.25152 Y25.47903
X58.26163 Y25.67835
X58.23242 Y25.85541
X58.16818 Y26.02297
X58.08393 Y26.15818
X57.96175 Y26.28965
X57.81565 Y26.39384
X57.63224 Y26.47255
X57.45657 Y26.50664
X56.66572 Y26.51070
X56.49658 Y26.49407
X56.30616 Y26.43433
X56.15025 Y26.34545
X56.01543 Y26.22699
X55.90722 Y26.08386
X55.83704 Y25.94083
X55.79008 Y25.76760
X55.77895 Y25.58851
X55.80410 Y25.41081
X55.86453 Y25.24182
X55.95767 Y25.08846
X56.09518 Y24.94380
X56.24365 Y24.84299
X56.40936 Y24.77408
X56.58502 Y24.73999
X57.38649 Y24.73644
G04 P0 ( dwell for no time -- G64 should not smooth over this point )
G00 Z5.00000 ( retract )

G00 X57.38880 Y24.42790 ( rapid move to begin. )
F300.00000
G01 Z-0.05000
G04 P0 ( dwell for no time -- G64 should not smooth over this point )
F600.00000
G01 X57.38880 Y24.42790
X56.65281 Y24.42790
X56.17466 Y24.52300
X55.78827 Y24.78119
X55.53008 Y25.16758
X55.43938 Y25.62333
X55.53003 Y26.07906
X55.78820 Y26.46542
X56.19114 Y26.74469
X56.23788 Y26.83085
X56.24624 Y26.90715
X56.21921 Y27.00148
X56.17603 Y27.05774
X55.78827 Y27.32119
X55.53008 Y27.70758
X55.43938 Y28.16333
X55.53003 Y28.61906
X55.78822 Y29.00544
X56.17461 Y29.26363
X56.65251 Y29.35870
X57.38903 Y29.35870
X57.86693 Y29.26368
X58.25332 Y29.00549
X58.51151 Y28.61911
X58.60221 Y28.16333
X58.51156 Y27.70763
X58.25337 Y27.32122
X57.85053 Y27.04205
X57.81070 Y26.97641
X57.79533 Y26.87951
X57.81072 Y26.81022
X57.86556 Y26.72892
X58.25334 Y26.46547
X58.51151 Y26.07911
X58.60221 Y25.62333
X58.51156 Y25.16763
X58.25337 Y24.78124
X57.86699 Y24.52305
X57.38880 Y24.42790
G04 P0 ( dwell for no time -- G64 should not smooth over this point )
G00 Z5.00000 ( retract )

G00 X56.65254 Y23.85872 ( rapid move to begin. )
F300.00000
G01 Z-0.05000
G04 P0 ( dwell for no time -- G64 should not smooth over this point )
F600.00000
G01 X56.65254 Y23.85872
X57.38903 Y23.85872
X57.86693 Y23.76367
X58.25332 Y23.50548
X58.51151 Y23.11909
X58.60221 Y22.66334
X58.51156 Y22.20764
X58.25337 Y21.82123
X57.85053 Y21.54206
X57.81070 Y21.47642
X57.79533 Y21.37952
X57.81072 Y21.31023
X57.86556 Y21.22893
X58.25332 Y20.96548
X58.51151 Y20.57909
X58.60221 Y20.12334
X58.51156 Y19.66764
X58.25337 Y19.28125
X57.86699 Y19.02306
X57.38880 Y18.92791
X56.65281 Y18.92791
X56.17466 Y19.02301
X55.78827 Y19.28120
X55.53008 Y19.66759
X55.43938 Y20.12334
X55.53003 Y20.57904
X55.78822 Y20.96545
X56.19114 Y21.24470
X56.23788 Y21.33086
X56.24624 Y21.40716
X56.21921 Y21.50149
X56.17603 Y21.55775
X55.78827 Y21.82120
X55.53008 Y22.20759
X55.43938 Y22.66334
X55.53003 Y23.11904
X55.78822 Y23.50543
X56.17461 Y23.76362
X56.65254 Y23.85872
G04 P0 ( dwell for no time -- G64 should not smooth over this point )
G00 Z5.00000 ( retract )

G00 X57.38649 Y21.77645 ( rapid move to begin. )
F300.00000
G01 Z-0.05000
G04 P0 ( dwell for no time -- G64 should not smooth over this point )
F600.00000
G01 X57.38649 Y21.77645
X57.56483 Y21.79664
X57.71685 Y21.84434
X57.89134 Y21.94119
X58.02617 Y22.05966
X58.13437 Y22.20279
X58.20455 Y22.34582
X58.25152 Y22.51904
X58.26163 Y22.71836
X58.23242 Y22.89542
X58.16818 Y23.06298
X58.08393 Y23.19819
X57.96175 Y23.32966
X57.81565 Y23.43385
X57.63224 Y23.51256
X57.45657 Y23.54665
X56.66572 Y23.55071
X56.49658 Y23.53408
X56.30616 Y23.47434
X56.15025 Y23.38546
X56.01543 Y23.26700
X55.90722 Y23.12387
X55.83704 Y22.98084
X55.79008 Y22.80761
X55.77895 Y22.62852
X55.80410 Y22.45082
X55.86453 Y22.28183
X55.95767 Y22.12847
X56.09518 Y21.98381
X56.24365 Y21.88300
X56.40936 Y21.81409
X56.58502 Y21.78000
X57.38649 Y21.77645
G04 P0 ( dwell for no time -- G64 should not smooth over this point )
G00 Z5.00000 ( retract )

G00 X57.38649 Y19.23645 ( rapid move to begin. )
F300.00000
G01 Z-0.05000
G04 P0 ( dwell for no time -- G64 should not smooth over this point )
F600.00000
G01 X57.38649 Y19.23645
X57.56483 Y19.25664
X57.71685 Y19.30434
X57.89134 Y19.40119
X58.02617 Y19.51966
X58.13437 Y19.66279
X58.20455 Y19.80582
X58.25152 Y19.97904
X58.26163 Y20.17836
X58.23242 Y20.35542
X58.16818 Y20.52298
X58.08393 Y20.65819
X57.96175 Y20.78966
X57.81565 Y20.89385
X57.63224 Y20.97256
X57.45657 Y21.00665
X56.66572 Y21.01071
X56.49658 Y20.99408
X56.30616 Y20.93434
X56.15025 Y20.84546
X56.01543 Y20.72700
X55.90722 Y20.58387
X55.83704 Y20.44084
X55.79008 Y20.26761
X55.77895 Y20.08852
X55.80410 Y19.91082
X55.86453 Y19.74183
X55.95767 Y19.58847
X56.09518 Y19.44381
X56.24365 Y19.34300
X56.40936 Y19.27409
X56.58502 Y19.24000
X57.38649 Y19.23645
G04 P0 ( dwell for no time -- G64 should not smooth over this point )
G00 Z5.00000 ( retract )

G00 X52.31932 Y22.63289 ( rapid move to begin. )
F300.00000
G01 Z-0.05000
G04 P0 ( dwell for no time -- G64 should not smooth over this point )
F600.00000
G01 X52.31932 Y22.63289
X52.34033 Y22.45402
X52.39806 Y22.28341
X52.49001 Y22.12854
X52.61213 Y21.99616
X52.74099 Y21.90253
X52.90464 Y21.82730
X53.08036 Y21.78773
X53.26039 Y21.78552
X53.43702 Y21.82085
X53.60243 Y21.89209
X53.74939 Y21.99616
X53.87154 Y22.12854
X53.97200 Y22.30251
X54.02557 Y22.47447
X54.04223 Y22.65379
X54.02122 Y22.83266
X53.96349 Y23.00327
X53.87154 Y23.15813
X53.74942 Y23.29052
X53.62056 Y23.38414
X53.45691 Y23.45938
X53.28119 Y23.49895
X53.10113 Y23.50113
X52.92453 Y23.46583
X52.75912 Y23.39458
X52.61216 Y23.29052
X52.49001 Y23.15813
X52.38955 Y22.98417
X52.33598 Y22.81221
X52.31932 Y22.63289
G04 P0 ( dwell for no time -- G64 should not smooth over this point )
G00 Z5.00000 ( retract )

G00 X52.94711 Y23.81312 ( rapid move to begin. )
F300.00000
G01 Z-0.05000
G04 P0 ( dwell for no time -- G64 should not smooth over this point )
F600.00000
G01 X52.94711 Y23.81312
X53.41241 Y23.81360
X53.84266 Y23.63583
X54.17207 Y23.30698
X54.35058 Y22.87703
X54.35107 Y22.41175
X54.17327 Y21.98148
X53.84444 Y21.65206
X53.41449 Y21.47355
X52.94922 Y21.47307
X52.51894 Y21.65087
X52.18948 Y21.97975
X52.01102 Y22.40954
X52.01053 Y22.87492
X52.18833 Y23.30520
X52.51716 Y23.63461
X52.94711 Y23.81312
G04 P0 ( dwell for no time -- G64 should not smooth over this point )
G00 Z5.00000 ( retract )

G00 X52.31932 Y28.13287 ( rapid move to begin. )
F300.00000
G01 Z-0.05000
G04 P0 ( dwell for no time -- G64 should not smooth over this point )
F600.00000
G01 X52.31932 Y28.13287
X52.34033 Y27.95401
X52.39806 Y27.78340
X52.49001 Y27.62853
X52.61213 Y27.49615
X52.74099 Y27.40252
X52.90464 Y27.32729
X53.08036 Y27.28772
X53.26039 Y27.28551
X53.43702 Y27.32084
X53.60243 Y27.39208
X53.74939 Y27.49615
X53.87154 Y27.62853
X53.97200 Y27.80250
X54.02557 Y27.97446
X54.04223 Y28.15378
X54.02122 Y28.33265
X53.96349 Y28.50326
X53.87154 Y28.65812
X53.74942 Y28.79051
X53.62056 Y28.88413
X53.45691 Y28.95937
X53.28119 Y28.99894
X53.10113 Y29.00112
X52.92453 Y28.96582
X52.75912 Y28.89457
X52.61216 Y28.79051
X52.49001 Y28.65812
X52.38955 Y28.48416
X52.33598 Y28.31220
X52.31932 Y28.13287
G04 P0 ( dwell for no time -- G64 should not smooth over this point )
G00 Z5.00000 ( retract )

G00 X53.84266 Y29.13582 ( rapid move to begin. )
F300.00000
G01 Z-0.05000
G04 P0 ( dwell for no time -- G64 should not smooth over this point )
F600.00000
G01 X53.84266 Y29.13582
X54.17207 Y28.80699
X54.35058 Y28.37702
X54.35107 Y27.91177
X54.17327 Y27.48149
X53.84444 Y27.15205
X53.41449 Y26.97357
X52.94919 Y26.97306
X52.51894 Y27.15086
X52.18953 Y27.47969
X52.01102 Y27.90963
X52.01053 Y28.37491
X52.18833 Y28.80519
X52.51716 Y29.13463
X52.94711 Y29.31311
X53.41241 Y29.31362
X53.84266 Y29.13582
G04 P0 ( dwell for no time -- G64 should not smooth over this point )
G00 Z5.00000 ( retract )

G00 X65.65554 Y25.26930 ( rapid move to begin. )
F300.00000
G01 Z-0.05000
G04 P0 ( dwell for no time -- G64 should not smooth over this point )
F600.00000
G01 X65.65554 Y25.26930
X65.93778 Y25.26930
X65.93778 Y24.83590
X65.97545 Y24.75772
X66.03778 Y24.73590
X66.82678 Y24.73590
X66.82678 Y24.45366
X66.80103 Y24.42790
X65.95673 Y24.42790
X65.80670 Y24.49003
X65.69196 Y24.60479
X65.62978 Y24.75485
X65.62978 Y25.24355
X65.65554 Y25.26930
G04 P0 ( dwell for no time -- G64 should not smooth over this point )
G00 Z5.00000 ( retract )

G00 X66.81254 Y23.85872 ( rapid move to begin. )
F300.00000
G01 Z-0.05000
G04 P0 ( dwell for no time -- G64 should not smooth over this point )
F600.00000
G01 X66.81254 Y23.85872
X67.54903 Y23.85872
X68.02693 Y23.76367
X68.41332 Y23.50548
X68.67151 Y23.11909
X68.76221 Y22.66334
X68.67156 Y22.20764
X68.41337 Y21.82123
X68.27507 Y21.72811
X68.22305 Y21.67439
X68.19292 Y21.61209
X68.18314 Y21.53782
X68.20659 Y21.44508
X68.26630 Y21.37018
X68.32592 Y21.33510
X68.40164 Y21.32011
X68.55495 Y21.25661
X68.66966 Y21.14191
X68.73178 Y20.99197
X68.73178 Y20.50307
X68.70603 Y20.47731
X68.42378 Y20.47731
X68.42129 Y20.93299
X68.38614 Y20.98892
X68.32378 Y21.01071
X66.01553 Y21.00823
X65.97545 Y20.98892
X65.94030 Y20.93299
X65.93778 Y20.47731
X65.65559 Y20.47731
X65.62978 Y20.50312
X65.62978 Y20.99179
X65.69191 Y21.14183
X65.80667 Y21.25659
X65.95991 Y21.32009
X66.03568 Y21.33510
X66.09529 Y21.37018
X66.15501 Y21.44508
X66.17845 Y21.53784
X66.16867 Y21.61209
X66.13855 Y21.67439
X66.08653 Y21.72811
X65.94827 Y21.82118
X65.69008 Y22.20759
X65.59938 Y22.66334
X65.69003 Y23.11904
X65.94822 Y23.50543
X66.33461 Y23.76362
X66.81254 Y23.85872
G04 P0 ( dwell for no time -- G64 should not smooth over this point )
G00 Z5.00000 ( retract )

G00 X68.40489 Y24.42790 ( rapid move to begin. )
F300.00000
G01 Z-0.05000
G04 P0 ( dwell for no time -- G64 should not smooth over this point )
F600.00000
G01 X68.40489 Y24.42790
X67.56059 Y24.42790
X67.53478 Y24.45371
X67.53478 Y24.73590
X68.36719 Y24.74581
X68.41390 Y24.79252
X68.42378 Y24.83590
X68.42378 Y25.26930
X68.70608 Y25.26930
X68.73178 Y25.24360
X68.73178 Y24.75478
X68.66968 Y24.60479
X68.55498 Y24.49008
X68.40489 Y24.42790
G04 P0 ( dwell for no time -- G64 should not smooth over this point )
G00 Z5.00000 ( retract )

G00 X69.35053 Y23.87492 ( rapid move to begin. )
F300.00000
G01 Z-0.05000
G04 P0 ( dwell for no time -- G64 should not smooth over this point )
F600.00000
G01 X69.35053 Y23.87492
X69.52833 Y24.30520
X69.85716 Y24.63461
X70.28710 Y24.81312
X70.75241 Y24.81360
X71.18266 Y24.63583
X71.51207 Y24.30697
X71.69058 Y23.87703
X71.69106 Y23.41173
X71.51329 Y22.98148
X71.18443 Y22.65206
X70.75449 Y22.47355
X70.28921 Y22.47307
X69.85893 Y22.65087
X69.52952 Y22.97970
X69.35101 Y23.40964
X69.35053 Y23.87492
G04 P0 ( dwell for no time -- G64 should not smooth over this point )
G00 Z5.00000 ( retract )

G00 X69.65934 Y23.63288 ( rapid move to begin. )
F300.00000
G01 Z-0.05000
G04 P0 ( dwell for no time -- G64 should not smooth over this point )
F600.00000
G01 X69.65934 Y23.63288
X69.68035 Y23.45402
X69.73808 Y23.28341
X69.83003 Y23.12854
X69.95215 Y22.99616
X70.08101 Y22.90253
X70.24466 Y22.82730
X70.42038 Y22.78772
X70.60041 Y22.78551
X70.77704 Y22.82085
X70.94245 Y22.89209
X71.08941 Y22.99616
X71.21156 Y23.12854
X71.31202 Y23.30251
X71.36559 Y23.47446
X71.38225 Y23.65379
X71.36124 Y23.83265
X71.30351 Y24.00327
X71.21156 Y24.15813
X71.08944 Y24.29052
X70.96058 Y24.38414
X70.79693 Y24.45937
X70.62121 Y24.49895
X70.44115 Y24.50113
X70.26455 Y24.46583
X70.09914 Y24.39458
X69.95218 Y24.29052
X69.83003 Y24.15813
X69.72957 Y23.98417
X69.67600 Y23.81221
X69.65934 Y23.63288
G04 P0 ( dwell for no time -- G64 should not smooth over this point )
G00 Z5.00000 ( retract )

G00 X67.54649 Y21.77645 ( rapid move to begin. )
F300.00000
G01 Z-0.05000
G04 P0 ( dwell for no time -- G64 should not smooth over this point )
F600.00000
G01 X67.54649 Y21.77645
X67.72483 Y21.79664
X67.87685 Y21.84434
X68.05134 Y21.94119
X68.18617 Y22.05966
X68.29437 Y22.20279
X68.36455 Y22.34582
X68.41152 Y22.51904
X68.42163 Y22.71836
X68.39242 Y22.89542
X68.32818 Y23.06298
X68.24393 Y23.19819
X68.12175 Y23.32966
X67.97565 Y23.43385
X67.79224 Y23.51256
X67.61657 Y23.54665
X66.82572 Y23.55071
X66.65658 Y23.53408
X66.46616 Y23.47434
X66.31025 Y23.38546
X66.17543 Y23.26700
X66.06722 Y23.12387
X65.99704 Y22.98084
X65.95008 Y22.80761
X65.93895 Y22.62852
X65.96410 Y22.45082
X66.02453 Y22.28183
X66.11767 Y22.12847
X66.25518 Y21.98381
X66.40365 Y21.88300
X66.56936 Y21.81409
X66.74502 Y21.78000
X67.54649 Y21.77645
G04 P0 ( dwell for no time -- G64 should not smooth over this point )
G00 Z5.00000 ( retract )

G00 X68.40489 Y18.92791 ( rapid move to begin. )
F300.00000
G01 Z-0.05000
G04 P0 ( dwell for no time -- G64 should not smooth over this point )
F600.00000
G01 X68.40489 Y18.92791
X67.56059 Y18.92791
X67.53478 Y18.95372
X67.53478 Y19.23592
X68.36719 Y19.24582
X68.41390 Y19.29253
X68.42378 Y19.33592
X68.42378 Y19.76932
X68.70608 Y19.76932
X68.73178 Y19.74361
X68.73178 Y19.25476
X68.66971 Y19.10483
X68.55498 Y18.99009
X68.40489 Y18.92791
G04 P0 ( dwell for no time -- G64 should not smooth over this point )
G00 Z5.00000 ( retract )

G00 X65.62978 Y19.25484 ( rapid move to begin. )
F300.00000
G01 Z-0.05000
G04 P0 ( dwell for no time -- G64 should not smooth over this point )
F600.00000
G01 X65.62978 Y19.25484
X65.62978 Y19.74356
X65.65554 Y19.76932
X65.93778 Y19.76932
X65.93778 Y19.33592
X65.97545 Y19.25773
X66.03778 Y19.23592
X66.82678 Y19.23592
X66.82678 Y18.95367
X66.80103 Y18.92791
X65.95673 Y18.92791
X65.80670 Y18.99004
X65.69196 Y19.10480
X65.62978 Y19.25484
G04 P0 ( dwell for no time -- G64 should not smooth over this point )
G00 Z5.00000 ( retract )

G00 X67.54649 Y27.27644 ( rapid move to begin. )
F300.00000
G01 Z-0.05000
G04 P0 ( dwell for no time -- G64 should not smooth over this point )
F600.00000
G01 X67.54649 Y27.27644
X67.72483 Y27.29663
X67.87685 Y27.34433
X68.05134 Y27.44118
X68.18617 Y27.55965
X68.29437 Y27.70278
X68.36455 Y27.84580
X68.41152 Y28.01903
X68.42163 Y28.21835
X68.39242 Y28.39541
X68.32818 Y28.56297
X68.24393 Y28.69818
X68.12175 Y28.82965
X67.97565 Y28.93384
X67.79224 Y29.01255
X67.61657 Y29.04664
X66.82572 Y29.05070
X66.65658 Y29.03407
X66.46616 Y28.97433
X66.31025 Y28.88545
X66.17543 Y28.76699
X66.06722 Y28.62386
X65.99704 Y28.48083
X65.95008 Y28.30760
X65.93895 Y28.12851
X65.96410 Y27.95081
X66.02453 Y27.78182
X66.11767 Y27.62846
X66.25518 Y27.48380
X66.40365 Y27.38299
X66.56936 Y27.31408
X66.74502 Y27.27999
X67.54649 Y27.27644
G04 P0 ( dwell for no time -- G64 should not smooth over this point )
G00 Z5.00000 ( retract )

G00 X68.02693 Y29.26368 ( rapid move to begin. )
F300.00000
G01 Z-0.05000
G04 P0 ( dwell for no time -- G64 should not smooth over this point )
F600.00000
G01 X68.02693 Y29.26368
X68.41332 Y29.00549
X68.67151 Y28.61911
X68.76221 Y28.16333
X68.67156 Y27.70763
X68.41337 Y27.32122
X68.27507 Y27.22810
X68.22305 Y27.17438
X68.19292 Y27.11207
X68.18314 Y27.03780
X68.20659 Y26.94507
X68.26630 Y26.87016
X68.32592 Y26.83509
X68.40164 Y26.82010
X68.55490 Y26.75663
X68.66966 Y26.64187
X68.73178 Y26.49196
X68.73178 Y26.00306
X68.70603 Y25.97730
X68.42378 Y25.97730
X68.42129 Y26.43298
X68.40199 Y26.47306
X68.34606 Y26.50821
X66.03778 Y26.51070
X65.97545 Y26.48891
X65.94030 Y26.43298
X65.93778 Y25.97730
X65.65559 Y25.97730
X65.62978 Y26.00311
X65.62978 Y26.49181
X65.69194 Y26.64189
X65.80662 Y26.75658
X65.95991 Y26.82008
X66.03568 Y26.83509
X66.09529 Y26.87016
X66.14469 Y26.92648
X66.17672 Y27.01665
X66.17502 Y27.08586
X66.13855 Y27.17438
X66.08653 Y27.22810
X65.94827 Y27.32117
X65.69008 Y27.70758
X65.59938 Y28.16333
X65.69003 Y28.61906
X65.94822 Y29.00544
X66.33461 Y29.26363
X66.81251 Y29.35870
X67.54903 Y29.35870
X68.02693 Y29.26368
G04 P0 ( dwell for no time -- G64 should not smooth over this point )
G00 Z5.00000 ( retract )

G00 X68.40489 Y29.92792 ( rapid move to begin. )
F300.00000
G01 Z-0.05000
G04 P0 ( dwell for no time -- G64 should not smooth over this point )
F600.00000
G01 X68.40489 Y29.92792
X67.56059 Y29.92792
X67.53478 Y29.95372
X67.53478 Y30.23592
X68.36719 Y30.24582
X68.41390 Y30.29254
X68.42378 Y30.33592
X68.42378 Y30.76932
X68.70608 Y30.76932
X68.73178 Y30.74361
X68.73178 Y30.25477
X68.66971 Y30.10483
X68.55495 Y29.99010
X68.40489 Y29.92792
G04 P0 ( dwell for no time -- G64 should not smooth over this point )
G00 Z5.00000 ( retract )

G00 X66.80103 Y29.92792 ( rapid move to begin. )
F300.00000
G01 Z-0.05000
G04 P0 ( dwell for no time -- G64 should not smooth over this point )
F600.00000
G01 X66.80103 Y29.92792
X65.95673 Y29.92792
X65.80664 Y29.99007
X65.69196 Y30.10475
X65.62978 Y30.25484
X65.62978 Y30.74356
X65.65554 Y30.76932
X65.93778 Y30.76932
X65.93778 Y30.33592
X65.94769 Y30.29254
X65.99440 Y30.24582
X66.82678 Y30.23592
X66.82678 Y29.95367
X66.80103 Y29.92792
G04 P0 ( dwell for no time -- G64 should not smooth over this point )
G00 Z5.00000 ( retract )

G00 X67.54649 Y32.77645 ( rapid move to begin. )
F300.00000
G01 Z-0.05000
G04 P0 ( dwell for no time -- G64 should not smooth over this point )
F600.00000
G01 X67.54649 Y32.77645
X67.72483 Y32.79665
X67.87685 Y32.84435
X68.05134 Y32.94120
X68.18617 Y33.05966
X68.29437 Y33.20279
X68.36455 Y33.34582
X68.41152 Y33.51905
X68.42163 Y33.71836
X68.39242 Y33.89542
X68.32818 Y34.06299
X68.24393 Y34.19819
X68.12175 Y34.32966
X67.97565 Y34.43385
X67.79224 Y34.51257
X67.61657 Y34.54665
X66.82572 Y34.55072
X66.65658 Y34.53408
X66.46616 Y34.47434
X66.31025 Y34.38547
X66.17543 Y34.26700
X66.06722 Y34.12387
X65.99704 Y33.98084
X65.95008 Y33.80762
X65.93895 Y33.62852
X65.96410 Y33.45082
X66.02453 Y33.28184
X66.11767 Y33.12847
X66.25518 Y32.98382
X66.40365 Y32.88301
X66.56936 Y32.81409
X66.74502 Y32.78001
X67.54649 Y32.77645
G04 P0 ( dwell for no time -- G64 should not smooth over this point )
G00 Z5.00000 ( retract )

G00 X68.02693 Y34.76367 ( rapid move to begin. )
F300.00000
G01 Z-0.05000
G04 P0 ( dwell for no time -- G64 should not smooth over this point )
F600.00000
G01 X68.02693 Y34.76367
X68.41332 Y34.50548
X68.67151 Y34.11910
X68.76221 Y33.66334
X68.67156 Y33.20764
X68.41337 Y32.82123
X68.27507 Y32.72812
X68.22305 Y32.67439
X68.19292 Y32.61209
X68.18314 Y32.53782
X68.20659 Y32.44508
X68.26630 Y32.37018
X68.32592 Y32.33510
X68.40164 Y32.32012
X68.55495 Y32.25662
X68.66966 Y32.14191
X68.73178 Y31.99197
X68.73178 Y31.50307
X68.70603 Y31.47732
X68.42378 Y31.47732
X68.42129 Y31.93299
X68.40199 Y31.97308
X68.34606 Y32.00823
X66.03778 Y32.01072
X65.97545 Y31.98893
X65.94030 Y31.93299
X65.93778 Y31.47732
X65.65559 Y31.47732
X65.62978 Y31.50312
X65.62978 Y31.99180
X65.69191 Y32.14183
X65.80667 Y32.25659
X65.95991 Y32.32009
X66.03568 Y32.33510
X66.09529 Y32.37018
X66.14469 Y32.42649
X66.17672 Y32.51666
X66.17502 Y32.58588
X66.13855 Y32.67439
X66.08653 Y32.72812
X65.94827 Y32.82118
X65.69008 Y33.20759
X65.59938 Y33.66334
X65.69003 Y34.11905
X65.94822 Y34.50543
X66.33461 Y34.76362
X66.81254 Y34.85872
X67.54903 Y34.85872
X68.02693 Y34.76367
G04 P0 ( dwell for no time -- G64 should not smooth over this point )
G00 Z5.00000 ( retract )

G00 X70.15934 Y33.63286 ( rapid move to begin. )
F300.00000
G01 Z-0.05000
G04 P0 ( dwell for no time -- G64 should not smooth over this point )
F600.00000
G01 X70.15934 Y33.63286
X70.18035 Y33.45400
X70.23808 Y33.28339
X70.33003 Y33.12852
X70.45215 Y32.99614
X70.58101 Y32.90251
X70.74466 Y32.82728
X70.92038 Y32.78770
X71.10041 Y32.78549
X71.27704 Y32.82083
X71.44245 Y32.89207
X71.58941 Y32.99614
X71.71156 Y33.12852
X71.81202 Y33.30249
X71.86559 Y33.47444
X71.88225 Y33.65377
X71.86124 Y33.83263
X71.80351 Y34.00325
X71.71156 Y34.15811
X71.58944 Y34.29050
X71.46058 Y34.38412
X71.29693 Y34.45935
X71.12121 Y34.49893
X70.94115 Y34.50111
X70.76455 Y34.46581
X70.59914 Y34.39456
X70.45218 Y34.29050
X70.33003 Y34.15811
X70.22957 Y33.98415
X70.17600 Y33.81219
X70.15934 Y33.63286
G04 P0 ( dwell for no time -- G64 should not smooth over this point )
G00 Z5.00000 ( retract )

G00 X71.68443 Y32.65207 ( rapid move to begin. )
F300.00000
G01 Z-0.05000
G04 P0 ( dwell for no time -- G64 should not smooth over this point )
F600.00000
G01 X71.68443 Y32.65207
X71.25449 Y32.47356
X70.78918 Y32.47307
X70.35893 Y32.65085
X70.02952 Y32.97970
X69.85101 Y33.40965
X69.85053 Y33.87493
X70.02833 Y34.30520
X70.35716 Y34.63461
X70.78713 Y34.81313
X71.25238 Y34.81361
X71.68265 Y34.63581
X72.01207 Y34.30698
X72.19058 Y33.87703
X72.19106 Y33.41173
X72.01329 Y32.98148
X71.68443 Y32.65207
G04 P0 ( dwell for no time -- G64 should not smooth over this point )
G00 Z5.00000 ( retract )

G00 X70.35716 Y29.63462 ( rapid move to begin. )
F300.00000
G01 Z-0.05000
G04 P0 ( dwell for no time -- G64 should not smooth over this point )
F600.00000
G01 X70.35716 Y29.63462
X70.78713 Y29.81311
X71.25240 Y29.81362
X71.68265 Y29.63582
X72.01207 Y29.30699
X72.19058 Y28.87702
X72.19106 Y28.41174
X72.01329 Y27.98149
X71.68443 Y27.65205
X71.25449 Y27.47357
X70.78918 Y27.47308
X70.35893 Y27.65086
X70.02952 Y27.97969
X69.85101 Y28.40966
X69.85053 Y28.87491
X70.02833 Y29.30519
X70.35716 Y29.63462
G04 P0 ( dwell for no time -- G64 should not smooth over this point )
G00 Z5.00000 ( retract )

G00 X70.15934 Y28.63287 ( rapid move to begin. )
F300.00000
G01 Z-0.05000
G04 P0 ( dwell for no time -- G64 should not smooth over this point )
F600.00000
G01 X70.15934 Y28.63287
X70.18035 Y28.45401
X70.23808 Y28.28340
X70.33003 Y28.12853
X70.45215 Y27.99615
X70.58101 Y27.90252
X70.74466 Y27.82729
X70.92038 Y27.78771
X71.10041 Y27.78550
X71.27704 Y27.82084
X71.44245 Y27.89208
X71.58941 Y27.99615
X71.71156 Y28.12853
X71.81202 Y28.30250
X71.86559 Y28.47445
X71.88225 Y28.65378
X71.86124 Y28.83264
X71.80351 Y29.00326
X71.71156 Y29.15812
X71.58944 Y29.29051
X71.46058 Y29.38413
X71.29693 Y29.45936
X71.12121 Y29.49894
X70.94115 Y29.50112
X70.76455 Y29.46582
X70.59914 Y29.39457
X70.45218 Y29.29051
X70.33003 Y29.15812
X70.22957 Y28.98416
X70.17600 Y28.81220
X70.15934 Y28.63287
G04 P0 ( dwell for no time -- G64 should not smooth over this point )
G00 Z5.00000 ( retract )

G00 X80.31934 Y28.63287 ( rapid move to begin. )
F300.00000
G01 Z-0.05000
G04 P0 ( dwell for no time -- G64 should not smooth over this point )
F600.00000
G01 X80.31934 Y28.63287
X80.34035 Y28.45401
X80.39808 Y28.28340
X80.49003 Y28.12853
X80.61215 Y27.99615
X80.74101 Y27.90252
X80.90466 Y27.82729
X81.08038 Y27.78771
X81.26041 Y27.78550
X81.43704 Y27.82084
X81.60245 Y27.89208
X81.74941 Y27.99615
X81.87156 Y28.12853
X81.97202 Y28.30250
X82.02559 Y28.47445
X82.04225 Y28.65378
X82.02124 Y28.83264
X81.96351 Y29.00326
X81.87156 Y29.15812
X81.74944 Y29.29051
X81.62058 Y29.38413
X81.45693 Y29.45936
X81.28121 Y29.49894
X81.10115 Y29.50112
X80.92455 Y29.46582
X80.75914 Y29.39457
X80.61218 Y29.29051
X80.49003 Y29.15812
X80.38957 Y28.98416
X80.33600 Y28.81220
X80.31934 Y28.63287
G04 P0 ( dwell for no time -- G64 should not smooth over this point )
G00 Z5.00000 ( retract )

G00 X80.51716 Y29.63462 ( rapid move to begin. )
F300.00000
G01 Z-0.05000
G04 P0 ( dwell for no time -- G64 should not smooth over this point )
F600.00000
G01 X80.51716 Y29.63462
X80.94713 Y29.81311
X81.41240 Y29.81362
X81.84265 Y29.63582
X82.17207 Y29.30699
X82.35058 Y28.87702
X82.35106 Y28.41174
X82.17329 Y27.98149
X81.84443 Y27.65205
X81.41449 Y27.47357
X80.94918 Y27.47308
X80.51893 Y27.65086
X80.18952 Y27.97969
X80.01101 Y28.40963
X80.01053 Y28.87491
X80.18833 Y29.30519
X80.51716 Y29.63462
G04 P0 ( dwell for no time -- G64 should not smooth over this point )
G00 Z5.00000 ( retract )

G00 X81.84443 Y32.65207 ( rapid move to begin. )
F300.00000
G01 Z-0.05000
G04 P0 ( dwell for no time -- G64 should not smooth over this point )
F600.00000
G01 X81.84443 Y32.65207
X81.41449 Y32.47356
X80.94918 Y32.47307
X80.51893 Y32.65085
X80.18947 Y32.97973
X80.01101 Y33.40955
X80.01053 Y33.87493
X80.18833 Y34.30520
X80.51716 Y34.63461
X80.94713 Y34.81313
X81.41238 Y34.81361
X81.84265 Y34.63581
X82.17207 Y34.30698
X82.35058 Y33.87703
X82.35106 Y33.41173
X82.17329 Y32.98148
X81.84443 Y32.65207
G04 P0 ( dwell for no time -- G64 should not smooth over this point )
G00 Z5.00000 ( retract )

G00 X80.31934 Y33.63286 ( rapid move to begin. )
F300.00000
G01 Z-0.05000
G04 P0 ( dwell for no time -- G64 should not smooth over this point )
F600.00000
G01 X80.31934 Y33.63286
X80.34035 Y33.45400
X80.39808 Y33.28339
X80.49003 Y33.12852
X80.61215 Y32.99614
X80.74101 Y32.90251
X80.90466 Y32.82728
X81.08038 Y32.78770
X81.26041 Y32.78549
X81.43704 Y32.82083
X81.60245 Y32.89207
X81.74941 Y32.99614
X81.87156 Y33.12852
X81.97202 Y33.30249
X82.02559 Y33.47444
X82.04225 Y33.65377
X82.02124 Y33.83263
X81.96351 Y34.00325
X81.87156 Y34.15811
X81.74944 Y34.29050
X81.62058 Y34.38412
X81.45693 Y34.45935
X81.28121 Y34.49893
X81.10115 Y34.50111
X80.92455 Y34.46581
X80.75914 Y34.39456
X80.61218 Y34.29050
X80.49003 Y34.15811
X80.38957 Y33.98415
X80.33600 Y33.81219
X80.31934 Y33.63286
G04 P0 ( dwell for no time -- G64 should not smooth over this point )
G00 Z5.00000 ( retract )

G00 X84.70432 Y33.67787 ( rapid move to begin. )
F300.00000
G01 Z-0.05000
G04 P0 ( dwell for no time -- G64 should not smooth over this point )
F600.00000
G01 X84.70432 Y33.67787
X84.72533 Y33.49901
X84.78306 Y33.32839
X84.87501 Y33.17353
X84.99713 Y33.04115
X85.12599 Y32.94752
X85.28964 Y32.87229
X85.46536 Y32.83271
X85.64539 Y32.83050
X85.82202 Y32.86583
X85.98743 Y32.93708
X86.13439 Y33.04115
X86.25654 Y33.17353
X86.35700 Y33.34749
X86.41057 Y33.51945
X86.42723 Y33.69878
X86.40622 Y33.87764
X86.34849 Y34.04826
X86.25654 Y34.20312
X86.13442 Y34.33550
X86.00556 Y34.42913
X85.84191 Y34.50436
X85.66619 Y34.54394
X85.48613 Y34.54612
X85.30953 Y34.51081
X85.14412 Y34.43957
X84.99716 Y34.33550
X84.87501 Y34.20312
X84.77455 Y34.02915
X84.72098 Y33.85720
X84.70432 Y33.67787
G04 P0 ( dwell for no time -- G64 should not smooth over this point )
G00 Z5.00000 ( retract )

G00 X85.33419 Y32.51808 ( rapid move to begin. )
F300.00000
G01 Z-0.05000
G04 P0 ( dwell for no time -- G64 should not smooth over this point )
F600.00000
G01 X85.33419 Y32.51808
X84.90394 Y32.69586
X84.57453 Y33.02469
X84.39602 Y33.45466
X84.39553 Y33.91991
X84.57333 Y34.35019
X84.90216 Y34.67962
X85.33211 Y34.85813
X85.79738 Y34.85862
X86.22766 Y34.68082
X86.55707 Y34.35199
X86.73558 Y33.92202
X86.73607 Y33.45677
X86.55827 Y33.02649
X86.22944 Y32.69708
X85.79949 Y32.51857
X85.33419 Y32.51808
G04 P0 ( dwell for no time -- G64 should not smooth over this point )
G00 Z5.00000 ( retract )

G00 X84.90216 Y29.67961 ( rapid move to begin. )
F300.00000
G01 Z-0.05000
G04 P0 ( dwell for no time -- G64 should not smooth over this point )
F600.00000
G01 X84.90216 Y29.67961
X85.33211 Y29.85812
X85.79741 Y29.85860
X86.22766 Y29.68083
X86.55707 Y29.35197
X86.73558 Y28.92203
X86.73607 Y28.45675
X86.55827 Y28.02647
X86.22944 Y27.69706
X85.79949 Y27.51855
X85.33422 Y27.51807
X84.90394 Y27.69587
X84.57453 Y28.02470
X84.39602 Y28.45467
X84.39553 Y28.91992
X84.57333 Y29.35020
X84.90216 Y29.67961
G04 P0 ( dwell for no time -- G64 should not smooth over this point )
G00 Z5.00000 ( retract )

G00 X84.70432 Y28.67788 ( rapid move to begin. )
F300.00000
G01 Z-0.05000
G04 P0 ( dwell for no time -- G64 should not smooth over this point )
F600.00000
G01 X84.70432 Y28.67788
X84.72533 Y28.49902
X84.78306 Y28.32840
X84.87501 Y28.17354
X84.99713 Y28.04116
X85.12599 Y27.94753
X85.28964 Y27.87230
X85.46536 Y27.83272
X85.64539 Y27.83051
X85.82202 Y27.86584
X85.98743 Y27.93709
X86.13439 Y28.04116
X86.25654 Y28.17354
X86.35700 Y28.34750
X86.41057 Y28.51946
X86.42723 Y28.69879
X86.40622 Y28.87765
X86.34849 Y29.04827
X86.25654 Y29.20313
X86.13442 Y29.33551
X86.00556 Y29.42914
X85.84191 Y29.50437
X85.66619 Y29.54395
X85.48613 Y29.54613
X85.30953 Y29.51082
X85.14412 Y29.43958
X84.99716 Y29.33551
X84.87501 Y29.20313
X84.77455 Y29.02916
X84.72098 Y28.85721
X84.70432 Y28.67788
G04 P0 ( dwell for no time -- G64 should not smooth over this point )
G00 Z5.00000 ( retract )

G00 X84.70432 Y23.67787 ( rapid move to begin. )
F300.00000
G01 Z-0.05000
G04 P0 ( dwell for no time -- G64 should not smooth over this point )
F600.00000
G01 X84.70432 Y23.67787
X84.72533 Y23.49900
X84.78306 Y23.32839
X84.87501 Y23.17352
X84.99713 Y23.04114
X85.12599 Y22.94752
X85.28964 Y22.87228
X85.46536 Y22.83271
X85.64539 Y22.83050
X85.82202 Y22.86583
X85.98743 Y22.93708
X86.13439 Y23.04114
X86.25654 Y23.17352
X86.35700 Y23.34749
X86.41057 Y23.51945
X86.42723 Y23.69877
X86.40622 Y23.87764
X86.34849 Y24.04825
X86.25654 Y24.20311
X86.13442 Y24.33550
X86.00556 Y24.42912
X85.84191 Y24.50436
X85.66619 Y24.54393
X85.48613 Y24.54612
X85.30953 Y24.51081
X85.14412 Y24.43956
X84.99716 Y24.33550
X84.87501 Y24.20311
X84.77455 Y24.02915
X84.72098 Y23.85719
X84.70432 Y23.67787
G04 P0 ( dwell for no time -- G64 should not smooth over this point )
G00 Z5.00000 ( retract )

G00 X84.39602 Y23.45465 ( rapid move to begin. )
F300.00000
G01 Z-0.05000
G04 P0 ( dwell for no time -- G64 should not smooth over this point )
F600.00000
G01 X84.39602 Y23.45465
X84.39553 Y23.91993
X84.57333 Y24.35021
X84.90216 Y24.67962
X85.33211 Y24.85813
X85.79738 Y24.85861
X86.22766 Y24.68081
X86.55707 Y24.35198
X86.73558 Y23.92201
X86.73607 Y23.45676
X86.55827 Y23.02648
X86.22944 Y22.69707
X85.79949 Y22.51856
X85.33419 Y22.51808
X84.90394 Y22.69585
X84.57453 Y23.02471
X84.39602 Y23.45465
G04 P0 ( dwell for no time -- G64 should not smooth over this point )
G00 Z5.00000 ( retract )

G00 X85.18606 Y19.85832 ( rapid move to begin. )
F300.00000
G01 Z-0.05000
G04 P0 ( dwell for no time -- G64 should not smooth over this point )
F600.00000
G01 X85.18606 Y19.85832
X85.21176 Y19.83261
X85.21176 Y19.55032
X84.80376 Y19.55032
X84.74143 Y19.52852
X84.70376 Y19.45032
X84.70376 Y19.04232
X84.42157 Y19.04232
X84.39576 Y19.06812
X84.39576 Y19.53139
X84.45792 Y19.68148
X84.57262 Y19.79619
X84.72258 Y19.85832
X85.18606 Y19.85832
G04 P0 ( dwell for no time -- G64 should not smooth over this point )
G00 Z5.00000 ( retract )

G00 X85.91976 Y19.55032 ( rapid move to begin. )
F300.00000
G01 Z-0.05000
G04 P0 ( dwell for no time -- G64 should not smooth over this point )
F600.00000
G01 X85.91976 Y19.55032
X85.91976 Y19.83256
X85.94552 Y19.85832
X86.40897 Y19.85832
X86.55890 Y19.79624
X86.67363 Y19.68148
X86.73576 Y19.53157
X86.73576 Y19.06807
X86.71001 Y19.04232
X86.42776 Y19.04232
X86.42527 Y19.47259
X86.37117 Y19.54044
X85.91976 Y19.55032
G04 P0 ( dwell for no time -- G64 should not smooth over this point )
G00 Z5.00000 ( retract )

G00 X86.73576 Y17.84516 ( rapid move to begin. )
F300.00000
G01 Z-0.05000
G04 P0 ( dwell for no time -- G64 should not smooth over this point )
F600.00000
G01 X86.73576 Y17.84516
X86.67368 Y17.69525
X86.55893 Y17.58050
X86.40889 Y17.51832
X85.94557 Y17.51832
X85.91976 Y17.54412
X85.91976 Y17.82632
X86.32776 Y17.82632
X86.40597 Y17.86399
X86.42776 Y17.92632
X86.42776 Y18.33432
X86.71006 Y18.33432
X86.73576 Y18.30861
X86.73576 Y17.84516
G04 P0 ( dwell for no time -- G64 should not smooth over this point )
G00 Z5.00000 ( retract )

G00 X84.39576 Y17.84527 ( rapid move to begin. )
F300.00000
G01 Z-0.05000
G04 P0 ( dwell for no time -- G64 should not smooth over this point )
F600.00000
G01 X84.39576 Y17.84527
X84.39576 Y18.30856
X84.42152 Y18.33432
X84.70376 Y18.33432
X84.70376 Y17.92632
X84.72558 Y17.86399
X84.80376 Y17.82632
X85.21176 Y17.82632
X85.21176 Y17.54407
X85.18601 Y17.51832
X84.72274 Y17.51832
X84.57270 Y17.58044
X84.45797 Y17.69520
X84.39576 Y17.84527
G04 P0 ( dwell for no time -- G64 should not smooth over this point )
G00 Z5.00000 ( retract )

G00 X84.83132 Y14.79488 ( rapid move to begin. )
F300.00000
G01 Z-0.05000
G04 P0 ( dwell for no time -- G64 should not smooth over this point )
F600.00000
G01 X84.83132 Y14.79488
X84.85233 Y14.61601
X84.91006 Y14.44540
X85.00201 Y14.29054
X85.12413 Y14.15815
X85.25299 Y14.06453
X85.41664 Y13.98929
X85.59236 Y13.94972
X85.77239 Y13.94751
X85.94902 Y13.98284
X86.11443 Y14.05409
X86.26139 Y14.15815
X86.38354 Y14.29054
X86.48400 Y14.46450
X86.53757 Y14.63646
X86.55423 Y14.81578
X86.53322 Y14.99465
X86.47549 Y15.16526
X86.38354 Y15.32012
X86.26142 Y15.45251
X86.13256 Y15.54613
X85.96891 Y15.62137
X85.79319 Y15.66094
X85.61313 Y15.66313
X85.43653 Y15.62782
X85.27112 Y15.55657
X85.12416 Y15.45251
X85.00201 Y15.32012
X84.90155 Y15.14616
X84.84798 Y14.97420
X84.83132 Y14.79488
G04 P0 ( dwell for no time -- G64 should not smooth over this point )
G00 Z5.00000 ( retract )

G00 X85.03094 Y13.81286 ( rapid move to begin. )
F300.00000
G01 Z-0.05000
G04 P0 ( dwell for no time -- G64 should not smooth over this point )
F600.00000
G01 X85.03094 Y13.81286
X84.70153 Y14.14169
X84.52302 Y14.57166
X84.52253 Y15.03691
X84.70033 Y15.46719
X85.02916 Y15.79660
X85.45911 Y15.97511
X85.92441 Y15.97560
X86.35466 Y15.79782
X86.68407 Y15.46899
X86.86258 Y15.03902
X86.86307 Y14.57377
X86.68527 Y14.14349
X86.35644 Y13.81406
X85.92649 Y13.63555
X85.46122 Y13.63506
X85.03094 Y13.81286
G04 P0 ( dwell for no time -- G64 should not smooth over this point )
G00 Z5.00000 ( retract )

G00 X84.83132 Y9.79486 ( rapid move to begin. )
F300.00000
G01 Z-0.05000
G04 P0 ( dwell for no time -- G64 should not smooth over this point )
F600.00000
G01 X84.83132 Y9.79486
X84.85233 Y9.61600
X84.91006 Y9.44538
X85.00201 Y9.29052
X85.12413 Y9.15814
X85.25299 Y9.06451
X85.41664 Y8.98928
X85.59236 Y8.94970
X85.77239 Y8.94749
X85.94902 Y8.98282
X86.11443 Y9.05407
X86.26139 Y9.15814
X86.38354 Y9.29052
X86.48400 Y9.46448
X86.53757 Y9.63644
X86.55423 Y9.81577
X86.53322 Y9.99463
X86.47549 Y10.16525
X86.38354 Y10.32011
X86.26142 Y10.45249
X86.13256 Y10.54612
X85.96891 Y10.62135
X85.79319 Y10.66093
X85.61313 Y10.66311
X85.43653 Y10.62780
X85.27112 Y10.55656
X85.12416 Y10.45249
X85.00201 Y10.32011
X84.90155 Y10.14614
X84.84798 Y9.97419
X84.83132 Y9.79486
G04 P0 ( dwell for no time -- G64 should not smooth over this point )
G00 Z5.00000 ( retract )

G00 X85.03094 Y8.81287 ( rapid move to begin. )
F300.00000
G01 Z-0.05000
G04 P0 ( dwell for no time -- G64 should not smooth over this point )
F600.00000
G01 X85.03094 Y8.81287
X84.70153 Y9.14170
X84.52302 Y9.57165
X84.52253 Y10.03692
X84.70033 Y10.46720
X85.02916 Y10.79661
X85.45911 Y10.97512
X85.92438 Y10.97561
X86.35466 Y10.79781
X86.68407 Y10.46898
X86.86258 Y10.03903
X86.86307 Y9.57376
X86.68527 Y9.14348
X86.35644 Y8.81407
X85.92649 Y8.63556
X85.46122 Y8.63507
X85.03094 Y8.81287
G04 P0 ( dwell for no time -- G64 should not smooth over this point )
G00 Z5.00000 ( retract )

G00 X86.43373 Y5.98776 ( rapid move to begin. )
F300.00000
G01 Z-0.05000
G04 P0 ( dwell for no time -- G64 should not smooth over this point )
F600.00000
G01 X86.43373 Y5.98776
X86.60457 Y5.95565
X86.74473 Y5.86546
X86.83784 Y5.72916
X86.87521 Y5.54473
X86.87521 Y4.06439
X86.84308 Y3.89355
X86.75293 Y3.75345
X86.61656 Y3.66028
X86.43195 Y3.62287
X84.95217 Y3.62287
X84.78100 Y3.65507
X84.64085 Y3.74524
X84.54775 Y3.88151
X84.51034 Y4.06617
X84.51034 Y5.54603
X84.54252 Y5.71715
X84.63269 Y5.85728
X84.76899 Y5.95039
X84.95339 Y5.98776
X86.43373 Y5.98776
G04 P0 ( dwell for no time -- G64 should not smooth over this point )
G00 Z5.00000 ( retract )

G00 X86.55476 Y4.04331 ( rapid move to begin. )
F300.00000
G01 Z-0.05000
G04 P0 ( dwell for no time -- G64 should not smooth over this point )
F600.00000
G01 X86.55476 Y4.04331
X86.55476 Y5.56731
X86.51712 Y5.64552
X86.45476 Y5.66731
X84.93076 Y5.66731
X84.85258 Y5.62967
X84.83076 Y5.56731
X84.83076 Y4.04331
X84.86843 Y3.96513
X84.93076 Y3.94331
X86.45476 Y3.94331
X86.51712 Y3.96513
X86.55476 Y4.04331
G04 P0 ( dwell for no time -- G64 should not smooth over this point )
G00 Z5.00000 ( retract )

G00 X79.81934 Y23.63288 ( rapid move to begin. )
F300.00000
G01 Z-0.05000
G04 P0 ( dwell for no time -- G64 should not smooth over this point )
F600.00000
G01 X79.81934 Y23.63288
X79.84035 Y23.45402
X79.89808 Y23.28341
X79.99003 Y23.12854
X80.11215 Y22.99616
X80.24101 Y22.90253
X80.40466 Y22.82730
X80.58038 Y22.78772
X80.76041 Y22.78551
X80.93704 Y22.82085
X81.10245 Y22.89209
X81.24941 Y22.99616
X81.37156 Y23.12854
X81.47202 Y23.30251
X81.52559 Y23.47446
X81.54225 Y23.65379
X81.52124 Y23.83265
X81.46351 Y24.00327
X81.37156 Y24.15813
X81.24944 Y24.29052
X81.12058 Y24.38414
X80.95693 Y24.45937
X80.78121 Y24.49895
X80.60115 Y24.50113
X80.42455 Y24.46583
X80.25914 Y24.39458
X80.11218 Y24.29052
X79.99003 Y24.15813
X79.88957 Y23.98417
X79.83600 Y23.81221
X79.81934 Y23.63288
G04 P0 ( dwell for no time -- G64 should not smooth over this point )
G00 Z5.00000 ( retract )

G00 X79.51053 Y23.87492 ( rapid move to begin. )
F300.00000
G01 Z-0.05000
G04 P0 ( dwell for no time -- G64 should not smooth over this point )
F600.00000
G01 X79.51053 Y23.87492
X79.68833 Y24.30520
X80.01716 Y24.63461
X80.44710 Y24.81312
X80.91241 Y24.81360
X81.34266 Y24.63583
X81.67207 Y24.30697
X81.85058 Y23.87703
X81.85106 Y23.41173
X81.67329 Y22.98148
X81.34443 Y22.65206
X80.91449 Y22.47355
X80.44921 Y22.47307
X80.01893 Y22.65087
X79.68947 Y22.97975
X79.51101 Y23.40954
X79.51053 Y23.87492
G04 P0 ( dwell for no time -- G64 should not smooth over this point )
G00 Z5.00000 ( retract )

G00 X90.70017 Y47.02748 ( rapid move to begin. )
F300.00000
G01 Z-0.05000
G04 P0 ( dwell for no time -- G64 should not smooth over this point )
F600.00000
G01 X90.70017 Y47.02748
X90.67291 Y47.12458
X90.62369 Y47.18633
X90.56194 Y47.22512
X90.47378 Y47.24330
X0.22778 Y47.24330
X0.11955 Y47.21544
X0.02870 Y47.12458
X0.00081 Y47.01630
X0.00149 Y0.76585
X0.03596 Y0.65028
X0.11165 Y0.57652
X0.22778 Y0.54332
X90.47378 Y0.54332
X90.58206 Y0.57123
X90.67291 Y0.66209
X90.70078 Y0.77032
X90.70017 Y47.02748
G04 P0 ( dwell for no time -- G64 should not smooth over this point )
G00 Z5.00000 ( retract )

G00 X14.48183 Y32.86926 ( rapid move to begin. )
F300.00000
G01 Z-0.05000
G04 P0 ( dwell for no time -- G64 should not smooth over this point )
F600.00000
G01 X14.48183 Y32.86926
X14.48183 Y34.43136
X14.44419 Y34.50957
X14.38183 Y34.53136
X12.81973 Y34.53136
X12.74155 Y34.49372
X12.71973 Y34.43136
X12.71973 Y32.86926
X12.75740 Y32.79108
X12.81973 Y32.76926
X14.38183 Y32.76926
X14.44419 Y32.79108
X14.48183 Y32.86926
G04 P0 ( dwell for no time -- G64 should not smooth over this point )
G00 Z5.00000 ( retract )

G00 X12.52986 Y32.57119 ( rapid move to begin. )
F300.00000
G01 Z-0.05000
G04 P0 ( dwell for no time -- G64 should not smooth over this point )
F600.00000
G01 X12.52986 Y32.57119
X12.43667 Y32.70754
X12.39928 Y32.89212
X12.39928 Y34.41008
X12.43144 Y34.58115
X12.52164 Y34.72125
X12.65801 Y34.81447
X12.84234 Y34.85181
X14.36080 Y34.85181
X14.53161 Y34.81970
X14.67175 Y34.72951
X14.76491 Y34.59316
X14.80228 Y34.40878
X14.80228 Y32.89040
X14.77012 Y32.71951
X14.67997 Y32.57940
X14.54360 Y32.48621
X14.35902 Y32.44882
X12.84107 Y32.44882
X12.67002 Y32.48097
X12.52986 Y32.57119
G04 P0 ( dwell for no time -- G64 should not smooth over this point )
G00 Z5.00000 ( retract )

G00 X12.72029 Y41.13287 ( rapid move to begin. )
F300.00000
G01 Z-0.05000
G04 P0 ( dwell for no time -- G64 should not smooth over this point )
F600.00000
G01 X12.72029 Y41.13287
X12.74170 Y40.95005
X12.79217 Y40.79475
X12.88232 Y40.63425
X13.00388 Y40.49599
X13.15148 Y40.38604
X13.31879 Y40.30918
X13.49837 Y40.26877
X13.68242 Y40.26656
X13.86293 Y40.30273
X14.03197 Y40.37557
X14.18219 Y40.48200
X14.30698 Y40.61733
X14.40091 Y40.77565
X14.45988 Y40.95005
X14.48130 Y41.15378
X14.45988 Y41.33661
X14.40941 Y41.49190
X14.31927 Y41.65241
X14.19771 Y41.79066
X14.05011 Y41.90061
X13.88280 Y41.97748
X13.70322 Y42.01789
X13.51914 Y42.02007
X13.33865 Y41.98393
X13.16961 Y41.91108
X13.01940 Y41.80465
X12.89461 Y41.66932
X12.80068 Y41.51100
X12.74170 Y41.33661
X12.72029 Y41.13287
G04 P0 ( dwell for no time -- G64 should not smooth over this point )
G00 Z5.00000 ( retract )

G00 X12.41148 Y41.37870 ( rapid move to begin. )
F300.00000
G01 Z-0.05000
G04 P0 ( dwell for no time -- G64 should not smooth over this point )
F600.00000
G01 X12.41148 Y41.37870
X12.59217 Y41.81598
X12.92636 Y42.15075
X13.36332 Y42.33216
X13.83616 Y42.33267
X14.27342 Y42.15197
X14.60822 Y41.81779
X14.78963 Y41.38083
X14.79011 Y40.90796
X14.60944 Y40.47070
X14.27525 Y40.13592
X13.83830 Y39.95452
X13.36542 Y39.95401
X12.92816 Y40.13471
X12.59334 Y40.46894
X12.41196 Y40.90577
X12.41148 Y41.37870

G04 P0 ( dwell for no time -- G64 should not smooth over this point )
G00 Z10.000 ( retract )

M5 ( Spindle off. )
M9 ( Coolant off. )
M2 ( Program end. )

