( pcb2gcode 1.3.2 )
( Software-independent Gcode )

G94 ( Millimeters per minute feed rate. )
G21 ( Units == Millimeters. )

G90 ( Absolute coordinates. )
S10000 ( RPM spindle speed. )
G64 P0.01000 ( set maximum deviation from commanded toolpath )
F600.00000 ( Feedrate. )

F600.00000 ( Feedrate. )
M3 ( Spindle on clockwise. )
G04 P0 ( dwell for no time -- G64 should not smooth over this point )
G00 Z5.00000 ( retract )

G00 X0.00139 Y47.02748 ( rapid move to begin. )
F300.00000
G01 Z-0.05000
G04 P0 ( dwell for no time -- G64 should not smooth over this point )
F600.00000
G01 X0.00139 Y47.02748
X0.02865 Y47.12458
X0.07787 Y47.18633
X0.13962 Y47.22512
X0.22778 Y47.24330
X90.47378 Y47.24330
X90.58201 Y47.21544
X90.67286 Y47.12458
X90.70075 Y47.01630
X90.70007 Y0.76585
X90.66560 Y0.65028
X90.58991 Y0.57652
X90.47378 Y0.54332
X0.22778 Y0.54332
X0.11950 Y0.57123
X0.02865 Y0.66209
X0.00078 Y0.77032
X0.00139 Y47.02748
G04 P0 ( dwell for no time -- G64 should not smooth over this point )
G00 Z5.00000 ( retract )

G00 X4.01490 Y35.64332 ( rapid move to begin. )
F300.00000
G01 Z-0.05000
G04 P0 ( dwell for no time -- G64 should not smooth over this point )
F600.00000
G01 X4.01490 Y35.64332
X3.10078 Y34.72920
X3.10078 Y8.12753
X5.56099 Y5.66731
X5.79305 Y5.66482
X5.86089 Y5.61072
X5.87080 Y5.30534
X5.94558 Y5.15377
X5.99427 Y4.97204
X6.00740 Y4.76350
X5.97148 Y4.53658
X5.87080 Y4.30577
X5.86089 Y3.99993
X5.79305 Y3.94583
X5.50844 Y3.94331
X5.27761 Y3.84265
X5.05066 Y3.80671
X4.84215 Y3.81982
X4.66041 Y3.86848
X4.50877 Y3.94331
X4.24680 Y3.94331
X4.18444 Y3.96513
X4.14929 Y4.02106
X4.14680 Y4.25309
X1.38503 Y7.01605
X1.22895 Y7.22507
X1.13903 Y7.44214
X1.10078 Y7.71331
X1.10162 Y35.15638
X1.13903 Y35.41455
X1.22895 Y35.63162
X1.39367 Y35.85044
X2.89366 Y37.35043
X3.08988 Y37.50210
X3.32955 Y37.60507
X3.60077 Y37.64332
X47.10079 Y37.64332
X47.37201 Y37.60507
X47.58910 Y37.51513
X47.79815 Y37.35894
X47.89657 Y37.26049
X48.03955 Y37.07413
X48.14249 Y36.83448
X48.18077 Y36.56331
X48.18077 Y34.64330
X51.64561 Y34.64330
X51.72354 Y34.68051
X51.92547 Y34.73461
X52.15486 Y34.74884
X52.38224 Y34.71503
X52.57515 Y34.64330
X87.19352 Y34.65031
X87.73878 Y35.19557
X87.74127 Y35.42760
X87.77643 Y35.48353
X87.83878 Y35.50533
X88.10063 Y35.50533
X88.25234 Y35.58015
X88.43408 Y35.62885
X88.64259 Y35.64198
X88.86951 Y35.60604
X89.10045 Y35.50533
X89.36278 Y35.50533
X89.42511 Y35.48353
X89.46278 Y35.40533
X89.46278 Y35.14300
X89.56344 Y34.91216
X89.59938 Y34.68524
X89.58625 Y34.47670
X89.53756 Y34.29497
X89.46278 Y34.14340
X89.46278 Y33.88133
X89.44096 Y33.81900
X89.38503 Y33.78384
X89.15295 Y33.78133
X88.31488 Y32.94325
X88.11864 Y32.79159
X87.87896 Y32.68862
X87.60779 Y32.65032
X52.54904 Y32.64331
X52.28305 Y32.55905
X52.05366 Y32.54483
X51.82628 Y32.57864
X51.65176 Y32.64331
X47.18077 Y32.64331
X46.94745 Y32.67150
X46.73706 Y32.74778
X46.54890 Y32.86898
X46.39243 Y33.02898
X46.27547 Y33.21981
X46.20394 Y33.43187
X46.18078 Y33.64330
X46.18078 Y35.64332
X4.01490 Y35.64332
G04 P0 ( dwell for no time -- G64 should not smooth over this point )
G00 Z5.00000 ( retract )

G00 X8.98423 Y32.68831 ( rapid move to begin. )
F300.00000
G01 Z-0.05000
G04 P0 ( dwell for no time -- G64 should not smooth over this point )
F600.00000
G01 X8.98423 Y32.68831
X5.13580 Y32.68831
X4.91776 Y32.71290
X4.73882 Y32.77104
X4.55678 Y32.87363
X4.40004 Y33.01181
X4.27545 Y33.17955
X4.18848 Y33.36954
X4.14291 Y33.57348
X4.14073 Y33.78239
X4.18203 Y33.98724
X4.27545 Y34.19712
X4.40004 Y34.36487
X4.55678 Y34.50304
X4.71972 Y34.59712
X4.93821 Y34.66812
X5.13580 Y34.68831
X9.02657 Y34.68831
X9.20163 Y34.75311
X9.42901 Y34.78684
X9.65842 Y34.77256
X9.87986 Y34.71089
X10.08362 Y34.60454
X10.25385 Y34.46591
X10.43731 Y34.25067
X10.54353 Y34.04683
X10.60508 Y33.82535
X10.61923 Y33.59593
X10.58537 Y33.36858
X10.50500 Y33.15324
X10.38158 Y32.95931
X10.22057 Y32.79530
X10.02896 Y32.66832
X9.81514 Y32.58397
X9.58842 Y32.54592
X9.35878 Y32.55583
X9.13625 Y32.61326
X8.98423 Y32.68831
G04 P0 ( dwell for no time -- G64 should not smooth over this point )
G00 Z5.00000 ( retract )

G00 X8.98423 Y27.68832 ( rapid move to begin. )
F300.00000
G01 Z-0.05000
G04 P0 ( dwell for no time -- G64 should not smooth over this point )
F600.00000
G01 X8.98423 Y27.68832
X5.13580 Y27.68832
X4.91776 Y27.71291
X4.73882 Y27.77105
X4.55678 Y27.87364
X4.40004 Y28.01182
X4.27545 Y28.17956
X4.18848 Y28.36955
X4.14291 Y28.57349
X4.14073 Y28.78240
X4.18203 Y28.98725
X4.27545 Y29.19713
X4.40004 Y29.36488
X4.55678 Y29.50305
X4.71972 Y29.59713
X4.93821 Y29.66813
X5.13580 Y29.68832
X9.02657 Y29.68832
X9.20163 Y29.75312
X9.42901 Y29.78685
X9.65842 Y29.77257
X9.87986 Y29.71090
X10.08362 Y29.60455
X10.25385 Y29.46592
X10.43731 Y29.25068
X10.54353 Y29.04684
X10.60508 Y28.82536
X10.61923 Y28.59594
X10.58537 Y28.36859
X10.50500 Y28.15325
X10.38158 Y27.95932
X10.22057 Y27.79531
X10.02896 Y27.66833
X9.81514 Y27.58398
X9.58842 Y27.54593
X9.35878 Y27.55584
X9.13625 Y27.61327
X8.98423 Y27.68832
G04 P0 ( dwell for no time -- G64 should not smooth over this point )
G00 Z5.00000 ( retract )

G00 X9.48428 Y22.68831 ( rapid move to begin. )
F300.00000
G01 Z-0.05000
G04 P0 ( dwell for no time -- G64 should not smooth over this point )
F600.00000
G01 X9.48428 Y22.68831
X5.13580 Y22.68831
X4.91776 Y22.71290
X4.73882 Y22.77104
X4.55678 Y22.87363
X4.40004 Y23.01180
X4.27545 Y23.17954
X4.18848 Y23.36954
X4.14291 Y23.57347
X4.14073 Y23.78239
X4.18203 Y23.98724
X4.27545 Y24.19712
X4.40004 Y24.36486
X4.55678 Y24.50304
X4.71972 Y24.59712
X4.93821 Y24.66811
X5.13580 Y24.68830
X9.52659 Y24.68830
X9.70130 Y24.75302
X9.92870 Y24.78683
X10.15811 Y24.77261
X10.37955 Y24.71101
X10.58336 Y24.60471
X10.75362 Y24.46613
X10.93713 Y24.25097
X11.04343 Y24.04713
X11.10503 Y23.82570
X11.11925 Y23.59628
X11.08544 Y23.36888
X11.00513 Y23.15356
X10.88176 Y22.95958
X10.72078 Y22.79552
X10.52923 Y22.66850
X10.31544 Y22.58407
X10.08877 Y22.54594
X9.85908 Y22.55580
X9.63653 Y22.61318
X9.48428 Y22.68831
G04 P0 ( dwell for no time -- G64 should not smooth over this point )
G00 Z5.00000 ( retract )

G00 X6.31822 Y17.94918 ( rapid move to begin. )
F300.00000
G01 Z-0.05000
G04 P0 ( dwell for no time -- G64 should not smooth over this point )
F600.00000
G01 X6.31822 Y17.94918
X6.31822 Y19.42903
X6.28606 Y19.60013
X6.19589 Y19.74023
X6.05952 Y19.83340
X5.87517 Y19.87076
X4.39485 Y19.87076
X4.22396 Y19.83861
X4.08381 Y19.74844
X3.99072 Y19.61217
X3.95335 Y19.42774
X3.95335 Y17.94740
X3.98548 Y17.77653
X4.07565 Y17.63640
X4.21195 Y17.54328
X4.39661 Y17.50587
X5.87646 Y17.50587
X6.04753 Y17.53803
X6.18769 Y17.62822
X6.28080 Y17.76452
X6.31822 Y17.94918
G04 P0 ( dwell for no time -- G64 should not smooth over this point )
G00 Z5.00000 ( retract )

G00 X4.27380 Y17.92632 ( rapid move to begin. )
F300.00000
G01 Z-0.05000
G04 P0 ( dwell for no time -- G64 should not smooth over this point )
F600.00000
G01 X4.27380 Y17.92632
X4.27380 Y19.45032
X4.31144 Y19.52852
X4.37380 Y19.55032
X5.89780 Y19.55032
X5.97598 Y19.51267
X5.99780 Y19.45032
X5.99780 Y17.92632
X5.96013 Y17.84814
X5.89780 Y17.82632
X4.37380 Y17.82632
X4.31144 Y17.84814
X4.27380 Y17.92632
G04 P0 ( dwell for no time -- G64 should not smooth over this point )
G00 Z5.00000 ( retract )

G00 X5.55434 Y15.85147 ( rapid move to begin. )
F300.00000
G01 Z-0.05000
G04 P0 ( dwell for no time -- G64 should not smooth over this point )
F600.00000
G01 X5.55434 Y15.85147
X5.18269 Y15.98553
X4.71202 Y15.96198
X4.46323 Y15.85152
X4.70545 Y15.60925
X4.92917 Y15.66313
X5.10920 Y15.66094
X5.31207 Y15.60925
X5.55434 Y15.85147
G04 P0 ( dwell for no time -- G64 should not smooth over this point )
G00 Z5.00000 ( retract )

G00 X5.81230 Y15.10831 ( rapid move to begin. )
F300.00000
G01 Z-0.05000
G04 P0 ( dwell for no time -- G64 should not smooth over this point )
F600.00000
G01 X5.81230 Y15.10831
X5.85358 Y14.97420
X5.87024 Y14.81578
X5.85358 Y14.63646
X5.81230 Y14.50242
X6.05650 Y14.26023
X6.18896 Y14.63138
X6.16541 Y15.10207
X6.06333 Y15.34842
X5.81230 Y15.10831
G04 P0 ( dwell for no time -- G64 should not smooth over this point )
G00 Z5.00000 ( retract )

G00 X5.55185 Y13.75076 ( rapid move to begin. )
F300.00000
G01 Z-0.05000
G04 P0 ( dwell for no time -- G64 should not smooth over this point )
F600.00000
G01 X5.55185 Y13.75076
X5.31212 Y14.00141
X5.08843 Y13.94751
X4.90837 Y13.94972
X4.70545 Y14.00141
X4.46321 Y13.75922
X4.83478 Y13.62516
X5.30550 Y13.64870
X5.55185 Y13.75076
G04 P0 ( dwell for no time -- G64 should not smooth over this point )
G00 Z5.00000 ( retract )

G00 X3.49282 Y23.68833 ( rapid move to begin. )
F300.00000
G01 Z-0.05000
G04 P0 ( dwell for no time -- G64 should not smooth over this point )
F600.00000
G01 X3.49282 Y23.68833
X3.77840 Y23.68836
X3.81424 Y23.65216
X3.85838 Y23.55668
X3.93141 Y23.18955
X4.21401 Y22.76662
X4.63692 Y22.48402
X5.15820 Y22.38031
X9.36436 Y22.38031
X10.02075 Y22.23977
X10.55783 Y22.34658
X11.01321 Y22.65084
X11.31747 Y23.10621
X11.42433 Y23.64332
X11.31752 Y24.18041
X11.00053 Y24.65480
X10.51288 Y24.98503
X9.97551 Y25.09196
X9.47305 Y24.99631
X5.15797 Y24.99631
X4.63697 Y24.89270
X4.21406 Y24.61010
X3.93146 Y24.18719
X3.85582 Y23.80987
X3.82653 Y23.74185
X3.77840 Y23.68836
X3.49282 Y23.68833
X3.43344 Y23.76202
X3.40931 Y23.85376
X3.40878 Y28.51235
X3.43331 Y28.61443
X3.49282 Y28.68832
X3.77840 Y28.68835
X3.79658 Y28.67214
X3.85579 Y28.56683
X3.93141 Y28.18954
X4.21401 Y27.76663
X4.63692 Y27.48403
X5.15820 Y27.38032
X8.86437 Y27.38032
X9.52075 Y27.23976
X10.05784 Y27.34659
X10.51318 Y27.65086
X10.81745 Y28.10623
X10.92433 Y28.64334
X10.81750 Y29.18040
X10.48722 Y29.66808
X10.01288 Y29.98504
X9.47551 Y30.09198
X8.97305 Y29.99632
X5.15797 Y29.99632
X4.63697 Y29.89271
X4.21406 Y29.61011
X3.93146 Y29.18718
X3.85582 Y28.80986
X3.79676 Y28.70471
X3.77840 Y28.68835
X3.49282 Y28.68832
X3.43344 Y28.76201
X3.40878 Y28.86427
X3.40878 Y33.51237
X3.44670 Y33.63751
X3.53242 Y33.71417
X3.62391 Y33.73876
X3.71739 Y33.72387
X3.81424 Y33.65217
X3.85838 Y33.55669
X3.93141 Y33.18953
X4.21401 Y32.76662
X4.63692 Y32.48402
X5.15820 Y32.38031
X8.86437 Y32.38031
X9.52075 Y32.23975
X10.05784 Y32.34658
X10.51318 Y32.65085
X10.81745 Y33.10622
X10.92433 Y33.64333
X10.81750 Y34.18041
X10.50053 Y34.65481
X10.10239 Y34.92593
X10.02730 Y35.02212
X10.01214 Y35.13746
X10.04417 Y35.22760
X10.11054 Y35.29651
X10.19959 Y35.33195
X19.03514 Y35.32745
X19.12040 Y35.28389
X19.18007 Y35.20904
X19.20351 Y35.11627
X19.18660 Y35.02209
X19.11167 Y34.92600
X18.69546 Y34.64650
X18.38406 Y34.18046
X18.27717 Y33.64333
X18.38401 Y33.10627
X18.68827 Y32.65090
X19.14364 Y32.34663
X19.68093 Y32.23972
X20.28408 Y32.35532
X21.77440 Y32.35532
X21.86137 Y32.33764
X21.94262 Y32.28021
X21.99144 Y32.19360
X22.00094 Y32.12222
X21.95735 Y31.88821
X21.95735 Y30.35700
X21.98662 Y30.18174
X21.96652 Y30.08499
X21.90729 Y30.00607
X21.84628 Y29.96876
X21.76000 Y29.95131
X19.70295 Y29.95131
X19.18197 Y29.84771
X18.75904 Y29.56510
X18.47644 Y29.14219
X18.37717 Y28.64334
X18.47639 Y28.14453
X18.75899 Y27.72162
X19.18192 Y27.43902
X19.70318 Y27.33531
X22.21288 Y27.33425
X22.31146 Y27.30438
X22.45189 Y27.20760
X22.50640 Y27.12772
X22.52228 Y27.05950
X22.50864 Y26.96366
X22.45626 Y26.88231
X22.37468 Y26.83016
X22.22797 Y26.79902
X22.08783 Y26.70885
X21.99472 Y26.57255
X21.95735 Y26.38812
X21.95669 Y25.16707
X21.93912 Y25.09021
X21.90033 Y25.02846
X21.83858 Y24.97924
X21.74161 Y24.95198
X20.20295 Y24.95132
X19.68197 Y24.84772
X19.25904 Y24.56511
X18.97644 Y24.14218
X18.87717 Y23.64335
X18.97638 Y23.14454
X19.25899 Y22.72163
X19.68192 Y22.43903
X20.20318 Y22.33532
X21.82334 Y22.33532
X21.89020 Y22.32483
X21.96617 Y22.28419
X22.00462 Y22.24424
X22.28819 Y21.82123
X22.43091 Y21.72517
X22.48341 Y21.67066
X22.51346 Y21.60751
X22.52266 Y21.53233
X22.48684 Y21.42021
X22.39451 Y21.33860
X22.22799 Y21.29906
X22.08783 Y21.20886
X21.99472 Y21.07256
X21.95735 Y20.88813
X21.95735 Y19.35700
X21.98949 Y19.18616
X22.07963 Y19.04605
X22.21600 Y18.95286
X22.40058 Y18.91547
X24.64244 Y18.91547
X24.81353 Y18.94763
X24.95369 Y19.03782
X25.04681 Y19.17412
X25.08422 Y19.35878
X25.08422 Y20.88943
X25.05204 Y21.06052
X24.96189 Y21.20066
X24.82552 Y21.29382
X24.66276 Y21.33030
X24.60238 Y21.36489
X24.53093 Y21.46446
X24.51798 Y21.55979
X24.55702 Y21.67015
X24.60924 Y21.72423
X24.75331 Y21.82120
X25.01148 Y22.20759
X25.10218 Y22.66334
X25.01153 Y23.11904
X24.75334 Y23.50545
X24.36698 Y23.76362
X24.26446 Y23.79072
X24.20868 Y23.82671
X23.98168 Y24.05714
X23.95057 Y24.11934
X23.93980 Y24.19405
X23.97282 Y24.30644
X24.02217 Y24.36336
X24.08214 Y24.39895
X24.16644 Y24.41548
X24.64244 Y24.41548
X24.81356 Y24.44767
X24.95372 Y24.53784
X25.04681 Y24.67411
X25.08422 Y24.85876
X25.08422 Y26.38942
X25.05204 Y26.56054
X24.96187 Y26.70067
X24.82557 Y26.79376
X24.66266 Y26.83036
X24.60236 Y26.86493
X24.54168 Y26.93963
X24.51747 Y27.03270
X24.52695 Y27.10745
X24.55702 Y27.17011
X24.60932 Y27.22429
X24.75331 Y27.32119
X25.01148 Y27.70758
X25.10218 Y28.16333
X25.01153 Y28.61906
X24.75334 Y29.00544
X24.36695 Y29.26363
X24.26446 Y29.29073
X24.20868 Y29.32673
X23.98168 Y29.55713
X23.95057 Y29.61933
X23.93980 Y29.69404
X23.97282 Y29.80643
X24.02217 Y29.86335
X24.08214 Y29.89894
X24.16644 Y29.91547
X24.64244 Y29.91547
X24.81353 Y29.94763
X24.95369 Y30.03782
X25.04681 Y30.17412
X25.08422 Y30.35878
X25.08422 Y31.88943
X25.05206 Y32.06053
X24.96187 Y32.20066
X24.82557 Y32.29375
X24.66266 Y32.33035
X24.60236 Y32.36492
X24.54168 Y32.43962
X24.51747 Y32.53269
X24.52695 Y32.60744
X24.55702 Y32.67015
X24.60924 Y32.72426
X24.75331 Y32.82121
X25.01148 Y33.20759
X25.10218 Y33.66334
X25.01153 Y34.11905
X24.75334 Y34.50543
X24.36695 Y34.76362
X24.13833 Y34.80911
X24.01963 Y34.86766
X23.89327 Y34.89623
X23.83360 Y34.92979
X23.78356 Y34.98419
X23.74704 Y35.09334
X23.76065 Y35.18706
X23.83099 Y35.28485
X23.91557 Y35.32758
X32.95700 Y35.33532
X33.04075 Y35.31899
X33.13422 Y35.24968
X33.17674 Y35.16395
X33.18009 Y35.06824
X33.14369 Y34.97980
X33.08309 Y34.91960
X32.44821 Y34.50548
X32.19005 Y34.11910
X32.09935 Y33.66334
X32.19000 Y33.20764
X32.44819 Y32.82123
X32.83663 Y32.55700
X32.88075 Y32.49797
X32.90615 Y32.39934
X32.89411 Y32.32052
X32.84047 Y32.23396
X32.40719 Y31.89093
X32.19129 Y31.49576
X32.20150 Y31.47732
X32.51428 Y31.47732
X32.61763 Y31.65819
X32.73981 Y31.78966
X32.88591 Y31.89385
X33.06932 Y31.97257
X33.24499 Y32.00665
X34.03584 Y32.01072
X34.22479 Y31.99002
X34.39540 Y31.93434
X34.53470 Y31.85702
X34.68613 Y31.72700
X34.78364 Y31.60102
X34.84661 Y31.47732
X35.15997 Y31.47732
X35.17023 Y31.49576
X34.91674 Y31.97907
X34.92662 Y32.11024
X34.96477 Y32.17455
X35.02718 Y32.22606
X35.13797 Y32.25532
X36.92024 Y32.25532
X37.01955 Y32.23952
X37.55783 Y32.34658
X38.01320 Y32.65085
X38.31747 Y33.10622
X38.42435 Y33.64333
X38.31752 Y34.18041
X38.00612 Y34.64645
X37.59832 Y34.91968
X37.52659 Y34.99783
X37.49865 Y35.08933
X37.51094 Y35.18425
X37.56131 Y35.26565
X37.64076 Y35.31899
X37.72456 Y35.33532
X45.68517 Y35.33154
X45.79564 Y35.27835
X45.84486 Y35.21660
X45.86894 Y35.14785
X45.87278 Y33.66555
X45.97641 Y33.14455
X46.25901 Y32.72164
X46.68192 Y32.43904
X47.20323 Y32.33530
X51.64620 Y32.33012
X51.76408 Y32.29012
X51.83164 Y32.22230
X51.86517 Y32.13266
X51.85872 Y32.03708
X51.82963 Y31.97429
X51.77850 Y31.91968
X51.48480 Y31.78946
X51.47749 Y31.76726
X51.71231 Y31.53236
X51.80959 Y31.57330
X52.00934 Y31.61349
X52.21300 Y31.61133
X52.39194 Y31.57330
X52.48917 Y31.53236
X52.72404 Y31.76721
X52.71863 Y31.78372
X52.45290 Y31.88054
X52.37871 Y31.92558
X52.32217 Y32.00470
X52.30566 Y32.12187
X52.33817 Y32.21361
X52.40609 Y32.28323
X52.47584 Y32.31377
X52.60352 Y32.33530
X87.58532 Y32.34232
X88.10655 Y32.44597
X88.54851 Y32.74127
X89.21297 Y33.40419
X89.30576 Y33.45313
X89.51262 Y33.49309
X89.65270 Y33.58321
X89.74581 Y33.71953
X89.78323 Y33.90419
X89.78973 Y34.09428
X89.90434 Y34.64335
X89.78973 Y35.19237
X89.78323 Y35.38404
X89.75107 Y35.55511
X89.66088 Y35.69527
X89.52458 Y35.78838
X89.34015 Y35.82575
X89.14963 Y35.83233
X88.60078 Y35.94693
X88.05189 Y35.83233
X87.85981 Y35.82575
X87.68897 Y35.79362
X87.54884 Y35.70345
X87.45575 Y35.56715
X87.40985 Y35.34566
X87.36139 Y35.25529
X87.09629 Y34.99601
X86.97196 Y34.95831
X52.64571 Y34.95133
X52.10779 Y35.05402
X51.56987 Y34.95133
X48.71580 Y34.95133
X48.62763 Y34.96956
X48.56589 Y35.00835
X48.51666 Y35.07010
X48.49258 Y35.13893
X48.48880 Y36.54086
X48.38511 Y37.06214
X48.08989 Y37.50400
X48.04153 Y37.55234
X47.59959 Y37.84766
X47.07859 Y37.95132
X3.62295 Y37.95132
X3.10197 Y37.84771
X2.66001 Y37.55239
X1.19176 Y36.08414
X0.89644 Y35.64218
X0.79278 Y35.12118
X0.79278 Y7.73553
X0.89639 Y7.21455
X1.19171 Y6.77259
X3.75983 Y4.20447
X3.81858 Y4.10033
X3.85851 Y3.89350
X3.94863 Y3.75345
X4.08500 Y3.66028
X4.26961 Y3.62287
X4.45973 Y3.61636
X5.00875 Y3.50176
X5.55772 Y3.61634
X5.74939 Y3.62287
X5.92056 Y3.65507
X6.06071 Y3.74524
X6.15380 Y3.88151
X6.19122 Y4.06617
X6.19775 Y4.25639
X6.31235 Y4.80531
X6.19775 Y5.35426
X6.19122 Y5.54603
X6.15904 Y5.71715
X6.06887 Y5.85728
X5.93267 Y5.95032
X5.71106 Y5.99622
X5.60963 Y6.05428
X3.44642 Y8.22479
X3.40878 Y8.34912
X3.41215 Y9.18770
X3.46021 Y9.29377
X3.51645 Y9.34310
X3.58015 Y9.37010
X3.70207 Y9.36710
X3.80082 Y9.30568
X4.09971 Y8.86459
X6.72995 Y6.23434
X7.17191 Y5.93902
X7.69320 Y5.83531
X75.73307 Y5.83531
X75.80096 Y5.82446
X75.87797 Y5.78248
X76.02158 Y5.57943
X76.15796 Y5.48621
X76.34300 Y5.44874
X76.60959 Y5.44448
X77.12318 Y5.34232
X87.08532 Y5.34232
X87.60655 Y5.44598
X88.04851 Y5.74128
X89.21297 Y6.90419
X89.30576 Y6.95314
X89.51259 Y6.99309
X89.65265 Y7.08321
X89.74584 Y7.21958
X89.78323 Y7.40416
X89.78973 Y7.59428
X89.90434 Y8.14333
X89.78973 Y8.69238
X89.78323 Y8.88402
X89.75107 Y9.05511
X89.66088 Y9.19527
X89.52458 Y9.28839
X89.34015 Y9.32575
X89.14963 Y9.33233
X88.60078 Y9.44691
X88.05189 Y9.33233
X87.85981 Y9.32575
X87.68897 Y9.29362
X87.54884 Y9.20345
X87.45575 Y9.06715
X87.40985 Y8.84566
X87.35181 Y8.74422
X86.63243 Y8.02484
X86.57366 Y7.98295
X86.47196 Y7.95832
X77.73659 Y7.95832
X77.61218 Y7.99603
X77.10662 Y8.34765
X76.58559 Y8.45130
X49.21580 Y8.45130
X49.12763 Y8.46954
X49.06589 Y8.50833
X49.00698 Y8.59019
X48.98880 Y8.67830
X48.98880 Y21.00830
X48.99758 Y21.06962
X49.03177 Y21.14066
X49.08344 Y21.19232
X49.15448 Y21.22651
X49.46942 Y21.23015
X49.58402 Y21.16883
X50.74747 Y20.00421
X50.80015 Y19.89952
X50.83748 Y19.61854
X50.92765 Y19.47841
X51.06395 Y19.38529
X51.24896 Y19.34783
X51.57919 Y19.34354
X52.10103 Y19.23970
X52.60352 Y19.33531
X62.23307 Y19.33531
X62.30096 Y19.32446
X62.37797 Y19.28247
X62.52159 Y19.07943
X62.65796 Y18.98621
X62.84300 Y18.94874
X63.10960 Y18.94448
X63.62318 Y18.84232
X88.08531 Y18.84232
X88.60655 Y18.94597
X89.04851 Y19.24127
X89.24348 Y19.42669
X89.32029 Y19.45702
X89.51259 Y19.49309
X89.65265 Y19.58321
X89.74584 Y19.71958
X89.78323 Y19.90416
X89.78973 Y20.09428
X89.90434 Y20.64333
X89.78973 Y21.19238
X89.78323 Y21.38402
X89.75107 Y21.55511
X89.66088 Y21.69527
X89.52458 Y21.78839
X89.34015 Y21.82575
X89.14963 Y21.83233
X88.60078 Y21.94691
X88.05189 Y21.83233
X87.85981 Y21.82575
X87.68897 Y21.79362
X87.54882 Y21.70345
X87.40315 Y21.50845
X87.32773 Y21.46863
X87.26157 Y21.45831
X64.23659 Y21.45831
X64.11218 Y21.49603
X63.60660 Y21.84764
X63.08559 Y21.95130
X52.83202 Y21.95651
X52.71749 Y22.01782
X51.11229 Y23.62305
X50.63787 Y23.94005
X50.07858 Y24.05132
X49.27627 Y24.05516
X49.18344 Y24.09435
X49.13177 Y24.14601
X49.09758 Y24.21706
X49.08880 Y24.27832
X49.08880 Y28.12089
X48.97752 Y28.68040
X48.67323 Y29.13579
X48.21791 Y29.44004
X47.68077 Y29.54692
X47.14369 Y29.44009
X46.68832 Y29.13582
X46.38405 Y28.68045
X46.27277 Y28.12117
X46.27277 Y22.66527
X46.37277 Y22.14058
X46.37277 Y8.67830
X46.34486 Y8.57007
X46.25400 Y8.47922
X46.14577 Y8.45130
X8.30661 Y8.45130
X8.23541 Y8.46329
X8.14608 Y8.51783
X5.94956 Y10.71434
X5.50760 Y11.00964
X5.00880 Y11.10893
X4.50997 Y11.00969
X4.08703 Y10.72709
X3.82450 Y10.33423
X3.74637 Y10.26248
X3.65480 Y10.23446
X3.53509 Y10.25724
X3.46024 Y10.31688
X3.41668 Y10.40205
X3.41213 Y14.47494
X3.44708 Y14.56343
X3.51533 Y14.62983
X3.60469 Y14.66234
X3.71952 Y14.64842
X3.78327 Y14.60991
X3.82810 Y14.55774
X3.96260 Y14.25980
X4.20524 Y14.50242
X4.16399 Y14.63646
X4.14733 Y14.79488
X4.16399 Y14.97420
X4.20524 Y15.10819
X3.96260 Y15.35088
X3.83349 Y15.00354
X3.79028 Y14.94852
X3.72699 Y14.90684
X3.63207 Y14.88771
X3.51894 Y14.92010
X3.44848 Y14.98662
X3.40933 Y15.10364
X3.40878 Y23.51236
X3.43331 Y23.61444
X3.49282 Y23.68833
G04 P0 ( dwell for no time -- G64 should not smooth over this point )
G00 Z5.00000 ( retract )

G00 X22.12659 Y22.64333 ( rapid move to begin. )
F300.00000
G01 Z-0.05000
G04 P0 ( dwell for no time -- G64 should not smooth over this point )
F600.00000
G01 X22.12659 Y22.64333
X20.18078 Y22.64333
X19.96274 Y22.66791
X19.76470 Y22.73456
X19.58484 Y22.84094
X19.43102 Y22.98234
X19.32043 Y23.13456
X19.23346 Y23.32455
X19.18789 Y23.52849
X19.18571 Y23.73740
X19.22701 Y23.94226
X19.30999 Y24.13403
X19.43102 Y24.30436
X19.60176 Y24.45805
X19.78380 Y24.56064
X19.98319 Y24.62313
X20.18078 Y24.64332
X22.54079 Y24.64332
X22.81196 Y24.60507
X23.02903 Y24.51515
X23.23805 Y24.35907
X24.06990 Y23.52841
X24.23540 Y23.47434
X24.37470 Y23.39702
X24.51219 Y23.28168
X24.62364 Y23.14101
X24.70452 Y22.98084
X24.75148 Y22.80761
X24.76261 Y22.62852
X24.73746 Y22.45082
X24.66814 Y22.26367
X24.57150 Y22.11247
X24.44638 Y21.98381
X24.31562 Y21.89281
X24.15151 Y21.82016
X23.99746 Y21.78643
X23.76934 Y21.69524
X23.56261 Y21.66471
X23.37473 Y21.67457
X23.17234 Y21.72654
X23.04826 Y21.78729
X22.82471 Y21.84434
X22.66683 Y21.92964
X22.52934 Y22.04498
X22.41788 Y22.18564
X22.33701 Y22.34582
X22.30376 Y22.46616
X22.12659 Y22.64333
G04 P0 ( dwell for no time -- G64 should not smooth over this point )
G00 Z5.00000 ( retract )

G00 X22.27778 Y24.83590 ( rapid move to begin. )
F300.00000
G01 Z-0.05000
G04 P0 ( dwell for no time -- G64 should not smooth over this point )
F600.00000
G01 X22.27778 Y24.83590
X22.27778 Y26.41070
X22.31542 Y26.48891
X22.37778 Y26.51070
X24.66378 Y26.51070
X24.74196 Y26.47306
X24.76377 Y26.41070
X24.76377 Y24.83590
X24.72611 Y24.75772
X24.66378 Y24.73590
X22.37778 Y24.73590
X22.31542 Y24.75772
X22.27778 Y24.83590
G04 P0 ( dwell for no time -- G64 should not smooth over this point )
G00 Z5.00000 ( retract )

G00 X22.45065 Y27.64332 ( rapid move to begin. )
F300.00000
G01 Z-0.05000
G04 P0 ( dwell for no time -- G64 should not smooth over this point )
F600.00000
G01 X22.45065 Y27.64332
X19.68078 Y27.64332
X19.48319 Y27.66356
X19.28380 Y27.72604
X19.10176 Y27.82863
X18.94502 Y27.96681
X18.82043 Y28.13455
X18.73346 Y28.32454
X18.68571 Y28.54926
X18.68789 Y28.75820
X18.73346 Y28.96213
X18.82043 Y29.15213
X18.93102 Y29.30435
X19.08484 Y29.44575
X19.28380 Y29.56063
X19.48319 Y29.62312
X19.68078 Y29.64331
X23.05382 Y29.64247
X23.31196 Y29.60506
X23.55164 Y29.50209
X23.74788 Y29.35042
X24.06990 Y29.02840
X24.23540 Y28.97433
X24.37470 Y28.89701
X24.51219 Y28.78167
X24.63434 Y28.62386
X24.71155 Y28.46183
X24.75453 Y28.28761
X24.76159 Y28.10829
X24.73238 Y27.93122
X24.66814 Y27.76366
X24.57150 Y27.61245
X24.44638 Y27.48380
X24.31562 Y27.39280
X24.15151 Y27.32015
X23.99746 Y27.28642
X23.76934 Y27.19523
X23.56261 Y27.16470
X23.35410 Y27.17783
X23.17234 Y27.22653
X23.04826 Y27.28728
X22.80612 Y27.35231
X22.65022 Y27.44118
X22.52934 Y27.54497
X22.45065 Y27.64332
G04 P0 ( dwell for no time -- G64 should not smooth over this point )
G00 Z5.00000 ( retract )

G00 X22.27778 Y30.33592 ( rapid move to begin. )
F300.00000
G01 Z-0.05000
G04 P0 ( dwell for no time -- G64 should not smooth over this point )
F600.00000
G01 X22.27778 Y30.33592
X22.27778 Y31.91072
X22.31542 Y31.98893
X22.37778 Y32.01072
X24.66378 Y32.01072
X24.74196 Y31.97308
X24.76377 Y31.91072
X24.76377 Y30.33592
X24.72611 Y30.25774
X24.66378 Y30.23592
X22.37778 Y30.23592
X22.31542 Y30.25774
X22.27778 Y30.33592
G04 P0 ( dwell for no time -- G64 should not smooth over this point )
G00 Z5.00000 ( retract )

G00 X20.14989 Y34.66332 ( rapid move to begin. )
F300.00000
G01 Z-0.05000
G04 P0 ( dwell for no time -- G64 should not smooth over this point )
F600.00000
G01 X20.14989 Y34.66332
X23.52078 Y34.66332
X23.73876 Y34.63878
X23.91770 Y34.58064
X23.99362 Y34.53934
X24.23540 Y34.47434
X24.39131 Y34.38547
X24.52613 Y34.26700
X24.63434 Y34.12387
X24.70452 Y33.98084
X24.75148 Y33.80762
X24.76159 Y33.60830
X24.73238 Y33.43124
X24.66814 Y33.26367
X24.58389 Y33.12847
X24.44638 Y32.98382
X24.31562 Y32.89281
X24.15151 Y32.82017
X23.98994 Y32.78524
X23.91770 Y32.74605
X23.71831 Y32.68356
X23.52078 Y32.66332
X20.16828 Y32.66332
X20.06498 Y32.61316
X19.86305 Y32.55905
X19.63366 Y32.54483
X19.40628 Y32.57864
X19.19091 Y32.65898
X18.99698 Y32.78229
X18.83290 Y32.94330
X18.70587 Y33.13490
X18.62147 Y33.34866
X18.58225 Y33.59624
X18.59648 Y33.82562
X18.65807 Y34.04709
X18.76437 Y34.25090
X18.90295 Y34.42113
X19.09320 Y34.57973
X19.29701 Y34.68602
X19.51847 Y34.74762
X19.74786 Y34.76184
X19.97524 Y34.72804
X20.14989 Y34.66332
G04 P0 ( dwell for no time -- G64 should not smooth over this point )
G00 Z5.00000 ( retract )

G00 X32.40714 Y30.35578 ( rapid move to begin. )
F300.00000
G01 Z-0.05000
G04 P0 ( dwell for no time -- G64 should not smooth over this point )
F600.00000
G01 X32.40714 Y30.35578
X32.77069 Y30.06292
X33.23079 Y29.92792
X33.32678 Y29.92792
X33.32678 Y30.23594
X33.13673 Y30.25665
X32.96612 Y30.31232
X32.82683 Y30.38964
X32.67539 Y30.51966
X32.57788 Y30.64565
X32.51494 Y30.76932
X32.20150 Y30.76932
X32.19127 Y30.75093
X32.40714 Y30.35578
G04 P0 ( dwell for no time -- G64 should not smooth over this point )
G00 Z5.00000 ( retract )

G00 X33.70295 Y29.47130 ( rapid move to begin. )
F300.00000
G01 Z-0.05000
G04 P0 ( dwell for no time -- G64 should not smooth over this point )
F600.00000
G01 X33.70295 Y29.47130
X33.18194 Y29.36770
X33.06315 Y29.30912
X32.83462 Y29.26368
X32.44824 Y29.00549
X32.19005 Y28.61911
X32.09935 Y28.16333
X32.19000 Y27.70763
X32.44819 Y27.32122
X32.83663 Y27.05698
X32.88075 Y26.99795
X32.90615 Y26.89932
X32.89411 Y26.82051
X32.84047 Y26.73394
X32.40717 Y26.39089
X32.19127 Y25.99577
X32.20150 Y25.97730
X32.51428 Y25.97730
X32.61763 Y26.15818
X32.73981 Y26.28965
X32.88591 Y26.39384
X33.06932 Y26.47255
X33.24499 Y26.50664
X34.03584 Y26.51070
X34.22479 Y26.49000
X34.39540 Y26.43433
X34.53470 Y26.35701
X34.68613 Y26.22699
X34.78364 Y26.10100
X34.84661 Y25.97730
X35.15997 Y25.97730
X35.17026 Y25.99577
X34.95443 Y26.39079
X34.85072 Y26.47926
X34.80300 Y26.56788
X34.79835 Y26.66839
X34.82256 Y26.73704
X34.87183 Y26.79859
X34.93345 Y26.83720
X35.02146 Y26.85531
X36.91750 Y26.85531
X37.52054 Y26.73974
X38.05783 Y26.84659
X38.51320 Y27.15086
X38.81747 Y27.60623
X38.92435 Y28.14334
X38.81752 Y28.68040
X38.50611 Y29.14644
X38.03781 Y29.46008
X37.50050 Y29.56698
X36.99804 Y29.47130
X33.70295 Y29.47130
G04 P0 ( dwell for no time -- G64 should not smooth over this point )
G00 Z5.00000 ( retract )

G00 X34.03477 Y30.23960 ( rapid move to begin. )
F300.00000
G01 Z-0.05000
G04 P0 ( dwell for no time -- G64 should not smooth over this point )
F600.00000
G01 X34.03477 Y30.23960
X34.03477 Y29.92792
X34.13066 Y29.92792
X34.59073 Y30.06289
X34.95436 Y30.35578
X35.17023 Y30.75090
X35.16002 Y30.76932
X34.84722 Y30.76932
X34.73150 Y30.57247
X34.60638 Y30.44382
X34.47562 Y30.35281
X34.29220 Y30.27409
X34.13615 Y30.24204
X34.03477 Y30.23960
G04 P0 ( dwell for no time -- G64 should not smooth over this point )
G00 Z5.00000 ( retract )

G00 X36.82227 Y32.56332 ( rapid move to begin. )
F300.00000
G01 Z-0.05000
G04 P0 ( dwell for no time -- G64 should not smooth over this point )
F600.00000
G01 X36.82227 Y32.56332
X33.68078 Y32.56332
X33.44194 Y32.59009
X33.24311 Y32.65468
X33.04296 Y32.76774
X32.68934 Y33.04498
X32.57788 Y33.18565
X32.49701 Y33.34582
X32.45004 Y33.51905
X32.43993 Y33.71836
X32.46914 Y33.89542
X32.53338 Y34.06299
X32.61763 Y34.19819
X32.75515 Y34.34284
X32.91898 Y34.45026
X33.04296 Y34.55895
X33.22401 Y34.66349
X33.46239 Y34.74094
X33.68078 Y34.76332
X37.00078 Y34.76332
X37.29807 Y34.72158
X37.56202 Y34.60848
X37.77907 Y34.44069
X37.94889 Y34.23281
X38.04368 Y34.04648
X38.10515 Y33.82499
X38.11920 Y33.59555
X38.08529 Y33.36822
X38.00482 Y33.15291
X37.88135 Y32.95900
X37.72024 Y32.79504
X37.52862 Y32.66815
X37.31475 Y32.58387
X37.08806 Y32.54590
X36.82227 Y32.56332
G04 P0 ( dwell for no time -- G64 should not smooth over this point )
G00 Z5.00000 ( retract )

G00 X37.03335 Y27.16331 ( rapid move to begin. )
F300.00000
G01 Z-0.05000
G04 P0 ( dwell for no time -- G64 should not smooth over this point )
F600.00000
G01 X37.03335 Y27.16331
X33.68078 Y27.16331
X33.46274 Y27.18789
X33.28380 Y27.24603
X33.20793 Y27.28731
X32.96612 Y27.35231
X32.81022 Y27.44118
X32.67539 Y27.55965
X32.56719 Y27.70278
X32.49701 Y27.84580
X32.45004 Y28.01903
X32.43993 Y28.21835
X32.46914 Y28.39541
X32.53338 Y28.56297
X32.61763 Y28.69818
X32.75515 Y28.84283
X32.88591 Y28.93384
X33.05002 Y29.00648
X33.21151 Y29.04141
X33.28380 Y29.08063
X33.48319 Y29.14311
X33.68078 Y29.16330
X37.05166 Y29.16330
X37.22565 Y29.22787
X37.45298 Y29.26178
X37.68242 Y29.24773
X37.90391 Y29.18626
X38.10777 Y29.08009
X38.29811 Y28.92165
X38.43677 Y28.75149
X38.54317 Y28.54776
X38.60495 Y28.32635
X38.61930 Y28.09693
X38.58564 Y27.86955
X38.50545 Y27.65416
X38.38224 Y27.46013
X38.22136 Y27.29594
X38.02986 Y27.16879
X37.81612 Y27.08426
X37.58945 Y27.04598
X37.35981 Y27.05569
X37.13718 Y27.11291
X37.03335 Y27.16331
G04 P0 ( dwell for no time -- G64 should not smooth over this point )
G00 Z5.00000 ( retract )

G00 X34.03477 Y24.73959 ( rapid move to begin. )
F300.00000
G01 Z-0.05000
G04 P0 ( dwell for no time -- G64 should not smooth over this point )
F600.00000
G01 X34.03477 Y24.73959
X34.03477 Y24.42790
X34.13066 Y24.42790
X34.59078 Y24.56288
X34.95433 Y24.85574
X35.17023 Y25.25091
X35.16005 Y25.26930
X34.84722 Y25.26930
X34.73150 Y25.07245
X34.60638 Y24.94380
X34.47562 Y24.85280
X34.29220 Y24.77408
X34.13615 Y24.74203
X34.03477 Y24.73959
G04 P0 ( dwell for no time -- G64 should not smooth over this point )
G00 Z5.00000 ( retract )

G00 X33.18197 Y23.86771 ( rapid move to begin. )
F300.00000
G01 Z-0.05000
G04 P0 ( dwell for no time -- G64 should not smooth over this point )
F600.00000
G01 X33.18197 Y23.86771
X33.06315 Y23.80911
X32.83462 Y23.76367
X32.44824 Y23.50548
X32.19005 Y23.11909
X32.09935 Y22.66334
X32.19000 Y22.20764
X32.44819 Y21.82123
X32.83663 Y21.55699
X32.88075 Y21.49796
X32.90615 Y21.39933
X32.89411 Y21.32052
X32.84047 Y21.23396
X32.40719 Y20.89093
X32.19129 Y20.49576
X32.20150 Y20.47731
X32.51428 Y20.47731
X32.61763 Y20.65819
X32.73981 Y20.78966
X32.88591 Y20.89385
X33.06932 Y20.97256
X33.24499 Y21.00665
X34.03584 Y21.01071
X34.22479 Y20.99001
X34.39540 Y20.93434
X34.53470 Y20.85702
X34.68613 Y20.72700
X34.78364 Y20.60101
X34.84661 Y20.47731
X35.15997 Y20.47731
X35.17023 Y20.49576
X34.95441 Y20.89085
X34.85075 Y20.97922
X34.80302 Y21.06786
X34.79835 Y21.16840
X34.82256 Y21.23705
X34.87176 Y21.29855
X34.93343 Y21.33721
X35.02146 Y21.35532
X36.91750 Y21.35532
X37.52054 Y21.23972
X38.05783 Y21.34658
X38.51320 Y21.65085
X38.81747 Y22.10622
X38.92435 Y22.64335
X38.81752 Y23.18041
X38.50609 Y23.64645
X38.03781 Y23.96006
X37.50050 Y24.06697
X36.99804 Y23.97131
X33.70295 Y23.97131
X33.18197 Y23.86771
G04 P0 ( dwell for no time -- G64 should not smooth over this point )
G00 Z5.00000 ( retract )

G00 X32.20150 Y25.26930 ( rapid move to begin. )
F300.00000
G01 Z-0.05000
G04 P0 ( dwell for no time -- G64 should not smooth over this point )
F600.00000
G01 X32.20150 Y25.26930
X32.19127 Y25.25094
X32.40714 Y24.85579
X32.77069 Y24.56293
X33.23079 Y24.42790
X33.32678 Y24.42790
X33.32678 Y24.73593
X33.13673 Y24.75663
X32.96612 Y24.81231
X32.82683 Y24.88963
X32.67539 Y25.01965
X32.57788 Y25.14563
X32.51494 Y25.26930
X32.20150 Y25.26930
G04 P0 ( dwell for no time -- G64 should not smooth over this point )
G00 Z5.00000 ( retract )

G00 X32.40714 Y19.35580 ( rapid move to begin. )
F300.00000
G01 Z-0.05000
G04 P0 ( dwell for no time -- G64 should not smooth over this point )
F600.00000
G01 X32.40714 Y19.35580
X32.77069 Y19.06292
X33.23079 Y18.92791
X33.32678 Y18.92791
X33.32678 Y19.23594
X33.13673 Y19.25664
X32.96612 Y19.31232
X32.82683 Y19.38964
X32.67539 Y19.51966
X32.57788 Y19.64564
X32.51494 Y19.76932
X32.20150 Y19.76932
X32.19127 Y19.75095
X32.40714 Y19.35580
G04 P0 ( dwell for no time -- G64 should not smooth over this point )
G00 Z5.00000 ( retract )

G00 X34.03477 Y19.23960 ( rapid move to begin. )
F300.00000
G01 Z-0.05000
G04 P0 ( dwell for no time -- G64 should not smooth over this point )
F600.00000
G01 X34.03477 Y19.23960
X34.03477 Y18.92791
X34.13069 Y18.92791
X34.59078 Y19.06287
X34.95433 Y19.35575
X35.17023 Y19.75093
X35.16005 Y19.76932
X34.84722 Y19.76932
X34.73150 Y19.57247
X34.60638 Y19.44381
X34.47562 Y19.35281
X34.29220 Y19.27409
X34.13615 Y19.24204
X34.03477 Y19.23960
G04 P0 ( dwell for no time -- G64 should not smooth over this point )
G00 Z5.00000 ( retract )

G00 X37.03335 Y21.66332 ( rapid move to begin. )
F300.00000
G01 Z-0.05000
G04 P0 ( dwell for no time -- G64 should not smooth over this point )
F600.00000
G01 X37.03335 Y21.66332
X33.68078 Y21.66332
X33.46274 Y21.68790
X33.28380 Y21.74604
X33.20793 Y21.78732
X32.96612 Y21.85232
X32.81022 Y21.94119
X32.67539 Y22.05966
X32.56719 Y22.20279
X32.49701 Y22.34582
X32.45004 Y22.51904
X32.43993 Y22.71836
X32.46914 Y22.89542
X32.53338 Y23.06298
X32.61763 Y23.19819
X32.75515 Y23.34284
X32.88591 Y23.43385
X33.05002 Y23.50649
X33.21151 Y23.54142
X33.28380 Y23.58064
X33.48319 Y23.64312
X33.68078 Y23.66331
X37.05166 Y23.66331
X37.22565 Y23.72788
X37.45298 Y23.76179
X37.68242 Y23.74774
X37.90391 Y23.68627
X38.10777 Y23.58010
X38.29811 Y23.42166
X38.43677 Y23.25150
X38.54317 Y23.04777
X38.60495 Y22.82636
X38.61930 Y22.59694
X38.58564 Y22.36956
X38.50545 Y22.15417
X38.38224 Y21.96014
X38.22136 Y21.79596
X38.02986 Y21.66880
X37.81612 Y21.58427
X37.58945 Y21.54599
X37.35981 Y21.55570
X37.13718 Y21.61292
X37.03335 Y21.66332
G04 P0 ( dwell for no time -- G64 should not smooth over this point )
G00 Z5.00000 ( retract )

G00 X50.97691 Y17.76663 ( rapid move to begin. )
F300.00000
G01 Z-0.05000
G04 P0 ( dwell for no time -- G64 should not smooth over this point )
F600.00000
G01 X50.97691 Y17.76663
X50.96037 Y17.76119
X50.80787 Y17.34280
X50.83019 Y16.82777
X50.95463 Y16.52741
X50.97688 Y16.52007
X51.20850 Y16.75167
X51.14980 Y16.93051
X51.12633 Y17.13287
X51.14546 Y17.33569
X51.20850 Y17.53498
X50.97691 Y17.76663
G04 P0 ( dwell for no time -- G64 should not smooth over this point )
G00 Z5.00000 ( retract )

G00 X52.48917 Y18.03236 ( rapid move to begin. )
F300.00000
G01 Z-0.05000
G04 P0 ( dwell for no time -- G64 should not smooth over this point )
F600.00000
G01 X52.48917 Y18.03236
X52.72404 Y18.26721
X52.71863 Y18.28372
X52.30022 Y18.43622
X51.78518 Y18.41390
X51.48480 Y18.28946
X51.47749 Y18.26726
X51.71231 Y18.03236
X51.80959 Y18.07331
X52.00934 Y18.11349
X52.21300 Y18.11133
X52.39194 Y18.07331
X52.48917 Y18.03236
G04 P0 ( dwell for no time -- G64 should not smooth over this point )
G00 Z5.00000 ( retract )

G00 X53.22463 Y16.52007 ( rapid move to begin. )
F300.00000
G01 Z-0.05000
G04 P0 ( dwell for no time -- G64 should not smooth over this point )
F600.00000
G01 X53.22463 Y16.52007
X53.24114 Y16.52548
X53.39364 Y16.94387
X53.37131 Y17.45891
X53.24688 Y17.75929
X53.22465 Y17.76660
X52.99303 Y17.53503
X53.05173 Y17.35614
X53.07520 Y17.15378
X53.05607 Y16.95096
X52.99303 Y16.75169
X53.22463 Y16.52007
G04 P0 ( dwell for no time -- G64 should not smooth over this point )
G00 Z5.00000 ( retract )

G00 X52.41632 Y15.87278 ( rapid move to begin. )
F300.00000
G01 Z-0.05000
G04 P0 ( dwell for no time -- G64 should not smooth over this point )
F600.00000
G01 X52.41632 Y15.87278
X52.71673 Y15.99721
X52.72404 Y16.01946
X52.48925 Y16.25431
X52.39194 Y16.21334
X52.19222 Y16.17313
X51.98854 Y16.17532
X51.80959 Y16.21334
X51.71231 Y16.25431
X51.47746 Y16.01949
X51.48290 Y16.00295
X51.90129 Y15.85045
X52.41632 Y15.87278
G04 P0 ( dwell for no time -- G64 should not smooth over this point )
G00 Z5.00000 ( retract )

G00 X54.12295 Y15.45132 ( rapid move to begin. )
F300.00000
G01 Z-0.05000
G04 P0 ( dwell for no time -- G64 should not smooth over this point )
F600.00000
G01 X54.12295 Y15.45132
X53.60197 Y15.34771
X53.16001 Y15.05241
X51.19120 Y13.08358
X51.11635 Y12.97576
X51.01371 Y12.87106
X50.96372 Y12.75071
X50.89606 Y12.64230
X50.86735 Y12.51858
X50.81800 Y12.39963
X50.81785 Y12.26936
X50.79682 Y12.14330
X50.81762 Y12.01797
X50.81747 Y11.88940
X50.86730 Y11.76885
X50.89608 Y11.64436
X50.96327 Y11.53654
X51.01239 Y11.41759
X51.10451 Y11.32529
X51.17873 Y11.22133
X51.28209 Y11.14744
X51.37304 Y11.05630
X51.49339 Y11.00632
X51.60180 Y10.93865
X51.72552 Y10.90995
X51.84449 Y10.86057
X51.97474 Y10.86042
X52.10080 Y10.83941
X52.22613 Y10.86021
X52.35478 Y10.86006
X52.47528 Y10.90987
X52.59974 Y10.93865
X52.70756 Y11.00583
X52.82651 Y11.05496
X52.93245 Y11.15849
X53.04093 Y11.23370
X54.57609 Y12.76885
X54.63484 Y12.81073
X54.73661 Y12.83532
X76.46497 Y12.83532
X76.53604 Y12.82341
X76.61561 Y12.77748
X77.15996 Y12.23433
X77.60192 Y11.93903
X78.12318 Y11.83532
X88.57830 Y11.83532
X89.09956 Y11.93898
X89.52247 Y12.22158
X89.80507 Y12.64449
X89.90434 Y13.14334
X89.80512 Y13.64215
X89.52252 Y14.06506
X89.09961 Y14.34766
X88.57858 Y14.45132
X78.72351 Y14.45218
X78.63479 Y14.47601
X78.57609 Y14.51784
X78.04157 Y15.05236
X77.59961 Y15.34766
X77.07858 Y15.45132
X54.12295 Y15.45132
G04 P0 ( dwell for no time -- G64 should not smooth over this point )
G00 Z5.00000 ( retract )

G00 X54.51490 Y13.14332 ( rapid move to begin. )
F300.00000
G01 Z-0.05000
G04 P0 ( dwell for no time -- G64 should not smooth over this point )
F600.00000
G01 X54.51490 Y13.14332
X52.80784 Y11.43626
X52.65386 Y11.31084
X52.46870 Y11.21404
X52.26740 Y11.15785
X52.05889 Y11.14472
X51.85216 Y11.17525
X51.65633 Y11.24807
X51.46367 Y11.37322
X51.31747 Y11.52249
X51.20548 Y11.69892
X51.13266 Y11.89476
X51.10322 Y12.08058
X51.11198 Y12.28937
X51.17144 Y12.51129
X51.26824 Y12.69646
X51.38666 Y12.84266
X53.40349 Y14.85906
X53.61249 Y15.01515
X53.82955 Y15.10506
X54.10077 Y15.14331
X77.10078 Y15.14331
X77.37195 Y15.10506
X77.61162 Y15.00209
X77.80784 Y14.85043
X78.51495 Y14.14332
X88.61122 Y14.14278
X88.81876 Y14.11878
X88.99771 Y14.06064
X89.17975 Y13.95805
X89.33649 Y13.81987
X89.46108 Y13.65213
X89.54805 Y13.46214
X89.59583 Y13.23740
X89.59362 Y13.02849
X89.54805 Y12.82455
X89.46108 Y12.63456
X89.33649 Y12.46682
X89.17975 Y12.32864
X88.99771 Y12.22605
X88.79832 Y12.16356
X88.60078 Y12.14332
X78.08770 Y12.14418
X77.82953 Y12.18162
X77.58986 Y12.28460
X77.39367 Y12.43626
X76.68661 Y13.14332
X54.51490 Y13.14332
G04 P0 ( dwell for no time -- G64 should not smooth over this point )
G00 Z5.00000 ( retract )

G00 X65.62318 Y24.33532 ( rapid move to begin. )
F300.00000
G01 Z-0.05000
G04 P0 ( dwell for no time -- G64 should not smooth over this point )
F600.00000
G01 X65.62318 Y24.33532
X88.57830 Y24.33532
X89.09956 Y24.43898
X89.52247 Y24.72158
X89.80507 Y25.14449
X89.90434 Y25.64334
X89.80512 Y26.14215
X89.52252 Y26.56506
X89.09961 Y26.84766
X88.57858 Y26.95132
X66.22351 Y26.95218
X66.13479 Y26.97601
X66.07609 Y27.01784
X64.54157 Y28.55236
X64.09961 Y28.84766
X63.57858 Y28.95131
X54.12295 Y28.95131
X53.60197 Y28.84771
X53.16001 Y28.55241
X51.19120 Y26.58358
X51.11635 Y26.47575
X51.01371 Y26.37105
X50.96372 Y26.25071
X50.89606 Y26.14230
X50.86735 Y26.01858
X50.81800 Y25.89963
X50.81785 Y25.76938
X50.79682 Y25.64332
X50.81762 Y25.51797
X50.81747 Y25.38940
X50.86730 Y25.26885
X50.89608 Y25.14436
X50.96327 Y25.03654
X51.01239 Y24.91759
X51.10451 Y24.82529
X51.17873 Y24.72132
X51.28209 Y24.64744
X51.37304 Y24.55630
X51.49339 Y24.50631
X51.60180 Y24.43865
X51.72552 Y24.40995
X51.84449 Y24.36057
X51.97474 Y24.36042
X52.10080 Y24.33941
X52.22613 Y24.36021
X52.35478 Y24.36006
X52.47528 Y24.40987
X52.59969 Y24.43865
X52.70758 Y24.50588
X52.82653 Y24.55501
X52.93245 Y24.65849
X53.04093 Y24.73369
X54.57609 Y26.26885
X54.69069 Y26.33016
X62.97800 Y26.33448
X63.06667 Y26.31073
X63.12545 Y26.26885
X64.65996 Y24.73433
X65.10192 Y24.43903
X65.62318 Y24.33532
G04 P0 ( dwell for no time -- G64 should not smooth over this point )
G00 Z5.00000 ( retract )

G00 X66.01495 Y26.64332 ( rapid move to begin. )
F300.00000
G01 Z-0.05000
G04 P0 ( dwell for no time -- G64 should not smooth over this point )
F600.00000
G01 X66.01495 Y26.64332
X88.60078 Y26.64332
X88.79832 Y26.62312
X88.99771 Y26.56064
X89.17975 Y26.45805
X89.33649 Y26.31987
X89.46108 Y26.15213
X89.54805 Y25.96214
X89.59362 Y25.75820
X89.59583 Y25.54926
X89.54805 Y25.32455
X89.46108 Y25.13456
X89.33649 Y24.96682
X89.17975 Y24.82864
X88.99771 Y24.72605
X88.79832 Y24.66357
X88.60078 Y24.64332
X65.60078 Y24.64332
X65.32953 Y24.68162
X65.11246 Y24.77154
X64.90350 Y24.92762
X63.18661 Y26.64332
X54.51490 Y26.64332
X52.80007 Y24.92925
X52.65386 Y24.81083
X52.46870 Y24.71403
X52.24678 Y24.65457
X52.03799 Y24.64581
X51.85216 Y24.67525
X51.65633 Y24.74807
X51.47990 Y24.86006
X51.33063 Y25.00626
X51.21498 Y25.18028
X51.13807 Y25.37459
X51.10322 Y25.58058
X51.11198 Y25.78937
X51.16395 Y25.99176
X51.25686 Y26.17893
X51.39367 Y26.35043
X53.40349 Y28.35906
X53.61249 Y28.51514
X53.82955 Y28.60506
X54.08772 Y28.64248
X63.60078 Y28.64331
X63.84673 Y28.61182
X64.08902 Y28.51514
X64.30784 Y28.35043
X66.01495 Y26.64332
G04 P0 ( dwell for no time -- G64 should not smooth over this point )
G00 Z5.00000 ( retract )

G00 X53.37131 Y30.95890 ( rapid move to begin. )
F300.00000
G01 Z-0.05000
G04 P0 ( dwell for no time -- G64 should not smooth over this point )
F600.00000
G01 X53.37131 Y30.95890
X53.24688 Y31.25926
X53.22463 Y31.26660
X52.99303 Y31.03503
X53.05173 Y30.85614
X53.07520 Y30.65377
X53.05607 Y30.45096
X52.99303 Y30.25169
X53.22463 Y30.02007
X53.24114 Y30.02548
X53.39364 Y30.44387
X53.37131 Y30.95890
G04 P0 ( dwell for no time -- G64 should not smooth over this point )
G00 Z5.00000 ( retract )

G00 X51.71231 Y29.75431 ( rapid move to begin. )
F300.00000
G01 Z-0.05000
G04 P0 ( dwell for no time -- G64 should not smooth over this point )
F600.00000
G01 X51.71231 Y29.75431
X51.47746 Y29.51949
X51.48290 Y29.50295
X51.90129 Y29.35045
X52.41632 Y29.37278
X52.71673 Y29.49721
X52.72404 Y29.51946
X52.48925 Y29.75431
X52.39194 Y29.71334
X52.19222 Y29.67313
X51.98854 Y29.67532
X51.80959 Y29.71334
X51.71231 Y29.75431
G04 P0 ( dwell for no time -- G64 should not smooth over this point )
G00 Z5.00000 ( retract )

G00 X50.97691 Y31.26663 ( rapid move to begin. )
F300.00000
G01 Z-0.05000
G04 P0 ( dwell for no time -- G64 should not smooth over this point )
F600.00000
G01 X50.97691 Y31.26663
X50.96037 Y31.26119
X50.80787 Y30.84280
X50.83019 Y30.32777
X50.95463 Y30.02741
X50.97688 Y30.02007
X51.20850 Y30.25167
X51.14980 Y30.43051
X51.12633 Y30.63287
X51.14546 Y30.83569
X51.20850 Y31.03498
X50.97691 Y31.26663
G04 P0 ( dwell for no time -- G64 should not smooth over this point )
G00 Z5.00000 ( retract )

G00 X52.12247 Y37.33532 ( rapid move to begin. )
F300.00000
G01 Z-0.05000
G04 P0 ( dwell for no time -- G64 should not smooth over this point )
F600.00000
G01 X52.12247 Y37.33532
X74.57831 Y37.33532
X75.09956 Y37.43898
X75.54152 Y37.73428
X77.57606 Y39.76884
X77.69067 Y39.83016
X86.51084 Y39.83016
X86.62545 Y39.76884
X87.65994 Y38.73433
X88.10190 Y38.43903
X88.60076 Y38.33976
X89.09956 Y38.43898
X89.52247 Y38.72158
X89.80507 Y39.14449
X89.90434 Y39.64334
X89.80512 Y40.14215
X89.50982 Y40.58411
X88.04158 Y42.05235
X87.59962 Y42.34765
X87.07859 Y42.45131
X77.12295 Y42.45131
X76.60195 Y42.34771
X76.16001 Y42.05241
X74.12545 Y40.01784
X74.06667 Y39.97596
X73.97808 Y39.95218
X52.12209 Y39.95132
X51.99329 Y39.92805
X51.84680 Y39.92663
X51.72626 Y39.87679
X51.60175 Y39.84799
X51.49395 Y39.78083
X51.37500 Y39.73171
X51.28275 Y39.63961
X51.17881 Y39.56541
X51.10484 Y39.46201
X51.01371 Y39.37105
X50.96372 Y39.25071
X50.89606 Y39.14230
X50.86735 Y39.01858
X50.81800 Y38.89963
X50.81785 Y38.76938
X50.79682 Y38.64332
X50.81762 Y38.51797
X50.81747 Y38.38939
X50.86730 Y38.26885
X50.89608 Y38.14436
X50.96327 Y38.03654
X51.01239 Y37.91759
X51.10451 Y37.82529
X51.17873 Y37.72132
X51.28209 Y37.64744
X51.37304 Y37.55630
X51.49339 Y37.50631
X51.60180 Y37.43865
X51.72552 Y37.40995
X51.84449 Y37.36057
X51.99245 Y37.35884
X52.12247 Y37.33532
G04 P0 ( dwell for no time -- G64 should not smooth over this point )
G00 Z5.00000 ( retract )

G00 X51.71231 Y42.75431 ( rapid move to begin. )
F300.00000
G01 Z-0.05000
G04 P0 ( dwell for no time -- G64 should not smooth over this point )
F600.00000
G01 X51.71231 Y42.75431
X51.47746 Y42.51949
X51.48290 Y42.50295
X51.90129 Y42.35045
X52.41632 Y42.37278
X52.71673 Y42.49721
X52.72404 Y42.51946
X52.48925 Y42.75431
X52.39194 Y42.71334
X52.19222 Y42.67313
X51.98854 Y42.67531
X51.80959 Y42.71334
X51.71231 Y42.75431
G04 P0 ( dwell for no time -- G64 should not smooth over this point )
G00 Z5.00000 ( retract )

G00 X50.97691 Y44.26662 ( rapid move to begin. )
F300.00000
G01 Z-0.05000
G04 P0 ( dwell for no time -- G64 should not smooth over this point )
F600.00000
G01 X50.97691 Y44.26662
X50.96037 Y44.26119
X50.80787 Y43.84280
X50.83019 Y43.32776
X50.95463 Y43.02741
X50.97688 Y43.02007
X51.20850 Y43.25167
X51.14980 Y43.43051
X51.12633 Y43.63287
X51.14546 Y43.83569
X51.20850 Y44.03498
X50.97691 Y44.26662
G04 P0 ( dwell for no time -- G64 should not smooth over this point )
G00 Z5.00000 ( retract )

G00 X52.30022 Y44.93622 ( rapid move to begin. )
F300.00000
G01 Z-0.05000
G04 P0 ( dwell for no time -- G64 should not smooth over this point )
F600.00000
G01 X52.30022 Y44.93622
X51.78518 Y44.91389
X51.48480 Y44.78946
X51.47749 Y44.76726
X51.71231 Y44.53236
X51.80959 Y44.57330
X52.00934 Y44.61349
X52.21300 Y44.61133
X52.39194 Y44.57330
X52.48917 Y44.53236
X52.72404 Y44.76721
X52.71863 Y44.78372
X52.30022 Y44.93622
G04 P0 ( dwell for no time -- G64 should not smooth over this point )
G00 Z5.00000 ( retract )

G00 X53.24688 Y44.25926 ( rapid move to begin. )
F300.00000
G01 Z-0.05000
G04 P0 ( dwell for no time -- G64 should not smooth over this point )
F600.00000
G01 X53.24688 Y44.25926
X53.22463 Y44.26660
X52.99303 Y44.03503
X53.05173 Y43.85614
X53.07520 Y43.65377
X53.05607 Y43.45095
X52.99303 Y43.25169
X53.22463 Y43.02007
X53.24114 Y43.02548
X53.39364 Y43.44387
X53.37131 Y43.95890
X53.24688 Y44.25926
G04 P0 ( dwell for no time -- G64 should not smooth over this point )
G00 Z5.00000 ( retract )

G00 X74.18656 Y39.64332 ( rapid move to begin. )
F300.00000
G01 Z-0.05000
G04 P0 ( dwell for no time -- G64 should not smooth over this point )
F600.00000
G01 X74.18656 Y39.64332
X76.39367 Y41.85042
X76.61249 Y42.01514
X76.85478 Y42.11182
X77.10078 Y42.14331
X87.10079 Y42.14331
X87.37196 Y42.10506
X87.58902 Y42.01514
X87.79802 Y41.85906
X89.30784 Y40.35043
X89.43327 Y40.19645
X89.53007 Y40.01129
X89.58625 Y39.81002
X89.59938 Y39.60151
X89.56885 Y39.39478
X89.49603 Y39.19894
X89.37091 Y39.00626
X89.22161 Y38.86003
X89.04521 Y38.74809
X88.84937 Y38.67525
X88.64264 Y38.64472
X88.45473 Y38.65457
X88.25237 Y38.70654
X88.04767 Y38.81083
X87.89367 Y38.93623
X86.68661 Y40.14332
X77.51490 Y40.14332
X75.29804 Y37.92762
X75.11165 Y37.78457
X74.87193 Y37.68162
X74.60078 Y37.64332
X52.10078 Y37.64332
X51.90319 Y37.66356
X51.70380 Y37.72605
X51.52176 Y37.82864
X51.36502 Y37.96682
X51.24043 Y38.13456
X51.15346 Y38.32455
X51.10571 Y38.54926
X51.10789 Y38.75820
X51.15346 Y38.96214
X51.24043 Y39.15213
X51.36502 Y39.31987
X51.52176 Y39.45805
X51.70380 Y39.56064
X51.90319 Y39.62312
X52.10078 Y39.64332
X74.18656 Y39.64332
G04 P0 ( dwell for no time -- G64 should not smooth over this point )
G00 Z5.00000 ( retract )

G00 X76.19362 Y6.14331 ( rapid move to begin. )
F300.00000
G01 Z-0.05000
G04 P0 ( dwell for no time -- G64 should not smooth over this point )
F600.00000
G01 X76.19362 Y6.14331
X7.67079 Y6.14331
X7.39955 Y6.18161
X7.18248 Y6.27153
X6.97351 Y6.42761
X4.30169 Y9.09824
X4.17626 Y9.25224
X4.07946 Y9.43741
X4.02328 Y9.63868
X4.01015 Y9.84721
X4.04068 Y10.05394
X4.11352 Y10.24978
X4.22546 Y10.42618
X4.38795 Y10.58866
X4.54576 Y10.69113
X4.74002 Y10.76801
X4.94606 Y10.80286
X5.15482 Y10.79410
X5.37672 Y10.73464
X5.56188 Y10.63784
X5.71588 Y10.51241
X8.08497 Y8.14330
X46.68080 Y8.14330
X46.68080 Y22.19075
X46.60648 Y22.40965
X46.58080 Y22.64333
X46.58133 Y28.15378
X46.60752 Y28.38215
X46.68062 Y28.60008
X46.79746 Y28.79805
X46.95286 Y28.96739
X47.12200 Y29.09028
X47.33109 Y29.18576
X47.55545 Y29.23567
X47.78532 Y29.23785
X48.01057 Y29.19221
X48.22146 Y29.10072
X48.42421 Y28.95340
X48.57638 Y28.78113
X48.68092 Y28.60008
X48.75837 Y28.36170
X48.78080 Y28.14331
X48.78080 Y23.74332
X50.11381 Y23.74248
X50.39784 Y23.70167
X50.63901 Y23.60177
X50.87856 Y23.42115
X52.65638 Y21.64330
X63.10779 Y21.64330
X63.35374 Y21.61181
X63.59603 Y21.51513
X63.80502 Y21.35905
X64.01495 Y21.15031
X87.69357 Y21.15031
X87.73878 Y21.19553
X87.74127 Y21.42758
X87.77643 Y21.48351
X87.83878 Y21.50530
X88.10063 Y21.50530
X88.25234 Y21.58013
X88.43411 Y21.62882
X88.66352 Y21.64086
X88.86951 Y21.60601
X89.10045 Y21.50530
X89.36278 Y21.50530
X89.42511 Y21.48351
X89.46278 Y21.40530
X89.46278 Y21.14297
X89.56344 Y20.91209
X89.59938 Y20.68519
X89.58625 Y20.47668
X89.53756 Y20.29492
X89.46278 Y20.14336
X89.45288 Y19.83792
X89.38503 Y19.78382
X89.15290 Y19.78130
X88.81485 Y19.44326
X88.59603 Y19.27851
X88.35374 Y19.18186
X88.12085 Y19.15118
X63.60078 Y19.15032
X63.35473 Y19.18186
X63.13487 Y19.26927
X62.77632 Y19.27917
X62.72222 Y19.34701
X62.71973 Y19.61719
X62.69362 Y19.64331
X52.54980 Y19.64331
X52.37525 Y19.57864
X52.14787 Y19.54483
X51.91846 Y19.55905
X51.71653 Y19.61316
X51.60347 Y19.66832
X51.20352 Y19.67084
X51.16344 Y19.69014
X51.12829 Y19.74607
X51.12580 Y20.06269
X49.64518 Y21.54333
X48.68080 Y21.54333
X48.68080 Y8.14330
X76.60779 Y8.14330
X76.85374 Y8.11181
X77.09603 Y8.01514
X77.30502 Y7.85905
X77.51495 Y7.65031
X86.69357 Y7.65031
X87.73878 Y8.69552
X87.74127 Y8.92758
X87.77643 Y8.98351
X87.83878 Y9.00530
X88.10063 Y9.00530
X88.25234 Y9.08013
X88.43411 Y9.12882
X88.64262 Y9.14196
X88.86951 Y9.10601
X89.10045 Y9.00530
X89.36278 Y9.00530
X89.42511 Y8.98351
X89.46278 Y8.90530
X89.46278 Y8.64297
X89.56885 Y8.39192
X89.59829 Y8.20609
X89.58953 Y7.99730
X89.53756 Y7.79492
X89.46278 Y7.64336
X89.46278 Y7.38130
X89.44096 Y7.31897
X89.38503 Y7.28382
X89.15290 Y7.28130
X87.81486 Y5.94326
X87.59603 Y5.77851
X87.35374 Y5.68187
X87.10780 Y5.65032
X77.10078 Y5.65032
X76.85473 Y5.68187
X76.63487 Y5.76927
X76.27632 Y5.77917
X76.22222 Y5.84702
X76.21973 Y6.11720
X76.19362 Y6.14331
G04 P0 ( dwell for no time -- G64 should not smooth over this point )
G00 Z5.00000 ( retract )

G00 X22.27778 Y19.33592 ( rapid move to begin. )
F300.00000
G01 Z-0.05000
G04 P0 ( dwell for no time -- G64 should not smooth over this point )
F600.00000
G01 X22.27778 Y19.33592
X22.27778 Y20.91072
X22.31542 Y20.98892
X22.37778 Y21.01071
X24.66378 Y21.01071
X24.74196 Y20.97307
X24.76377 Y20.91072
X24.76377 Y19.33592
X24.72611 Y19.25773
X24.66378 Y19.23592
X22.37778 Y19.23592
X22.31542 Y19.25773
X22.27778 Y19.33592

G04 P0 ( dwell for no time -- G64 should not smooth over this point )
G00 Z10.000 ( retract )

M5 ( Spindle off. )
M9 ( Coolant off. )
M2 ( Program end. )

