( pcb2gcode 1.3.2 )
( Software-independent Gcode )

G94 ( Millimeters per minute feed rate. )
G21 ( Units == Millimeters. )

G90 ( Absolute coordinates. )
S10000 ( RPM spindle speed. )
G64 P0.01000 ( set maximum deviation from commanded toolpath )
F600.00000 ( Feedrate. )

F600.00000 ( Feedrate. )
M3 ( Spindle on clockwise. )
G04 P0 ( dwell for no time -- G64 should not smooth over this point )
G00 Z5.00000 ( retract )

G00 X0.61605 Y0.08490 ( rapid move to begin. )
G01 Z-2.50000 F300.00000 ( plunge. )
G04 P0 ( dwell for no time -- G64 should not smooth over this point )
F600.00000
G01 X0.61605 Y0.08490
X0.58882 Y0.15335
X0.61889 Y0.22501
X0.69080 Y0.25528
X0.76248 Y0.22516
X0.79270 Y0.16377
X0.78833 Y0.12242
X0.76265 Y0.08167
X0.69075 Y0.05140
X0.61605 Y0.08490
G04 P0 ( dwell for no time -- G64 should not smooth over this point )
G00 Z5.00000 ( retract )

G00 X90.64878 Y0.75246 ( rapid move to begin. )
G01 Z-2.50000 F300.00000 ( plunge. )
G04 P0 ( dwell for no time -- G64 should not smooth over this point )
F600.00000
G01 X90.64878 Y0.75246
X90.63306 Y0.69371
X90.59588 Y0.64251
X90.53334 Y0.60390
X90.47378 Y0.59333
X45.50078 Y0.59333
Z-0.60000
X45.20078 Y0.59333
Z-2.50000 F300.00000
F600.00000
G01 X0.22778 Y0.59333
X0.14607 Y0.61360
X0.07101 Y0.68866
X0.05079 Y0.77032
X0.05079 Y47.01630
X0.07101 Y47.09801
X0.14607 Y47.17307
X0.22778 Y47.19329
X45.20078 Y47.19329
Z-0.60000
X45.50078 Y47.19329
Z-2.50000 F300.00000
F600.00000
G01 X90.47378 Y47.19329
X90.55544 Y47.17307
X90.63050 Y47.09801
X90.65074 Y47.01630
X90.64878 Y0.75246

G04 P0 ( dwell for no time -- G64 should not smooth over this point )
G00 Z10.000 ( retract )

M5 ( Spindle off. )
M9 ( Coolant off. )
M2 ( Program end. )

