( pcb2gcode 1.3.2 )
( Software-independent Gcode )

G94 ( Millimeters per minute feed rate. )
G21 ( Units == Millimeters. )

G90 ( Absolute coordinates. )
S10000 ( RPM spindle speed. )
F600.00000 ( Feedrate. )

F600.00000 ( Feedrate. )
M3 ( Spindle on clockwise. )
G04 P0 ( dwell for no time -- G64 should not smooth over this point )
G00 Z5.00000 ( retract )

G00 X2.23934 Y46.13286 ( rapid move to begin. )
F300.00000
G01 Z-0.05000
G04 P0 ( dwell for no time -- G64 should not smooth over this point )
F600.00000
G01 X2.23934 Y46.13286
X2.26035 Y45.95400
X2.31808 Y45.78339
X2.41003 Y45.62852
X2.53215 Y45.49614
X2.66101 Y45.40251
X2.82466 Y45.32728
X3.00038 Y45.28770
X3.18041 Y45.28549
X3.35704 Y45.32083
X3.52245 Y45.39207
X3.66941 Y45.49614
X3.79156 Y45.62852
X3.89202 Y45.80249
X3.94559 Y45.97444
X3.96225 Y46.15377
X3.94124 Y46.33264
X3.88351 Y46.50325
X3.79156 Y46.65811
X3.66944 Y46.79050
X3.54058 Y46.88412
X3.37693 Y46.95935
X3.20121 Y46.99893
X3.02115 Y47.00111
X2.84455 Y46.96581
X2.67914 Y46.89456
X2.53218 Y46.79050
X2.41003 Y46.65811
X2.30957 Y46.48415
X2.25600 Y46.31219
X2.23934 Y46.13286
G04 P0 ( dwell for no time -- G64 should not smooth over this point )
G00 Z5.00000 ( retract )

G00 X2.43896 Y45.15085 ( rapid move to begin. )
F300.00000
G01 Z-0.05000
G04 P0 ( dwell for no time -- G64 should not smooth over this point )
F600.00000
G01 X2.43896 Y45.15085
X2.10952 Y45.47970
X1.93104 Y45.90965
X1.93053 Y46.37495
X2.10833 Y46.80520
X2.43716 Y47.13461
X2.86713 Y47.31313
X3.33238 Y47.31361
X3.76266 Y47.13581
X4.09209 Y46.80698
X4.27058 Y46.37703
X4.27109 Y45.91173
X4.09329 Y45.48148
X3.76446 Y45.15207
X3.33449 Y44.97356
X2.86921 Y44.97307
X2.43896 Y45.15085
G04 P0 ( dwell for no time -- G64 should not smooth over this point )
G00 Z5.00000 ( retract )

G00 X6.95577 Y45.21951 ( rapid move to begin. )
F300.00000
G01 Z-0.05000
G04 P0 ( dwell for no time -- G64 should not smooth over this point )
F600.00000
G01 X6.95577 Y45.21951
X6.91835 Y45.40416
X6.91835 Y46.88402
X6.95053 Y47.05514
X7.04070 Y47.19530
X7.17697 Y47.28839
X7.36140 Y47.32575
X8.84174 Y47.32575
X9.01261 Y47.29362
X9.15274 Y47.20345
X9.24585 Y47.06715
X9.28322 Y46.88272
X9.28322 Y45.40239
X9.25109 Y45.23155
X9.16092 Y45.09141
X9.02462 Y44.99830
X8.83996 Y44.96088
X7.36011 Y44.96088
X7.18901 Y44.99306
X7.04886 Y45.08323
X6.95577 Y45.21951
G04 P0 ( dwell for no time -- G64 should not smooth over this point )
G00 Z5.00000 ( retract )

G00 X8.96277 Y45.38130 ( rapid move to begin. )
F300.00000
G01 Z-0.05000
G04 P0 ( dwell for no time -- G64 should not smooth over this point )
F600.00000
G01 X8.96277 Y45.38130
X8.96277 Y46.90530
X8.92513 Y46.98351
X8.86277 Y47.00530
X7.33877 Y47.00530
X7.26059 Y46.96766
X7.23877 Y46.90530
X7.23877 Y45.38130
X7.27644 Y45.30312
X7.33877 Y45.28130
X8.86277 Y45.28130
X8.94098 Y45.31897
X8.96277 Y45.38130
G04 P0 ( dwell for no time -- G64 should not smooth over this point )
G00 Z5.00000 ( retract )

G00 X12.41148 Y29.87872 ( rapid move to begin. )
F300.00000
G01 Z-0.05000
G04 P0 ( dwell for no time -- G64 should not smooth over this point )
F600.00000
G01 X12.41148 Y29.87872
X12.59218 Y30.31598
X12.92637 Y30.65075
X13.36332 Y30.83216
X13.83617 Y30.83267
X14.27343 Y30.65197
X14.60823 Y30.31778
X14.78963 Y29.88083
X14.79012 Y29.40798
X14.60945 Y28.97072
X14.27526 Y28.63592
X13.83830 Y28.45452
X13.36543 Y28.45401
X12.92817 Y28.63470
X12.59340 Y28.96889
X12.41199 Y29.40585
X12.41148 Y29.87872
G04 P0 ( dwell for no time -- G64 should not smooth over this point )
G00 Z5.00000 ( retract )

G00 X12.72030 Y29.63287 ( rapid move to begin. )
F300.00000
G01 Z-0.05000
G04 P0 ( dwell for no time -- G64 should not smooth over this point )
F600.00000
G01 X12.72030 Y29.63287
X12.74171 Y29.45004
X12.79218 Y29.29475
X12.88232 Y29.13424
X13.00389 Y28.99599
X13.15149 Y28.88604
X13.31880 Y28.80918
X13.49837 Y28.76876
X13.68242 Y28.76655
X13.86294 Y28.80272
X14.03198 Y28.87557
X14.18219 Y28.98200
X14.30698 Y29.11733
X14.40091 Y29.27565
X14.45989 Y29.45004
X14.48130 Y29.65378
X14.45989 Y29.83661
X14.40942 Y29.99190
X14.31928 Y30.15240
X14.19771 Y30.29066
X14.05011 Y30.40061
X13.88280 Y30.47747
X13.70322 Y30.51788
X13.51915 Y30.52007
X13.33866 Y30.48392
X13.16962 Y30.41108
X13.01941 Y30.30465
X12.89462 Y30.16932
X12.80069 Y30.01100
X12.74171 Y29.83661
X12.72030 Y29.63287
G04 P0 ( dwell for no time -- G64 should not smooth over this point )
G00 Z5.00000 ( retract )

G00 X14.48184 Y21.36926 ( rapid move to begin. )
F300.00000
G01 Z-0.05000
G04 P0 ( dwell for no time -- G64 should not smooth over this point )
F600.00000
G01 X14.48184 Y21.36926
X14.48184 Y22.93136
X14.44419 Y23.00957
X14.38184 Y23.03136
X12.81974 Y23.03136
X12.74156 Y22.99372
X12.71974 Y22.93136
X12.71974 Y21.36926
X12.75740 Y21.29108
X12.81974 Y21.26926
X14.38184 Y21.26926
X14.44419 Y21.29108
X14.48184 Y21.36926
G04 P0 ( dwell for no time -- G64 should not smooth over this point )
G00 Z5.00000 ( retract )

G00 X14.67996 Y21.07935 ( rapid move to begin. )
F300.00000
G01 Z-0.05000
G04 P0 ( dwell for no time -- G64 should not smooth over this point )
F600.00000
G01 X14.67996 Y21.07935
X14.54369 Y20.98623
X14.35903 Y20.94882
X12.84112 Y20.94882
X12.66998 Y20.98102
X12.52987 Y21.07117
X12.43668 Y21.20754
X12.39929 Y21.39212
X12.39929 Y22.91008
X12.43145 Y23.08112
X12.52167 Y23.22128
X12.65801 Y23.31447
X12.84234 Y23.35181
X14.36081 Y23.35181
X14.53162 Y23.31970
X14.67175 Y23.22951
X14.76492 Y23.09316
X14.80228 Y22.90878
X14.80228 Y21.39039
X14.77013 Y21.21950
X14.67996 Y21.07935
G04 P0 ( dwell for no time -- G64 should not smooth over this point )
G00 Z5.00000 ( retract )

G00 X15.23934 Y9.63289 ( rapid move to begin. )
F300.00000
G01 Z-0.05000
G04 P0 ( dwell for no time -- G64 should not smooth over this point )
F600.00000
G01 X15.23934 Y9.63289
X15.26035 Y9.45402
X15.31808 Y9.28341
X15.41003 Y9.12854
X15.53215 Y8.99616
X15.66101 Y8.90253
X15.82466 Y8.82730
X16.00038 Y8.78773
X16.18041 Y8.78552
X16.35704 Y8.82085
X16.52245 Y8.89210
X16.66941 Y8.99616
X16.79156 Y9.12854
X16.89202 Y9.30251
X16.94559 Y9.47447
X16.96225 Y9.65379
X16.94124 Y9.83266
X16.88351 Y10.00327
X16.79156 Y10.15813
X16.66944 Y10.29052
X16.54058 Y10.38414
X16.37693 Y10.45938
X16.20121 Y10.49895
X16.02115 Y10.50113
X15.84455 Y10.46583
X15.67914 Y10.39458
X15.53218 Y10.29052
X15.41003 Y10.15813
X15.30957 Y9.98417
X15.25600 Y9.81221
X15.23934 Y9.63289
G04 P0 ( dwell for no time -- G64 should not smooth over this point )
G00 Z5.00000 ( retract )

G00 X15.10952 Y8.97970 ( rapid move to begin. )
F300.00000
G01 Z-0.05000
G04 P0 ( dwell for no time -- G64 should not smooth over this point )
F600.00000
G01 X15.10952 Y8.97970
X14.93104 Y9.40965
X14.93053 Y9.87495
X15.10833 Y10.30520
X15.43716 Y10.63461
X15.86713 Y10.81312
X16.33238 Y10.81361
X16.76265 Y10.63581
X17.09209 Y10.30698
X17.27058 Y9.87703
X17.27109 Y9.41173
X17.09329 Y8.98148
X16.76446 Y8.65207
X16.33449 Y8.47355
X15.86924 Y8.47307
X15.43896 Y8.65087
X15.10952 Y8.97970
G04 P0 ( dwell for no time -- G64 should not smooth over this point )
G00 Z5.00000 ( retract )

G00 X11.96279 Y8.88133 ( rapid move to begin. )
F300.00000
G01 Z-0.05000
G04 P0 ( dwell for no time -- G64 should not smooth over this point )
F600.00000
G01 X11.96279 Y8.88133
X11.96279 Y10.40533
X11.92515 Y10.48353
X11.86279 Y10.50533
X10.33879 Y10.50533
X10.26061 Y10.46768
X10.23879 Y10.40533
X10.23879 Y8.88133
X10.27646 Y8.80314
X10.33879 Y8.78133
X11.86279 Y8.78133
X11.92515 Y8.80314
X11.96279 Y8.88133
G04 P0 ( dwell for no time -- G64 should not smooth over this point )
G00 Z5.00000 ( retract )

G00 X11.83998 Y8.46088 ( rapid move to begin. )
F300.00000
G01 Z-0.05000
G04 P0 ( dwell for no time -- G64 should not smooth over this point )
F600.00000
G01 X11.83998 Y8.46088
X10.36013 Y8.46088
X10.18901 Y8.49306
X10.04888 Y8.58323
X9.95576 Y8.71953
X9.91835 Y8.90419
X9.91835 Y10.38404
X9.95050 Y10.55514
X10.04070 Y10.69527
X10.17699 Y10.78838
X10.36142 Y10.82575
X11.84176 Y10.82575
X12.01260 Y10.79362
X12.15273 Y10.70345
X12.24585 Y10.56715
X12.28321 Y10.38275
X12.28321 Y8.90241
X12.25108 Y8.73154
X12.16091 Y8.59138
X12.02464 Y8.49829
X11.83998 Y8.46088
G04 P0 ( dwell for no time -- G64 should not smooth over this point )
G00 Z5.00000 ( retract )

G00 X25.86601 Y12.44182 ( rapid move to begin. )
F300.00000
G01 Z-0.05000
G04 P0 ( dwell for no time -- G64 should not smooth over this point )
F600.00000
G01 X25.86601 Y12.44182
X24.34806 Y12.44182
X24.17699 Y12.47398
X24.03683 Y12.56417
X23.94372 Y12.70047
X23.90630 Y12.88513
X23.90630 Y14.40308
X23.93848 Y14.57418
X24.02865 Y14.71433
X24.16493 Y14.80745
X24.34936 Y14.84481
X25.86777 Y14.84481
X26.03866 Y14.81266
X26.17882 Y14.72249
X26.27191 Y14.58622
X26.30927 Y14.40179
X26.30927 Y12.88335
X26.27714 Y12.71248
X26.18697 Y12.57235
X26.05067 Y12.47924
X25.86601 Y12.44182
G04 P0 ( dwell for no time -- G64 should not smooth over this point )
G00 Z5.00000 ( retract )

G00 X25.98882 Y12.86227 ( rapid move to begin. )
F300.00000
G01 Z-0.05000
G04 P0 ( dwell for no time -- G64 should not smooth over this point )
F600.00000
G01 X25.98882 Y12.86227
X25.98882 Y14.42437
X25.95118 Y14.50257
X25.88882 Y14.52437
X24.32672 Y14.52437
X24.24854 Y14.48672
X24.22672 Y14.42437
X24.22672 Y12.86227
X24.26439 Y12.78409
X24.32672 Y12.76227
X25.88882 Y12.76227
X25.95118 Y12.78409
X25.98882 Y12.86227
G04 P0 ( dwell for no time -- G64 should not smooth over this point )
G00 Z5.00000 ( retract )

G00 X31.41198 Y13.40585 ( rapid move to begin. )
F300.00000
G01 Z-0.05000
G04 P0 ( dwell for no time -- G64 should not smooth over this point )
F600.00000
G01 X31.41198 Y13.40585
X31.41150 Y13.87873
X31.59214 Y14.31596
X31.92635 Y14.65076
X32.36331 Y14.83216
X32.83618 Y14.83267
X33.27344 Y14.65198
X33.60826 Y14.31774
X33.78965 Y13.88091
X33.79013 Y13.40799
X33.60943 Y12.97070
X33.27525 Y12.63593
X32.83829 Y12.45452
X32.36544 Y12.45401
X31.92818 Y12.63471
X31.59338 Y12.96890
X31.41198 Y13.40585
G04 P0 ( dwell for no time -- G64 should not smooth over this point )
G00 Z5.00000 ( retract )

G00 X31.72028 Y13.63288 ( rapid move to begin. )
F300.00000
G01 Z-0.05000
G04 P0 ( dwell for no time -- G64 should not smooth over this point )
F600.00000
G01 X31.72028 Y13.63288
X31.74170 Y13.45005
X31.79216 Y13.29475
X31.88231 Y13.13425
X32.00387 Y12.99600
X32.15147 Y12.88604
X32.31878 Y12.80918
X32.49836 Y12.76877
X32.68241 Y12.76656
X32.86293 Y12.80273
X33.03196 Y12.87558
X33.18218 Y12.98200
X33.30697 Y13.11733
X33.40090 Y13.27565
X33.45988 Y13.45005
X33.48129 Y13.65378
X33.45988 Y13.83661
X33.40941 Y13.99191
X33.31926 Y14.15241
X33.19770 Y14.29066
X33.05010 Y14.40062
X32.88279 Y14.47748
X32.70321 Y14.51789
X32.51914 Y14.52008
X32.33865 Y14.48393
X32.16961 Y14.41108
X32.01939 Y14.30466
X31.89460 Y14.16933
X31.80067 Y14.01101
X31.74170 Y13.83661
X31.72028 Y13.63288
G04 P0 ( dwell for no time -- G64 should not smooth over this point )
G00 Z5.00000 ( retract )

G00 X43.62636 Y12.63288 ( rapid move to begin. )
F300.00000
G01 Z-0.05000
G04 P0 ( dwell for no time -- G64 should not smooth over this point )
F600.00000
G01 X43.62636 Y12.63288
X43.64982 Y12.43052
X43.71485 Y12.23745
X43.81861 Y12.06212
X43.95653 Y11.91218
X44.12262 Y11.79422
X44.30962 Y11.71335
X44.50934 Y11.67314
X44.69222 Y11.67314
X44.89196 Y11.71335
X45.07896 Y11.79422
X45.26057 Y11.92618
X45.39526 Y12.07903
X45.49524 Y12.25655
X45.55609 Y12.45097
X45.57522 Y12.65378
X45.55175 Y12.85615
X45.48673 Y13.04921
X45.38297 Y13.22455
X45.24505 Y13.37448
X45.07896 Y13.49244
X44.89196 Y13.57332
X44.71302 Y13.61134
X44.50934 Y13.61350
X44.28973 Y13.56684
X44.10451 Y13.48200
X43.94101 Y13.36049
X43.80631 Y13.20763
X43.70634 Y13.03011
X43.64548 Y12.83570
X43.62636 Y12.63288
G04 P0 ( dwell for no time -- G64 should not smooth over this point )
G00 Z5.00000 ( retract )

G00 X45.32854 Y11.55633 ( rapid move to begin. )
F300.00000
G01 Z-0.05000
G04 P0 ( dwell for no time -- G64 should not smooth over this point )
F600.00000
G01 X45.32854 Y11.55633
X44.85706 Y11.36057
X44.34685 Y11.36006
X43.87502 Y11.55501
X43.51378 Y11.91561
X43.31805 Y12.38708
X43.31752 Y12.89732
X43.51244 Y13.36910
X43.87307 Y13.73036
X44.34454 Y13.92610
X44.85475 Y13.92663
X45.32658 Y13.73166
X45.68782 Y13.37108
X45.88358 Y12.89961
X45.88408 Y12.38940
X45.68914 Y11.91757
X45.32854 Y11.55633
G04 P0 ( dwell for no time -- G64 should not smooth over this point )
G00 Z5.00000 ( retract )

G00 X48.62637 Y12.63288 ( rapid move to begin. )
F300.00000
G01 Z-0.05000
G04 P0 ( dwell for no time -- G64 should not smooth over this point )
F600.00000
G01 X48.62637 Y12.63288
X48.64984 Y12.43052
X48.71486 Y12.23745
X48.81862 Y12.06212
X48.95655 Y11.91218
X49.12264 Y11.79422
X49.30963 Y11.71335
X49.50935 Y11.67314
X49.69223 Y11.67314
X49.89198 Y11.71335
X50.07897 Y11.79422
X50.26058 Y11.92618
X50.39528 Y12.07903
X50.49525 Y12.25655
X50.55611 Y12.45097
X50.57524 Y12.65378
X50.55177 Y12.85615
X50.48674 Y13.04921
X50.38298 Y13.22455
X50.24506 Y13.37448
X50.07897 Y13.49244
X49.89198 Y13.57332
X49.71303 Y13.61134
X49.50935 Y13.61350
X49.28974 Y13.56684
X49.10453 Y13.48200
X48.94103 Y13.36049
X48.80633 Y13.20763
X48.70636 Y13.03011
X48.64550 Y12.83570
X48.62637 Y12.63288
G04 P0 ( dwell for no time -- G64 should not smooth over this point )
G00 Z5.00000 ( retract )

G00 X50.68913 Y11.91757 ( rapid move to begin. )
F300.00000
G01 Z-0.05000
G04 P0 ( dwell for no time -- G64 should not smooth over this point )
F600.00000
G01 X50.68913 Y11.91757
X50.32855 Y11.55633
X49.85708 Y11.36057
X49.34684 Y11.36006
X48.87504 Y11.55501
X48.51375 Y11.91566
X48.31804 Y12.38698
X48.31753 Y12.89729
X48.51248 Y13.36912
X48.87308 Y13.73036
X49.34456 Y13.92610
X49.85477 Y13.92663
X50.32660 Y13.73166
X50.68783 Y13.37108
X50.88357 Y12.89961
X50.88410 Y12.38940
X50.68913 Y11.91757
G04 P0 ( dwell for no time -- G64 should not smooth over this point )
G00 Z5.00000 ( retract )

G00 X53.30533 Y11.79118 ( rapid move to begin. )
F300.00000
G01 Z-0.05000
G04 P0 ( dwell for no time -- G64 should not smooth over this point )
F600.00000
G01 X53.30533 Y11.79118
X53.30533 Y13.49696
X53.33754 Y13.66813
X53.42771 Y13.80829
X53.56398 Y13.90138
X53.74841 Y13.93875
X55.45475 Y13.93875
X55.62559 Y13.90661
X55.76575 Y13.81644
X55.85887 Y13.68017
X55.89623 Y13.49574
X55.89623 Y11.78945
X55.86408 Y11.61856
X55.77393 Y11.47845
X55.63756 Y11.38526
X55.45298 Y11.34787
X53.74711 Y11.34787
X53.57604 Y11.38003
X53.43591 Y11.47022
X53.34274 Y11.60657
X53.30533 Y11.79118
G04 P0 ( dwell for no time -- G64 should not smooth over this point )
G00 Z5.00000 ( retract )

G00 X55.57576 Y11.76834 ( rapid move to begin. )
F300.00000
G01 Z-0.05000
G04 P0 ( dwell for no time -- G64 should not smooth over this point )
F600.00000
G01 X55.57576 Y11.76834
X55.57576 Y13.51830
X55.53812 Y13.59651
X55.47576 Y13.61830
X53.72580 Y13.61830
X53.64762 Y13.58066
X53.62580 Y13.51830
X53.62580 Y11.76834
X53.66347 Y11.69016
X53.72580 Y11.66834
X55.47576 Y11.66834
X55.53812 Y11.69016
X55.57576 Y11.76834
G04 P0 ( dwell for no time -- G64 should not smooth over this point )
G00 Z5.00000 ( retract )

G00 X61.74585 Y9.06715 ( rapid move to begin. )
F300.00000
G01 Z-0.05000
G04 P0 ( dwell for no time -- G64 should not smooth over this point )
F600.00000
G01 X61.74585 Y9.06715
X61.78321 Y8.88272
X61.78321 Y7.40239
X61.75108 Y7.23155
X61.66091 Y7.09141
X61.52462 Y6.99830
X61.33996 Y6.96088
X59.86013 Y6.96088
X59.68901 Y6.99306
X59.54885 Y7.08323
X59.45576 Y7.21951
X59.41835 Y7.40416
X59.41835 Y8.88402
X59.45053 Y9.05514
X59.54067 Y9.19524
X59.67700 Y9.28839
X59.86143 Y9.32575
X61.34176 Y9.32575
X61.51260 Y9.29362
X61.65274 Y9.20345
X61.74585 Y9.06715
G04 P0 ( dwell for no time -- G64 should not smooth over this point )
G00 Z5.00000 ( retract )

G00 X61.46279 Y7.38130 ( rapid move to begin. )
F300.00000
G01 Z-0.05000
G04 P0 ( dwell for no time -- G64 should not smooth over this point )
F600.00000
G01 X61.46279 Y7.38130
X61.46279 Y8.90530
X61.42515 Y8.98351
X61.36279 Y9.00530
X59.83879 Y9.00530
X59.76061 Y8.96766
X59.73879 Y8.90530
X59.73879 Y7.38130
X59.77646 Y7.30312
X59.83879 Y7.28130
X61.36279 Y7.28130
X61.42515 Y7.30312
X61.46279 Y7.38130
G04 P0 ( dwell for no time -- G64 should not smooth over this point )
G00 Z5.00000 ( retract )

G00 X64.73934 Y8.13286 ( rapid move to begin. )
F300.00000
G01 Z-0.05000
G04 P0 ( dwell for no time -- G64 should not smooth over this point )
F600.00000
G01 X64.73934 Y8.13286
X64.76035 Y7.95400
X64.81808 Y7.78339
X64.91003 Y7.62852
X65.03215 Y7.49614
X65.16101 Y7.40251
X65.32466 Y7.32728
X65.50038 Y7.28770
X65.68041 Y7.28549
X65.85704 Y7.32083
X66.02245 Y7.39207
X66.16941 Y7.49614
X66.29156 Y7.62852
X66.39202 Y7.80249
X66.44559 Y7.97444
X66.46225 Y8.15377
X66.44124 Y8.33264
X66.38351 Y8.50325
X66.29156 Y8.65811
X66.16944 Y8.79050
X66.04059 Y8.88412
X65.87693 Y8.95935
X65.70122 Y8.99893
X65.52116 Y9.00111
X65.34455 Y8.96581
X65.17914 Y8.89456
X65.03218 Y8.79050
X64.91003 Y8.65811
X64.80957 Y8.48415
X64.75601 Y8.31219
X64.73934 Y8.13286
G04 P0 ( dwell for no time -- G64 should not smooth over this point )
G00 Z5.00000 ( retract )

G00 X64.60836 Y8.80523 ( rapid move to begin. )
F300.00000
G01 Z-0.05000
G04 P0 ( dwell for no time -- G64 should not smooth over this point )
F600.00000
G01 X64.60836 Y8.80523
X64.93866 Y9.13611
X65.04460 Y9.20678
X65.08303 Y9.27167
X65.09774 Y9.33975
X65.08290 Y9.43487
X65.04435 Y9.49977
X64.94054 Y9.56926
X64.60952 Y9.89969
X64.43101 Y10.32966
X64.43053 Y10.79491
X64.60833 Y11.22519
X64.93716 Y11.55463
X65.36713 Y11.73311
X65.83241 Y11.73362
X66.26266 Y11.55582
X66.59207 Y11.22699
X66.77058 Y10.79702
X66.77106 Y10.33174
X66.59329 Y9.90149
X66.26296 Y9.57055
X66.15702 Y9.49987
X66.11864 Y9.43512
X66.10386 Y9.36702
X66.11196 Y9.29202
X66.15722 Y9.20695
X66.26108 Y9.13738
X66.59207 Y8.80698
X66.77058 Y8.37703
X66.77106 Y7.91173
X66.59329 Y7.48148
X66.26446 Y7.15207
X65.83449 Y6.97356
X65.36921 Y6.97307
X64.93896 Y7.15085
X64.60952 Y7.47970
X64.43101 Y7.90965
X64.43053 Y8.37500
X64.60836 Y8.80523
G04 P0 ( dwell for no time -- G64 should not smooth over this point )
G00 Z5.00000 ( retract )

G00 X64.73934 Y10.55287 ( rapid move to begin. )
F300.00000
G01 Z-0.05000
G04 P0 ( dwell for no time -- G64 should not smooth over this point )
F600.00000
G01 X64.73934 Y10.55287
X64.76035 Y10.37401
X64.81808 Y10.20340
X64.91003 Y10.04853
X65.03215 Y9.91615
X65.16101 Y9.82252
X65.32466 Y9.74729
X65.50038 Y9.70771
X65.68041 Y9.70551
X65.85704 Y9.74084
X66.02245 Y9.81208
X66.16941 Y9.91615
X66.29156 Y10.04853
X66.39202 Y10.22250
X66.44559 Y10.39445
X66.46225 Y10.57378
X66.44124 Y10.75265
X66.38351 Y10.92326
X66.29156 Y11.07812
X66.16944 Y11.21051
X66.04059 Y11.30413
X65.87693 Y11.37937
X65.70122 Y11.41894
X65.52116 Y11.42112
X65.34455 Y11.38582
X65.17914 Y11.31457
X65.03218 Y11.21051
X64.91003 Y11.07812
X64.80957 Y10.90416
X64.75601 Y10.73220
X64.73934 Y10.55287
G04 P0 ( dwell for no time -- G64 should not smooth over this point )
G00 Z5.00000 ( retract )

G00 X69.60832 Y8.80520 ( rapid move to begin. )
F300.00000
G01 Z-0.05000
G04 P0 ( dwell for no time -- G64 should not smooth over this point )
F600.00000
G01 X69.60832 Y8.80520
X69.93717 Y9.13461
X70.36712 Y9.31313
X70.83240 Y9.31361
X71.26267 Y9.13581
X71.59209 Y8.80698
X71.77060 Y8.37703
X71.77108 Y7.91176
X71.59328 Y7.48148
X71.26445 Y7.15207
X70.83448 Y6.97356
X70.36920 Y6.97307
X69.93895 Y7.15085
X69.60954 Y7.47970
X69.43103 Y7.90965
X69.43055 Y8.37495
X69.60832 Y8.80520
G04 P0 ( dwell for no time -- G64 should not smooth over this point )
G00 Z5.00000 ( retract )

G00 X69.73933 Y8.13286 ( rapid move to begin. )
F300.00000
G01 Z-0.05000
G04 P0 ( dwell for no time -- G64 should not smooth over this point )
F600.00000
G01 X69.73933 Y8.13286
X69.76034 Y7.95400
X69.81807 Y7.78339
X69.91002 Y7.62852
X70.03214 Y7.49614
X70.16100 Y7.40251
X70.32465 Y7.32728
X70.50037 Y7.28770
X70.68040 Y7.28549
X70.85703 Y7.32083
X71.02244 Y7.39207
X71.16940 Y7.49614
X71.29155 Y7.62852
X71.39201 Y7.80249
X71.44558 Y7.97444
X71.46224 Y8.15377
X71.44123 Y8.33264
X71.38350 Y8.50325
X71.29155 Y8.65811
X71.16943 Y8.79050
X71.04058 Y8.88412
X70.87692 Y8.95935
X70.70121 Y8.99893
X70.52115 Y9.00111
X70.34454 Y8.96581
X70.17913 Y8.89456
X70.03217 Y8.79050
X69.91002 Y8.65811
X69.80956 Y8.48415
X69.75600 Y8.31219
X69.73933 Y8.13286
G04 P0 ( dwell for no time -- G64 should not smooth over this point )
G00 Z5.00000 ( retract )

G00 X70.88881 Y15.17791 ( rapid move to begin. )
F300.00000
G01 Z-0.05000
G04 P0 ( dwell for no time -- G64 should not smooth over this point )
F600.00000
G01 X70.88881 Y15.17791
X70.15282 Y15.17791
X69.67466 Y15.27301
X69.28828 Y15.53120
X69.03009 Y15.91758
X68.93939 Y16.37334
X69.03004 Y16.82904
X69.28823 Y17.21545
X69.69115 Y17.49469
X69.73789 Y17.58085
X69.74624 Y17.65715
X69.71922 Y17.75149
X69.67604 Y17.80775
X69.28828 Y18.07120
X69.03009 Y18.45758
X68.93939 Y18.91334
X69.03004 Y19.36904
X69.28823 Y19.75542
X69.67461 Y20.01361
X70.15254 Y20.10871
X70.44228 Y20.10871
X70.52523 Y20.12476
X70.58439 Y20.15910
X70.63374 Y20.21435
X70.66125 Y20.27699
X70.66849 Y20.35065
X70.64266 Y20.44181
X70.58193 Y20.51430
X70.52219 Y20.54790
X70.41510 Y20.57256
X70.02811 Y20.83116
X69.90304 Y21.00457
X69.83951 Y21.04407
X69.77223 Y21.06035
X69.65252 Y21.03756
X69.57761 Y20.97782
X69.54256 Y20.91821
X69.52757 Y20.84249
X69.46410 Y20.68925
X69.34934 Y20.57450
X69.19930 Y20.51232
X68.71058 Y20.51232
X68.68478 Y20.53812
X68.68478 Y20.82032
X69.14045 Y20.82283
X69.19638 Y20.85798
X69.21818 Y20.92032
X69.21569 Y23.22859
X69.19638 Y23.26867
X69.14045 Y23.30383
X68.68478 Y23.30632
X68.68478 Y23.58856
X68.71053 Y23.61432
X69.19938 Y23.61432
X69.34932 Y23.55224
X69.46405 Y23.43748
X69.52755 Y23.28424
X69.54256 Y23.20845
X69.57764 Y23.14884
X69.65254 Y23.08912
X69.74530 Y23.06568
X69.81955 Y23.07546
X69.88185 Y23.10558
X69.93557 Y23.15760
X70.02864 Y23.29588
X70.41505 Y23.55407
X70.87078 Y23.64475
X71.32650 Y23.55412
X71.71291 Y23.29590
X71.97108 Y22.90954
X72.06618 Y22.43159
X72.06618 Y21.69512
X71.97113 Y21.21719
X71.71296 Y20.83083
X71.32655 Y20.57262
X71.06100 Y20.51978
X70.98238 Y20.48765
X70.90448 Y20.40236
X70.87898 Y20.28387
X70.90438 Y20.19212
X70.98233 Y20.10668
X71.06097 Y20.07452
X71.36694 Y20.01366
X71.75332 Y19.75547
X72.01152 Y19.36909
X72.10222 Y18.91334
X72.01157 Y18.45763
X71.75338 Y18.07122
X71.35053 Y17.79205
X71.31070 Y17.72642
X71.29534 Y17.62952
X71.31073 Y17.56023
X71.36557 Y17.47892
X71.75332 Y17.21547
X72.01152 Y16.82909
X72.10222 Y16.37334
X72.01157 Y15.91763
X71.75338 Y15.53125
X71.36699 Y15.27306
X70.88881 Y15.17791
G04 P0 ( dwell for no time -- G64 should not smooth over this point )
G00 Z5.00000 ( retract )

G00 X70.88650 Y15.48644 ( rapid move to begin. )
F300.00000
G01 Z-0.05000
G04 P0 ( dwell for no time -- G64 should not smooth over this point )
F600.00000
G01 X70.88650 Y15.48644
X71.06483 Y15.50664
X71.21685 Y15.55434
X71.39135 Y15.65119
X71.52617 Y15.76965
X71.63438 Y15.91278
X71.70456 Y16.05581
X71.75152 Y16.22904
X71.76163 Y16.42835
X71.73242 Y16.60542
X71.66818 Y16.77298
X71.58393 Y16.90818
X71.46176 Y17.03965
X71.31566 Y17.14384
X71.13224 Y17.22256
X70.95658 Y17.25665
X70.16572 Y17.26071
X69.99658 Y17.24407
X69.80616 Y17.18433
X69.65026 Y17.09546
X69.51543 Y16.97699
X69.40723 Y16.83386
X69.33705 Y16.69084
X69.29008 Y16.51761
X69.27896 Y16.33851
X69.30410 Y16.16081
X69.36453 Y15.99183
X69.45767 Y15.83846
X69.59519 Y15.69381
X69.74365 Y15.59300
X69.90936 Y15.52409
X70.08503 Y15.49000
X70.88650 Y15.48644
G04 P0 ( dwell for no time -- G64 should not smooth over this point )
G00 Z5.00000 ( retract )

G00 X70.88650 Y18.02644 ( rapid move to begin. )
F300.00000
G01 Z-0.05000
G04 P0 ( dwell for no time -- G64 should not smooth over this point )
F600.00000
G01 X70.88650 Y18.02644
X71.06483 Y18.04664
X71.21685 Y18.09434
X71.39135 Y18.19119
X71.52617 Y18.30965
X71.63438 Y18.45278
X71.70456 Y18.59581
X71.75152 Y18.76904
X71.76163 Y18.96835
X71.73242 Y19.14542
X71.66818 Y19.31298
X71.58393 Y19.44818
X71.46176 Y19.57965
X71.31566 Y19.68384
X71.13224 Y19.76256
X70.95658 Y19.79665
X70.16572 Y19.80071
X69.99658 Y19.78407
X69.80616 Y19.72433
X69.65026 Y19.63546
X69.51543 Y19.51699
X69.40723 Y19.37386
X69.33705 Y19.23084
X69.29008 Y19.05761
X69.27896 Y18.87851
X69.30410 Y18.70081
X69.36453 Y18.53183
X69.45767 Y18.37846
X69.59519 Y18.23381
X69.74365 Y18.13300
X69.90936 Y18.06409
X70.08503 Y18.03000
X70.88650 Y18.02644
G04 P0 ( dwell for no time -- G64 should not smooth over this point )
G00 Z5.00000 ( retract )

G00 X69.98391 Y21.69761 ( rapid move to begin. )
F300.00000
G01 Z-0.05000
G04 P0 ( dwell for no time -- G64 should not smooth over this point )
F600.00000
G01 X69.98391 Y21.69761
X70.00410 Y21.51930
X70.05180 Y21.36728
X70.14865 Y21.19278
X70.26712 Y21.05796
X70.41025 Y20.94975
X70.55328 Y20.87957
X70.72650 Y20.83261
X70.92582 Y20.82250
X71.10288 Y20.85171
X71.27045 Y20.91595
X71.40565 Y21.00020
X71.53712 Y21.12237
X71.64131 Y21.26847
X71.72003 Y21.45189
X71.75411 Y21.62755
X71.75818 Y22.41841
X71.74154 Y22.58755
X71.68180 Y22.77797
X71.59292 Y22.93388
X71.47446 Y23.06870
X71.33133 Y23.17690
X71.18830 Y23.24708
X71.01507 Y23.29405
X70.83598 Y23.30517
X70.65828 Y23.28003
X70.48929 Y23.21960
X70.33593 Y23.12646
X70.19128 Y22.98894
X70.09046 Y22.84048
X70.02155 Y22.67477
X69.98747 Y22.49910
X69.98391 Y21.69761
G04 P0 ( dwell for no time -- G64 should not smooth over this point )
G00 Z5.00000 ( retract )

G00 X67.97678 Y20.82032 ( rapid move to begin. )
F300.00000
G01 Z-0.05000
G04 P0 ( dwell for no time -- G64 should not smooth over this point )
F600.00000
G01 X67.97678 Y20.82032
X67.97678 Y20.53807
X67.95102 Y20.51232
X67.46235 Y20.51232
X67.31229 Y20.57444
X67.14551 Y20.74996
X67.08181 Y20.78849
X66.96695 Y20.80246
X66.87744 Y20.76990
X66.82176 Y20.72055
X66.78707 Y20.66111
X66.77106 Y20.49174
X66.59329 Y20.06149
X66.26446 Y19.73205
X65.83449 Y19.55357
X65.36921 Y19.55306
X64.93896 Y19.73086
X64.60952 Y20.05969
X64.43101 Y20.48963
X64.42743 Y20.58981
X64.40500 Y20.65649
X64.34275 Y20.73098
X64.25502 Y20.77262
X64.17917 Y20.77709
X64.11143 Y20.75870
X63.82657 Y20.57262
X63.37084 Y20.48194
X62.91512 Y20.57256
X62.52870 Y20.83078
X62.43559 Y20.96908
X62.38179 Y21.02115
X62.29332 Y21.05758
X62.22411 Y21.05928
X62.13389 Y21.02720
X62.07763 Y20.97782
X62.04257 Y20.91821
X62.02759 Y20.84249
X61.96411 Y20.68923
X61.84938 Y20.57450
X61.69929 Y20.51232
X61.21060 Y20.51232
X61.18479 Y20.53812
X61.18479 Y20.82032
X61.64047 Y20.82283
X61.69640 Y20.85798
X61.71570 Y20.89807
X61.71819 Y23.20632
X61.69640 Y23.26867
X61.64047 Y23.30383
X61.18479 Y23.30632
X61.18479 Y23.58856
X61.21055 Y23.61432
X61.69937 Y23.61432
X61.84936 Y23.55221
X61.96406 Y23.43751
X62.02756 Y23.28424
X62.04257 Y23.20845
X62.07765 Y23.14884
X62.15256 Y23.08912
X62.24532 Y23.06568
X62.31956 Y23.07546
X62.38187 Y23.10558
X62.43559 Y23.15760
X62.52865 Y23.29585
X62.91506 Y23.55407
X63.37079 Y23.64475
X63.82652 Y23.55412
X64.21290 Y23.29593
X64.47109 Y22.90954
X64.56619 Y22.43159
X64.56970 Y21.85394
X64.60559 Y21.76451
X64.67544 Y21.69804
X64.76665 Y21.66659
X64.86266 Y21.67592
X65.36713 Y21.89311
X65.83241 Y21.89362
X66.26266 Y21.71582
X66.59212 Y21.38694
X66.69878 Y21.13012
X66.74564 Y21.05941
X66.82468 Y21.00650
X66.91841 Y20.99070
X66.98592 Y21.00414
X67.05064 Y21.04066
X67.09697 Y21.09136
X67.12758 Y21.15930
X67.13538 Y21.68356
X67.16113 Y21.70932
X67.44338 Y21.70932
X67.45328 Y20.87693
X67.49999 Y20.83022
X67.54338 Y20.82032
X67.97678 Y20.82032
G04 P0 ( dwell for no time -- G64 should not smooth over this point )
G00 Z5.00000 ( retract )

G00 X67.97678 Y23.58861 ( rapid move to begin. )
F300.00000
G01 Z-0.05000
G04 P0 ( dwell for no time -- G64 should not smooth over this point )
F600.00000
G01 X67.97678 Y23.58861
X67.97678 Y23.30632
X67.54338 Y23.30632
X67.46519 Y23.26867
X67.44338 Y23.20632
X67.44338 Y22.41732
X67.16118 Y22.41732
X67.13538 Y22.44312
X67.13538 Y23.28739
X67.19750 Y23.43746
X67.31224 Y23.55219
X67.46217 Y23.61432
X67.95107 Y23.61432
X67.97678 Y23.58861
G04 P0 ( dwell for no time -- G64 should not smooth over this point )
G00 Z5.00000 ( retract )

G00 X64.73934 Y20.71287 ( rapid move to begin. )
F300.00000
G01 Z-0.05000
G04 P0 ( dwell for no time -- G64 should not smooth over this point )
F600.00000
G01 X64.73934 Y20.71287
X64.76035 Y20.53401
X64.81808 Y20.36340
X64.91003 Y20.20853
X65.03215 Y20.07615
X65.16101 Y19.98252
X65.32466 Y19.90729
X65.50038 Y19.86771
X65.68041 Y19.86551
X65.85704 Y19.90084
X66.02245 Y19.97208
X66.16941 Y20.07615
X66.29156 Y20.20853
X66.39202 Y20.38250
X66.44559 Y20.55445
X66.46225 Y20.73378
X66.44124 Y20.91265
X66.38351 Y21.08326
X66.29156 Y21.23812
X66.16944 Y21.37051
X66.04059 Y21.46413
X65.87693 Y21.53937
X65.70122 Y21.57894
X65.52116 Y21.58112
X65.34455 Y21.54582
X65.17914 Y21.47457
X65.03218 Y21.37051
X64.91003 Y21.23812
X64.80957 Y21.06416
X64.75601 Y20.89220
X64.73934 Y20.71287
G04 P0 ( dwell for no time -- G64 should not smooth over this point )
G00 Z5.00000 ( retract )

G00 X62.48392 Y21.69761 ( rapid move to begin. )
F300.00000
G01 Z-0.05000
G04 P0 ( dwell for no time -- G64 should not smooth over this point )
F600.00000
G01 X62.48392 Y21.69761
X62.50412 Y21.51930
X62.55182 Y21.36728
X62.64867 Y21.19278
X62.76713 Y21.05796
X62.91026 Y20.94975
X63.05329 Y20.87957
X63.22652 Y20.83261
X63.42583 Y20.82250
X63.60290 Y20.85171
X63.77046 Y20.91595
X63.90566 Y21.00020
X64.03713 Y21.12237
X64.14133 Y21.26847
X64.22004 Y21.45189
X64.25413 Y21.62755
X64.25819 Y22.41841
X64.24155 Y22.58755
X64.18181 Y22.77797
X64.09294 Y22.93388
X63.97447 Y23.06870
X63.83134 Y23.17690
X63.68832 Y23.24708
X63.51509 Y23.29405
X63.33599 Y23.30517
X63.15829 Y23.28003
X62.98931 Y23.21960
X62.83594 Y23.12646
X62.69129 Y22.98894
X62.59048 Y22.84048
X62.52157 Y22.67477
X62.48748 Y22.49910
X62.48392 Y21.69761
G04 P0 ( dwell for no time -- G64 should not smooth over this point )
G00 Z5.00000 ( retract )

G00 X59.94339 Y22.41732 ( rapid move to begin. )
F300.00000
G01 Z-0.05000
G04 P0 ( dwell for no time -- G64 should not smooth over this point )
F600.00000
G01 X59.94339 Y22.41732
X59.66120 Y22.41732
X59.63539 Y22.44312
X59.63539 Y23.28739
X59.69752 Y23.43743
X59.81228 Y23.55219
X59.96219 Y23.61432
X60.45109 Y23.61432
X60.47679 Y23.58861
X60.47679 Y23.30632
X60.04339 Y23.30632
X60.00001 Y23.29644
X59.95330 Y23.24972
X59.94339 Y22.41732
G04 P0 ( dwell for no time -- G64 should not smooth over this point )
G00 Z5.00000 ( retract )

G00 X59.63539 Y20.83924 ( rapid move to begin. )
F300.00000
G01 Z-0.05000
G04 P0 ( dwell for no time -- G64 should not smooth over this point )
F600.00000
G01 X59.63539 Y20.83924
X59.63539 Y21.68356
X59.66115 Y21.70932
X59.94339 Y21.70932
X59.95330 Y20.87693
X60.00001 Y20.83022
X60.04339 Y20.82032
X60.47679 Y20.82032
X60.47679 Y20.53807
X60.45104 Y20.51232
X59.96234 Y20.51232
X59.81230 Y20.57444
X59.69757 Y20.68920
X59.63539 Y20.83924
G04 P0 ( dwell for no time -- G64 should not smooth over this point )
G00 Z5.00000 ( retract )

G00 X55.86408 Y21.11854 ( rapid move to begin. )
F300.00000
G01 Z-0.05000
G04 P0 ( dwell for no time -- G64 should not smooth over this point )
F600.00000
G01 X55.86408 Y21.11854
X55.77391 Y20.97838
X55.63763 Y20.88529
X55.45298 Y20.84788
X53.74711 Y20.84788
X53.57602 Y20.88003
X53.43591 Y20.97020
X53.34274 Y21.10657
X53.30533 Y21.29118
X53.30533 Y22.99697
X53.33754 Y23.16814
X53.42771 Y23.30830
X53.56398 Y23.40139
X53.74841 Y23.43875
X55.45475 Y23.43875
X55.62559 Y23.40662
X55.76570 Y23.31648
X55.85887 Y23.18010
X55.89623 Y22.99572
X55.89623 Y21.28943
X55.86408 Y21.11854
G04 P0 ( dwell for no time -- G64 should not smooth over this point )
G00 Z5.00000 ( retract )

G00 X55.57576 Y21.26835 ( rapid move to begin. )
F300.00000
G01 Z-0.05000
G04 P0 ( dwell for no time -- G64 should not smooth over this point )
F600.00000
G01 X55.57576 Y21.26835
X55.57576 Y23.01831
X55.53812 Y23.09651
X55.47576 Y23.11831
X53.72580 Y23.11831
X53.64762 Y23.08066
X53.62580 Y23.01831
X53.62580 Y21.26835
X53.66347 Y21.19017
X53.72580 Y21.16835
X55.47576 Y21.16835
X55.53812 Y21.19017
X55.57576 Y21.26835
G04 P0 ( dwell for no time -- G64 should not smooth over this point )
G00 Z5.00000 ( retract )

G00 X48.87504 Y21.05501 ( rapid move to begin. )
F300.00000
G01 Z-0.05000
G04 P0 ( dwell for no time -- G64 should not smooth over this point )
F600.00000
G01 X48.87504 Y21.05501
X48.51375 Y21.41567
X48.31804 Y21.88699
X48.31753 Y22.39730
X48.51248 Y22.86913
X48.87308 Y23.23034
X49.34456 Y23.42610
X49.85477 Y23.42664
X50.32660 Y23.23167
X50.68783 Y22.87109
X50.88357 Y22.39959
X50.88410 Y21.88938
X50.68913 Y21.41755
X50.32855 Y21.05633
X49.85708 Y20.86058
X49.34684 Y20.86004
X48.87504 Y21.05501
G04 P0 ( dwell for no time -- G64 should not smooth over this point )
G00 Z5.00000 ( retract )

G00 X48.62637 Y22.13289 ( rapid move to begin. )
F300.00000
G01 Z-0.05000
G04 P0 ( dwell for no time -- G64 should not smooth over this point )
F600.00000
G01 X48.62637 Y22.13289
X48.64984 Y21.93053
X48.71486 Y21.73746
X48.81862 Y21.56212
X48.95655 Y21.41219
X49.12264 Y21.29423
X49.30963 Y21.21336
X49.50935 Y21.17315
X49.69223 Y21.17315
X49.89198 Y21.21336
X50.07897 Y21.29423
X50.26058 Y21.42618
X50.39528 Y21.57904
X50.49525 Y21.75656
X50.55611 Y21.95097
X50.57524 Y22.15379
X50.55177 Y22.35615
X50.48674 Y22.54922
X50.38298 Y22.72455
X50.24506 Y22.87449
X50.07897 Y22.99245
X49.89198 Y23.07332
X49.71303 Y23.11135
X49.50935 Y23.11350
X49.28974 Y23.06684
X49.10453 Y22.98201
X48.94103 Y22.86050
X48.80633 Y22.70764
X48.70636 Y22.53012
X48.64550 Y22.33571
X48.62637 Y22.13289
G04 P0 ( dwell for no time -- G64 should not smooth over this point )
G00 Z5.00000 ( retract )

G00 X45.32854 Y21.05633 ( rapid move to begin. )
F300.00000
G01 Z-0.05000
G04 P0 ( dwell for no time -- G64 should not smooth over this point )
F600.00000
G01 X45.32854 Y21.05633
X44.85706 Y20.86058
X44.34685 Y20.86004
X43.87502 Y21.05501
X43.51378 Y21.41562
X43.31805 Y21.88709
X43.31752 Y22.39733
X43.51244 Y22.86911
X43.87307 Y23.23034
X44.34454 Y23.42610
X44.85475 Y23.42664
X45.32658 Y23.23167
X45.68782 Y22.87109
X45.88358 Y22.39959
X45.88408 Y21.88938
X45.68914 Y21.41755
X45.32854 Y21.05633
G04 P0 ( dwell for no time -- G64 should not smooth over this point )
G00 Z5.00000 ( retract )

G00 X43.62636 Y22.13289 ( rapid move to begin. )
F300.00000
G01 Z-0.05000
G04 P0 ( dwell for no time -- G64 should not smooth over this point )
F600.00000
G01 X43.62636 Y22.13289
X43.64982 Y21.93053
X43.71485 Y21.73746
X43.81861 Y21.56212
X43.95653 Y21.41219
X44.12262 Y21.29423
X44.30962 Y21.21336
X44.50934 Y21.17315
X44.69222 Y21.17315
X44.89196 Y21.21336
X45.07896 Y21.29423
X45.26057 Y21.42618
X45.39526 Y21.57904
X45.49524 Y21.75656
X45.55609 Y21.95097
X45.57522 Y22.15379
X45.55175 Y22.35615
X45.48673 Y22.54922
X45.38297 Y22.72455
X45.24505 Y22.87449
X45.07896 Y22.99245
X44.89196 Y23.07332
X44.71302 Y23.11135
X44.50934 Y23.11350
X44.28973 Y23.06684
X44.10451 Y22.98201
X43.94101 Y22.86050
X43.80631 Y22.70764
X43.70634 Y22.53012
X43.64548 Y22.33571
X43.62636 Y22.13289
G04 P0 ( dwell for no time -- G64 should not smooth over this point )
G00 Z5.00000 ( retract )

G00 X45.32854 Y30.55631 ( rapid move to begin. )
F300.00000
G01 Z-0.05000
G04 P0 ( dwell for no time -- G64 should not smooth over this point )
F600.00000
G01 X45.32854 Y30.55631
X44.85706 Y30.36058
X44.34685 Y30.36005
X43.87502 Y30.55502
X43.51378 Y30.91560
X43.31805 Y31.38707
X43.31752 Y31.89731
X43.51249 Y32.36911
X43.87307 Y32.73035
X44.34454 Y32.92611
X44.85475 Y32.92662
X45.32658 Y32.73167
X45.68782 Y32.37107
X45.88358 Y31.89959
X45.88408 Y31.38938
X45.68914 Y30.91755
X45.32854 Y30.55631
G04 P0 ( dwell for no time -- G64 should not smooth over this point )
G00 Z5.00000 ( retract )

G00 X43.62636 Y31.63287 ( rapid move to begin. )
F300.00000
G01 Z-0.05000
G04 P0 ( dwell for no time -- G64 should not smooth over this point )
F600.00000
G01 X43.62636 Y31.63287
X43.64982 Y31.43051
X43.71485 Y31.23744
X43.81861 Y31.06210
X43.95653 Y30.91217
X44.12262 Y30.79421
X44.30962 Y30.71334
X44.50934 Y30.67313
X44.69222 Y30.67313
X44.89196 Y30.71334
X45.07896 Y30.79421
X45.26057 Y30.92616
X45.39526 Y31.07902
X45.49524 Y31.25654
X45.55609 Y31.45095
X45.57522 Y31.65377
X45.55175 Y31.85613
X45.48673 Y32.04920
X45.38297 Y32.22454
X45.24505 Y32.37447
X45.07896 Y32.49243
X44.89196 Y32.57330
X44.71302 Y32.61133
X44.50934 Y32.61349
X44.28973 Y32.56683
X44.10451 Y32.48199
X43.94101 Y32.36048
X43.80631 Y32.20762
X43.70634 Y32.03010
X43.64548 Y31.83569
X43.62636 Y31.63287
G04 P0 ( dwell for no time -- G64 should not smooth over this point )
G00 Z5.00000 ( retract )

G00 X48.62637 Y31.63287 ( rapid move to begin. )
F300.00000
G01 Z-0.05000
G04 P0 ( dwell for no time -- G64 should not smooth over this point )
F600.00000
G01 X48.62637 Y31.63287
X48.64984 Y31.43051
X48.71486 Y31.23744
X48.81862 Y31.06210
X48.95655 Y30.91217
X49.12264 Y30.79421
X49.30963 Y30.71334
X49.50935 Y30.67313
X49.69223 Y30.67313
X49.89198 Y30.71334
X50.07897 Y30.79421
X50.26058 Y30.92616
X50.39528 Y31.07902
X50.49525 Y31.25654
X50.55611 Y31.45095
X50.57524 Y31.65377
X50.55177 Y31.85613
X50.48674 Y32.04920
X50.38298 Y32.22454
X50.24506 Y32.37447
X50.07897 Y32.49243
X49.89198 Y32.57330
X49.71303 Y32.61133
X49.50935 Y32.61349
X49.28974 Y32.56683
X49.10453 Y32.48199
X48.94103 Y32.36048
X48.80633 Y32.20762
X48.70636 Y32.03010
X48.64550 Y31.83569
X48.62637 Y31.63287
G04 P0 ( dwell for no time -- G64 should not smooth over this point )
G00 Z5.00000 ( retract )

G00 X50.88410 Y31.38938 ( rapid move to begin. )
F300.00000
G01 Z-0.05000
G04 P0 ( dwell for no time -- G64 should not smooth over this point )
F600.00000
G01 X50.88410 Y31.38938
X50.68913 Y30.91755
X50.32855 Y30.55631
X49.85708 Y30.36058
X49.34684 Y30.36005
X48.87504 Y30.55502
X48.51375 Y30.91565
X48.31804 Y31.38697
X48.31753 Y31.89731
X48.51248 Y32.36911
X48.87308 Y32.73035
X49.34456 Y32.92611
X49.85477 Y32.92662
X50.32660 Y32.73167
X50.68783 Y32.37107
X50.88357 Y31.89959
X50.88410 Y31.38938
G04 P0 ( dwell for no time -- G64 should not smooth over this point )
G00 Z5.00000 ( retract )

G00 X51.28923 Y35.97307 ( rapid move to begin. )
F300.00000
G01 Z-0.05000
G04 P0 ( dwell for no time -- G64 should not smooth over this point )
F600.00000
G01 X51.28923 Y35.97307
X50.85895 Y36.15087
X50.52954 Y36.47970
X50.35103 Y36.90967
X50.35055 Y37.37494
X50.52832 Y37.80519
X50.85718 Y38.13461
X51.28712 Y38.31312
X51.75240 Y38.31360
X52.18265 Y38.13583
X52.51209 Y37.80697
X52.69060 Y37.37703
X52.69108 Y36.91175
X52.51328 Y36.48147
X52.18445 Y36.15206
X51.75448 Y35.97355
X51.28923 Y35.97307
G04 P0 ( dwell for no time -- G64 should not smooth over this point )
G00 Z5.00000 ( retract )

G00 X50.65934 Y37.13288 ( rapid move to begin. )
F300.00000
G01 Z-0.05000
G04 P0 ( dwell for no time -- G64 should not smooth over this point )
F600.00000
G01 X50.65934 Y37.13288
X50.68034 Y36.95402
X50.73808 Y36.78340
X50.83002 Y36.62854
X50.95215 Y36.49616
X51.08100 Y36.40253
X51.24465 Y36.32730
X51.42037 Y36.28772
X51.60041 Y36.28551
X51.77704 Y36.32084
X51.94244 Y36.39209
X52.08941 Y36.49616
X52.21156 Y36.62854
X52.31201 Y36.80250
X52.36558 Y36.97446
X52.38224 Y37.15379
X52.36124 Y37.33265
X52.30350 Y37.50327
X52.21156 Y37.65813
X52.08943 Y37.79051
X51.96058 Y37.88414
X51.79693 Y37.95937
X51.62121 Y37.99895
X51.44115 Y38.00113
X51.26454 Y37.96582
X51.09914 Y37.89458
X50.95217 Y37.79051
X50.83002 Y37.65813
X50.72957 Y37.48416
X50.67600 Y37.31221
X50.65934 Y37.13288
G04 P0 ( dwell for no time -- G64 should not smooth over this point )
G00 Z5.00000 ( retract )

G00 X55.45475 Y32.93876 ( rapid move to begin. )
F300.00000
G01 Z-0.05000
G04 P0 ( dwell for no time -- G64 should not smooth over this point )
F600.00000
G01 X55.45475 Y32.93876
X55.62557 Y32.90665
X55.76570 Y32.81646
X55.85887 Y32.68011
X55.89623 Y32.49573
X55.89623 Y30.78944
X55.86408 Y30.61854
X55.77391 Y30.47839
X55.63763 Y30.38530
X55.45298 Y30.34788
X53.74711 Y30.34788
X53.57602 Y30.38004
X53.43591 Y30.47021
X53.34274 Y30.60658
X53.30533 Y30.79119
X53.30533 Y32.49698
X53.33754 Y32.66812
X53.42768 Y32.80823
X53.56405 Y32.90142
X53.74838 Y32.93876
X55.45475 Y32.93876
G04 P0 ( dwell for no time -- G64 should not smooth over this point )
G00 Z5.00000 ( retract )

G00 X55.57576 Y30.76833 ( rapid move to begin. )
F300.00000
G01 Z-0.05000
G04 P0 ( dwell for no time -- G64 should not smooth over this point )
F600.00000
G01 X55.57576 Y30.76833
X55.57576 Y32.51829
X55.53812 Y32.59649
X55.47576 Y32.61829
X53.72580 Y32.61829
X53.64762 Y32.58064
X53.62580 Y32.51829
X53.62580 Y30.76833
X53.66347 Y30.69015
X53.72580 Y30.66833
X55.47576 Y30.66833
X55.53812 Y30.69015
X55.57576 Y30.76833
G04 P0 ( dwell for no time -- G64 should not smooth over this point )
G00 Z5.00000 ( retract )

G00 X59.94392 Y31.85761 ( rapid move to begin. )
F300.00000
G01 Z-0.05000
G04 P0 ( dwell for no time -- G64 should not smooth over this point )
F600.00000
G01 X59.94392 Y31.85761
X59.96412 Y31.67930
X60.01182 Y31.52728
X60.10867 Y31.35278
X60.22713 Y31.21796
X60.37026 Y31.10975
X60.51329 Y31.03957
X60.68652 Y30.99261
X60.88583 Y30.98250
X61.06290 Y31.01171
X61.23046 Y31.07595
X61.36566 Y31.16020
X61.49713 Y31.28237
X61.60133 Y31.42847
X61.68004 Y31.61189
X61.71413 Y31.78755
X61.71819 Y32.57841
X61.70155 Y32.74755
X61.64181 Y32.93797
X61.55294 Y33.09388
X61.43447 Y33.22870
X61.29134 Y33.33690
X61.14832 Y33.40708
X60.97509 Y33.45405
X60.79599 Y33.46517
X60.61829 Y33.44003
X60.44931 Y33.37960
X60.29594 Y33.28646
X60.15129 Y33.14894
X60.05048 Y33.00048
X59.98157 Y32.83477
X59.94748 Y32.65910
X59.94392 Y31.85761
G04 P0 ( dwell for no time -- G64 should not smooth over this point )
G00 Z5.00000 ( retract )

G00 X59.73046 Y33.06947 ( rapid move to begin. )
F300.00000
G01 Z-0.05000
G04 P0 ( dwell for no time -- G64 should not smooth over this point )
F600.00000
G01 X59.73046 Y33.06947
X59.98865 Y33.45588
X60.37506 Y33.71407
X60.83079 Y33.80475
X61.28652 Y33.71412
X61.67293 Y33.45593
X61.93640 Y33.06812
X61.99266 Y33.02494
X62.08697 Y32.99789
X62.18390 Y33.01326
X62.24953 Y33.05308
X62.52865 Y33.45585
X62.91506 Y33.71407
X63.37079 Y33.80475
X63.82652 Y33.71412
X64.21290 Y33.45593
X64.47109 Y33.06954
X64.56619 Y32.59159
X64.56619 Y31.85512
X64.47114 Y31.37719
X64.21295 Y30.99081
X63.82657 Y30.73262
X63.37084 Y30.64194
X62.91512 Y30.73256
X62.52870 Y30.99078
X62.26523 Y31.37856
X62.20897 Y31.42174
X62.11463 Y31.44877
X62.03831 Y31.44041
X61.95212 Y31.39360
X61.67295 Y30.99081
X61.28657 Y30.73262
X60.83084 Y30.64194
X60.37512 Y30.73256
X59.98870 Y30.99076
X59.73051 Y31.37717
X59.63539 Y31.85532
X59.63539 Y32.59131
X59.73046 Y33.06947
G04 P0 ( dwell for no time -- G64 should not smooth over this point )
G00 Z5.00000 ( retract )

G00 X62.48392 Y31.85761 ( rapid move to begin. )
F300.00000
G01 Z-0.05000
G04 P0 ( dwell for no time -- G64 should not smooth over this point )
F600.00000
G01 X62.48392 Y31.85761
X62.50412 Y31.67930
X62.55182 Y31.52728
X62.64867 Y31.35278
X62.76713 Y31.21796
X62.91026 Y31.10975
X63.05329 Y31.03957
X63.22652 Y30.99261
X63.42583 Y30.98250
X63.60290 Y31.01171
X63.77046 Y31.07595
X63.90566 Y31.16020
X64.03713 Y31.28237
X64.14133 Y31.42847
X64.22004 Y31.61189
X64.25413 Y31.78755
X64.25819 Y32.57841
X64.24155 Y32.74755
X64.18181 Y32.93797
X64.09294 Y33.09388
X63.97447 Y33.22870
X63.83134 Y33.33690
X63.68832 Y33.40708
X63.51509 Y33.45405
X63.33599 Y33.46517
X63.15829 Y33.44003
X62.98931 Y33.37960
X62.83594 Y33.28646
X62.69129 Y33.14894
X62.59048 Y33.00048
X62.52157 Y32.83477
X62.48748 Y32.65910
X62.48392 Y31.85761
G04 P0 ( dwell for no time -- G64 should not smooth over this point )
G00 Z5.00000 ( retract )

G00 X62.34445 Y36.15206 ( rapid move to begin. )
F300.00000
G01 Z-0.05000
G04 P0 ( dwell for no time -- G64 should not smooth over this point )
F600.00000
G01 X62.34445 Y36.15206
X61.91448 Y35.97355
X61.44923 Y35.97307
X61.01895 Y36.15087
X60.68954 Y36.47970
X60.51103 Y36.90964
X60.51055 Y37.37494
X60.68832 Y37.80519
X61.01718 Y38.13461
X61.44712 Y38.31312
X61.91240 Y38.31360
X62.34265 Y38.13583
X62.67209 Y37.80697
X62.85060 Y37.37703
X62.85108 Y36.91175
X62.67328 Y36.48147
X62.34445 Y36.15206
G04 P0 ( dwell for no time -- G64 should not smooth over this point )
G00 Z5.00000 ( retract )

G00 X60.81934 Y37.13288 ( rapid move to begin. )
F300.00000
G01 Z-0.05000
G04 P0 ( dwell for no time -- G64 should not smooth over this point )
F600.00000
G01 X60.81934 Y37.13288
X60.84034 Y36.95402
X60.89808 Y36.78340
X60.99002 Y36.62854
X61.11215 Y36.49616
X61.24100 Y36.40253
X61.40465 Y36.32730
X61.58037 Y36.28772
X61.76041 Y36.28551
X61.93704 Y36.32084
X62.10244 Y36.39209
X62.24941 Y36.49616
X62.37156 Y36.62854
X62.47201 Y36.80250
X62.52558 Y36.97446
X62.54224 Y37.15379
X62.52124 Y37.33265
X62.46350 Y37.50327
X62.37156 Y37.65813
X62.24943 Y37.79051
X62.12058 Y37.88414
X61.95693 Y37.95937
X61.78121 Y37.99895
X61.60115 Y38.00113
X61.42454 Y37.96582
X61.25914 Y37.89458
X61.11217 Y37.79051
X60.99002 Y37.65813
X60.88957 Y37.48416
X60.83600 Y37.31221
X60.81934 Y37.13288
G04 P0 ( dwell for no time -- G64 should not smooth over this point )
G00 Z5.00000 ( retract )

G00 X63.02954 Y38.97969 ( rapid move to begin. )
F300.00000
G01 Z-0.05000
G04 P0 ( dwell for no time -- G64 should not smooth over this point )
F600.00000
G01 X63.02954 Y38.97969
X62.85103 Y39.40966
X62.85055 Y39.87494
X63.02832 Y40.30519
X63.35718 Y40.63460
X63.78712 Y40.81311
X64.25240 Y40.81360
X64.68265 Y40.63582
X65.01209 Y40.30699
X65.19060 Y39.87702
X65.19108 Y39.41177
X65.01328 Y38.98149
X64.68445 Y38.65206
X64.25448 Y38.47355
X63.78923 Y38.47306
X63.35895 Y38.65086
X63.02954 Y38.97969
G04 P0 ( dwell for no time -- G64 should not smooth over this point )
G00 Z5.00000 ( retract )

G00 X63.15934 Y39.63288 ( rapid move to begin. )
F300.00000
G01 Z-0.05000
G04 P0 ( dwell for no time -- G64 should not smooth over this point )
F600.00000
G01 X63.15934 Y39.63288
X63.18034 Y39.45401
X63.23808 Y39.28340
X63.33002 Y39.12853
X63.45215 Y38.99615
X63.58100 Y38.90253
X63.74465 Y38.82729
X63.92037 Y38.78772
X64.10041 Y38.78551
X64.27704 Y38.82084
X64.44244 Y38.89209
X64.58941 Y38.99615
X64.71156 Y39.12853
X64.81201 Y39.30250
X64.86558 Y39.47446
X64.88224 Y39.65378
X64.86124 Y39.83265
X64.80350 Y40.00326
X64.71156 Y40.15812
X64.58943 Y40.29051
X64.46058 Y40.38413
X64.29693 Y40.45937
X64.12121 Y40.49894
X63.94115 Y40.50113
X63.76454 Y40.46582
X63.59914 Y40.39457
X63.45217 Y40.29051
X63.33002 Y40.15812
X63.22957 Y39.98416
X63.17600 Y39.81220
X63.15934 Y39.63288
G04 P0 ( dwell for no time -- G64 should not smooth over this point )
G00 Z5.00000 ( retract )

G00 X67.44391 Y31.85761 ( rapid move to begin. )
F300.00000
G01 Z-0.05000
G04 P0 ( dwell for no time -- G64 should not smooth over this point )
F600.00000
G01 X67.44391 Y31.85761
X67.46410 Y31.67930
X67.51180 Y31.52728
X67.60865 Y31.35278
X67.72712 Y31.21796
X67.87025 Y31.10975
X68.01328 Y31.03957
X68.18650 Y30.99261
X68.38582 Y30.98250
X68.56288 Y31.01171
X68.73045 Y31.07595
X68.86565 Y31.16020
X68.99712 Y31.28237
X69.10131 Y31.42847
X69.18003 Y31.61189
X69.21411 Y31.78755
X69.21818 Y32.57841
X69.20154 Y32.74755
X69.14180 Y32.93797
X69.05292 Y33.09388
X68.93446 Y33.22870
X68.79133 Y33.33690
X68.64830 Y33.40708
X68.47507 Y33.45405
X68.29598 Y33.46517
X68.11828 Y33.44003
X67.94929 Y33.37960
X67.79593 Y33.28646
X67.65128 Y33.14894
X67.55046 Y33.00048
X67.48155 Y32.83477
X67.44747 Y32.65910
X67.44391 Y31.85761
G04 P0 ( dwell for no time -- G64 should not smooth over this point )
G00 Z5.00000 ( retract )

G00 X68.33083 Y30.64194 ( rapid move to begin. )
F300.00000
G01 Z-0.05000
G04 P0 ( dwell for no time -- G64 should not smooth over this point )
F600.00000
G01 X68.33083 Y30.64194
X67.87510 Y30.73256
X67.48872 Y30.99076
X67.23052 Y31.37714
X67.13538 Y31.85535
X67.13538 Y32.59131
X67.23047 Y33.06949
X67.48866 Y33.45588
X67.87505 Y33.71407
X68.33078 Y33.80475
X68.78650 Y33.71412
X69.17291 Y33.45590
X69.45206 Y33.05311
X69.51772 Y33.01326
X69.61462 Y32.99789
X69.70895 Y33.02494
X69.76529 Y33.06820
X70.02866 Y33.45588
X70.41505 Y33.71407
X70.87078 Y33.80475
X71.32650 Y33.71412
X71.71291 Y33.45590
X71.97108 Y33.06954
X72.06618 Y32.59159
X72.06618 Y31.85512
X71.97113 Y31.37719
X71.71296 Y30.99083
X71.32655 Y30.73262
X70.87083 Y30.64194
X70.41510 Y30.73256
X70.02869 Y30.99076
X69.74954 Y31.39357
X69.66331 Y31.44041
X69.58696 Y31.44877
X69.51769 Y31.43340
X69.43639 Y31.37856
X69.17296 Y30.99083
X68.78655 Y30.73262
X68.33083 Y30.64194
G04 P0 ( dwell for no time -- G64 should not smooth over this point )
G00 Z5.00000 ( retract )

G00 X69.98391 Y31.85761 ( rapid move to begin. )
F300.00000
G01 Z-0.05000
G04 P0 ( dwell for no time -- G64 should not smooth over this point )
F600.00000
G01 X69.98391 Y31.85761
X70.00410 Y31.67930
X70.05180 Y31.52728
X70.14865 Y31.35278
X70.26712 Y31.21796
X70.41025 Y31.10975
X70.55328 Y31.03957
X70.72650 Y30.99261
X70.92582 Y30.98250
X71.10288 Y31.01171
X71.27045 Y31.07595
X71.40565 Y31.16020
X71.53712 Y31.28237
X71.64131 Y31.42847
X71.72003 Y31.61189
X71.75411 Y31.78755
X71.75818 Y32.57841
X71.74154 Y32.74755
X71.68180 Y32.93797
X71.59292 Y33.09388
X71.47446 Y33.22870
X71.33133 Y33.33690
X71.18830 Y33.40708
X71.01507 Y33.45405
X70.83598 Y33.46517
X70.65828 Y33.44003
X70.48929 Y33.37960
X70.33593 Y33.28646
X70.19128 Y33.14894
X70.09046 Y33.00048
X70.02155 Y32.83477
X69.98747 Y32.65910
X69.98391 Y31.85761
G04 P0 ( dwell for no time -- G64 should not smooth over this point )
G00 Z5.00000 ( retract )

G00 X73.60834 Y32.88519 ( rapid move to begin. )
F300.00000
G01 Z-0.05000
G04 P0 ( dwell for no time -- G64 should not smooth over this point )
F600.00000
G01 X73.60834 Y32.88519
X73.93717 Y33.21460
X74.36711 Y33.39311
X74.83241 Y33.39360
X75.26266 Y33.21582
X75.59208 Y32.88699
X75.77059 Y32.45702
X75.77107 Y31.99174
X75.59330 Y31.56149
X75.26444 Y31.23206
X74.83450 Y31.05354
X74.36922 Y31.05306
X73.93894 Y31.23086
X73.60953 Y31.55969
X73.43102 Y31.98966
X73.43054 Y32.45499
X73.60834 Y32.88519
G04 P0 ( dwell for no time -- G64 should not smooth over this point )
G00 Z5.00000 ( retract )

G00 X73.73935 Y32.21288 ( rapid move to begin. )
F300.00000
G01 Z-0.05000
G04 P0 ( dwell for no time -- G64 should not smooth over this point )
F600.00000
G01 X73.73935 Y32.21288
X73.76036 Y32.03401
X73.81809 Y31.86340
X73.91004 Y31.70853
X74.03216 Y31.57615
X74.16102 Y31.48253
X74.32467 Y31.40729
X74.50039 Y31.36772
X74.68042 Y31.36551
X74.85705 Y31.40084
X75.02246 Y31.47209
X75.16942 Y31.57615
X75.29157 Y31.70853
X75.39203 Y31.88250
X75.44560 Y32.05446
X75.46226 Y32.23378
X75.44125 Y32.41265
X75.38352 Y32.58326
X75.29157 Y32.73812
X75.16945 Y32.87051
X75.04059 Y32.96413
X74.87694 Y33.03937
X74.70122 Y33.07894
X74.52116 Y33.08113
X74.34456 Y33.04582
X74.17915 Y32.97457
X74.03219 Y32.87051
X73.91004 Y32.73812
X73.80958 Y32.56416
X73.75601 Y32.39220
X73.73935 Y32.21288
G04 P0 ( dwell for no time -- G64 should not smooth over this point )
G00 Z5.00000 ( retract )

G00 X76.60833 Y32.88519 ( rapid move to begin. )
F300.00000
G01 Z-0.05000
G04 P0 ( dwell for no time -- G64 should not smooth over this point )
F600.00000
G01 X76.60833 Y32.88519
X76.93716 Y33.21460
X77.36713 Y33.39311
X77.83241 Y33.39360
X78.26266 Y33.21582
X78.59207 Y32.88699
X78.77058 Y32.45702
X78.77107 Y31.99174
X78.59329 Y31.56149
X78.26446 Y31.23206
X77.83449 Y31.05354
X77.36924 Y31.05306
X76.93896 Y31.23086
X76.60953 Y31.55969
X76.43101 Y31.98964
X76.43053 Y32.45491
X76.60833 Y32.88519
G04 P0 ( dwell for no time -- G64 should not smooth over this point )
G00 Z5.00000 ( retract )

G00 X76.73934 Y32.21288 ( rapid move to begin. )
F300.00000
G01 Z-0.05000
G04 P0 ( dwell for no time -- G64 should not smooth over this point )
F600.00000
G01 X76.73934 Y32.21288
X76.76035 Y32.03401
X76.81808 Y31.86340
X76.91003 Y31.70853
X77.03216 Y31.57615
X77.16101 Y31.48253
X77.32466 Y31.40729
X77.50038 Y31.36772
X77.68041 Y31.36551
X77.85705 Y31.40084
X78.02245 Y31.47209
X78.16942 Y31.57615
X78.29156 Y31.70853
X78.39202 Y31.88250
X78.44559 Y32.05446
X78.46225 Y32.23378
X78.44125 Y32.41265
X78.38351 Y32.58326
X78.29156 Y32.73812
X78.16944 Y32.87051
X78.04059 Y32.96413
X77.87693 Y33.03937
X77.70122 Y33.07894
X77.52116 Y33.08113
X77.34455 Y33.04582
X77.17915 Y32.97457
X77.03218 Y32.87051
X76.91003 Y32.73812
X76.80958 Y32.56416
X76.75601 Y32.39220
X76.73934 Y32.21288
G04 P0 ( dwell for no time -- G64 should not smooth over this point )
G00 Z5.00000 ( retract )

G00 X79.43055 Y32.45494 ( rapid move to begin. )
F300.00000
G01 Z-0.05000
G04 P0 ( dwell for no time -- G64 should not smooth over this point )
F600.00000
G01 X79.43055 Y32.45494
X79.60833 Y32.88519
X79.93715 Y33.21460
X80.36712 Y33.39311
X80.83240 Y33.39360
X81.26265 Y33.21582
X81.59209 Y32.88699
X81.77060 Y32.45702
X81.77108 Y31.99177
X81.59328 Y31.56149
X81.26446 Y31.23206
X80.83448 Y31.05354
X80.36923 Y31.05306
X79.93896 Y31.23086
X79.60954 Y31.55969
X79.43103 Y31.98964
X79.43055 Y32.45494
G04 P0 ( dwell for no time -- G64 should not smooth over this point )
G00 Z5.00000 ( retract )

G00 X79.73934 Y32.21288 ( rapid move to begin. )
F300.00000
G01 Z-0.05000
G04 P0 ( dwell for no time -- G64 should not smooth over this point )
F600.00000
G01 X79.73934 Y32.21288
X79.76034 Y32.03401
X79.81808 Y31.86340
X79.91003 Y31.70853
X80.03215 Y31.57615
X80.16100 Y31.48253
X80.32466 Y31.40729
X80.50037 Y31.36772
X80.68041 Y31.36551
X80.85704 Y31.40084
X81.02244 Y31.47209
X81.16941 Y31.57615
X81.29156 Y31.70853
X81.39201 Y31.88250
X81.44558 Y32.05446
X81.46225 Y32.23378
X81.44124 Y32.41265
X81.38351 Y32.58326
X81.29156 Y32.73812
X81.16943 Y32.87051
X81.04058 Y32.96413
X80.87693 Y33.03937
X80.70121 Y33.07894
X80.52115 Y33.08113
X80.34454 Y33.04582
X80.17914 Y32.97457
X80.03218 Y32.87051
X79.91003 Y32.73812
X79.80957 Y32.56416
X79.75600 Y32.39220
X79.73934 Y32.21288
G04 P0 ( dwell for no time -- G64 should not smooth over this point )
G00 Z5.00000 ( retract )

G00 X84.07453 Y33.02469 ( rapid move to begin. )
F300.00000
G01 Z-0.05000
G04 P0 ( dwell for no time -- G64 should not smooth over this point )
F600.00000
G01 X84.07453 Y33.02469
X83.89602 Y33.45466
X83.89554 Y33.91991
X84.07334 Y34.35019
X84.40217 Y34.67962
X84.83211 Y34.85813
X85.29739 Y34.85862
X85.72767 Y34.68082
X86.05708 Y34.35199
X86.23559 Y33.92202
X86.23607 Y33.45677
X86.05827 Y33.02649
X85.72945 Y32.69708
X85.29950 Y32.51857
X84.83420 Y32.51808
X84.40395 Y32.69586
X84.07453 Y33.02469
G04 P0 ( dwell for no time -- G64 should not smooth over this point )
G00 Z5.00000 ( retract )

G00 X84.20433 Y33.67787 ( rapid move to begin. )
F300.00000
G01 Z-0.05000
G04 P0 ( dwell for no time -- G64 should not smooth over this point )
F600.00000
G01 X84.20433 Y33.67787
X84.22533 Y33.49901
X84.28307 Y33.32839
X84.37502 Y33.17353
X84.49714 Y33.04115
X84.62599 Y32.94752
X84.78965 Y32.87229
X84.96536 Y32.83271
X85.14540 Y32.83050
X85.32203 Y32.86583
X85.48743 Y32.93708
X85.63440 Y33.04115
X85.75655 Y33.17353
X85.85700 Y33.34749
X85.91057 Y33.51945
X85.92724 Y33.69878
X85.90623 Y33.87764
X85.84850 Y34.04826
X85.75655 Y34.20312
X85.63442 Y34.33550
X85.50557 Y34.42913
X85.34192 Y34.50436
X85.16620 Y34.54394
X84.98614 Y34.54612
X84.80953 Y34.51081
X84.64413 Y34.43957
X84.49716 Y34.33550
X84.37502 Y34.20312
X84.27456 Y34.02915
X84.22099 Y33.85720
X84.20433 Y33.67787
G04 P0 ( dwell for no time -- G64 should not smooth over this point )
G00 Z5.00000 ( retract )

G00 X84.20433 Y28.67788 ( rapid move to begin. )
F300.00000
G01 Z-0.05000
G04 P0 ( dwell for no time -- G64 should not smooth over this point )
F600.00000
G01 X84.20433 Y28.67788
X84.22533 Y28.49902
X84.28307 Y28.32840
X84.37502 Y28.17354
X84.49714 Y28.04116
X84.62599 Y27.94753
X84.78965 Y27.87230
X84.96536 Y27.83272
X85.14540 Y27.83051
X85.32203 Y27.86584
X85.48743 Y27.93709
X85.63440 Y28.04116
X85.75655 Y28.17354
X85.85700 Y28.34750
X85.91057 Y28.51946
X85.92724 Y28.69879
X85.90623 Y28.87765
X85.84850 Y29.04827
X85.75655 Y29.20313
X85.63442 Y29.33551
X85.50557 Y29.42914
X85.34192 Y29.50437
X85.16620 Y29.54395
X84.98614 Y29.54613
X84.80953 Y29.51082
X84.64413 Y29.43958
X84.49716 Y29.33551
X84.37502 Y29.20313
X84.27456 Y29.02916
X84.22099 Y28.85721
X84.20433 Y28.67788
G04 P0 ( dwell for no time -- G64 should not smooth over this point )
G00 Z5.00000 ( retract )

G00 X85.29950 Y27.51855 ( rapid move to begin. )
F300.00000
G01 Z-0.05000
G04 P0 ( dwell for no time -- G64 should not smooth over this point )
F600.00000
G01 X85.29950 Y27.51855
X84.83422 Y27.51807
X84.40395 Y27.69587
X84.07453 Y28.02470
X83.89602 Y28.45467
X83.89554 Y28.91992
X84.07334 Y29.35020
X84.40217 Y29.67961
X84.83211 Y29.85812
X85.29742 Y29.85860
X85.72767 Y29.68083
X86.05708 Y29.35197
X86.23559 Y28.92203
X86.23607 Y28.45675
X86.05827 Y28.02647
X85.72945 Y27.69706
X85.29950 Y27.51855
G04 P0 ( dwell for no time -- G64 should not smooth over this point )
G00 Z5.00000 ( retract )

G00 X84.20433 Y23.67787 ( rapid move to begin. )
F300.00000
G01 Z-0.05000
G04 P0 ( dwell for no time -- G64 should not smooth over this point )
F600.00000
G01 X84.20433 Y23.67787
X84.22533 Y23.49900
X84.28307 Y23.32839
X84.37502 Y23.17352
X84.49714 Y23.04114
X84.62599 Y22.94752
X84.78965 Y22.87228
X84.96536 Y22.83271
X85.14540 Y22.83050
X85.32203 Y22.86583
X85.48743 Y22.93708
X85.63440 Y23.04114
X85.75655 Y23.17352
X85.85700 Y23.34749
X85.91057 Y23.51945
X85.92724 Y23.69877
X85.90623 Y23.87764
X85.84850 Y24.04825
X85.75655 Y24.20311
X85.63442 Y24.33550
X85.50557 Y24.42912
X85.34192 Y24.50436
X85.16620 Y24.54393
X84.98614 Y24.54612
X84.80953 Y24.51081
X84.64413 Y24.43956
X84.49716 Y24.33550
X84.37502 Y24.20311
X84.27456 Y24.02915
X84.22099 Y23.85719
X84.20433 Y23.67787
G04 P0 ( dwell for no time -- G64 should not smooth over this point )
G00 Z5.00000 ( retract )

G00 X85.29950 Y22.51856 ( rapid move to begin. )
F300.00000
G01 Z-0.05000
G04 P0 ( dwell for no time -- G64 should not smooth over this point )
F600.00000
G01 X85.29950 Y22.51856
X84.83420 Y22.51808
X84.40395 Y22.69585
X84.07453 Y23.02471
X83.89602 Y23.45465
X83.89554 Y23.91993
X84.07334 Y24.35021
X84.40217 Y24.67962
X84.83211 Y24.85813
X85.29739 Y24.85861
X85.72767 Y24.68081
X86.05708 Y24.35198
X86.23559 Y23.92201
X86.23607 Y23.45676
X86.05827 Y23.02648
X85.72945 Y22.69707
X85.29950 Y22.51856
G04 P0 ( dwell for no time -- G64 should not smooth over this point )
G00 Z5.00000 ( retract )

G00 X85.41977 Y19.55032 ( rapid move to begin. )
F300.00000
G01 Z-0.05000
G04 P0 ( dwell for no time -- G64 should not smooth over this point )
F600.00000
G01 X85.41977 Y19.55032
X85.41977 Y19.83256
X85.44552 Y19.85832
X85.90897 Y19.85832
X86.05891 Y19.79624
X86.17364 Y19.68148
X86.23577 Y19.53157
X86.23577 Y19.06807
X86.21001 Y19.04232
X85.92777 Y19.04232
X85.92528 Y19.47259
X85.87118 Y19.54044
X85.41977 Y19.55032
G04 P0 ( dwell for no time -- G64 should not smooth over this point )
G00 Z5.00000 ( retract )

G00 X83.89577 Y19.53139 ( rapid move to begin. )
F300.00000
G01 Z-0.05000
G04 P0 ( dwell for no time -- G64 should not smooth over this point )
F600.00000
G01 X83.89577 Y19.53139
X83.95792 Y19.68143
X84.07268 Y19.79619
X84.22259 Y19.85832
X84.68606 Y19.85832
X84.71177 Y19.83261
X84.71177 Y19.55032
X84.30377 Y19.55032
X84.22559 Y19.51267
X84.20377 Y19.45032
X84.20377 Y19.04232
X83.92158 Y19.04232
X83.89577 Y19.06812
X83.89577 Y19.53139
G04 P0 ( dwell for no time -- G64 should not smooth over this point )
G00 Z5.00000 ( retract )

G00 X83.89577 Y17.84527 ( rapid move to begin. )
F300.00000
G01 Z-0.05000
G04 P0 ( dwell for no time -- G64 should not smooth over this point )
F600.00000
G01 X83.89577 Y17.84527
X83.89577 Y18.30856
X83.92152 Y18.33432
X84.20377 Y18.33432
X84.20377 Y17.92632
X84.22559 Y17.86399
X84.30377 Y17.82632
X84.71177 Y17.82632
X84.71177 Y17.54407
X84.68601 Y17.51832
X84.22274 Y17.51832
X84.07271 Y17.58044
X83.95797 Y17.69520
X83.89577 Y17.84527
G04 P0 ( dwell for no time -- G64 should not smooth over this point )
G00 Z5.00000 ( retract )

G00 X86.23577 Y17.84516 ( rapid move to begin. )
F300.00000
G01 Z-0.05000
G04 P0 ( dwell for no time -- G64 should not smooth over this point )
F600.00000
G01 X86.23577 Y17.84516
X86.17369 Y17.69525
X86.05893 Y17.58050
X85.90890 Y17.51832
X85.44558 Y17.51832
X85.41977 Y17.54412
X85.41977 Y17.82632
X85.82777 Y17.82632
X85.90598 Y17.86399
X85.92777 Y17.92632
X85.92777 Y18.33432
X86.21006 Y18.33432
X86.23577 Y18.30861
X86.23577 Y17.84516
G04 P0 ( dwell for no time -- G64 should not smooth over this point )
G00 Z5.00000 ( retract )

G00 X81.90489 Y15.17791 ( rapid move to begin. )
F300.00000
G01 Z-0.05000
G04 P0 ( dwell for no time -- G64 should not smooth over this point )
F600.00000
G01 X81.90489 Y15.17791
X81.06060 Y15.17791
X81.03479 Y15.20372
X81.03479 Y15.48591
X81.86720 Y15.49582
X81.91391 Y15.54253
X81.92379 Y15.58591
X81.92379 Y16.01931
X82.20608 Y16.01931
X82.23179 Y15.99361
X82.23179 Y15.50476
X82.16971 Y15.35482
X82.05498 Y15.24009
X81.90489 Y15.17791
G04 P0 ( dwell for no time -- G64 should not smooth over this point )
G00 Z5.00000 ( retract )

G00 X80.30103 Y15.17791 ( rapid move to begin. )
F300.00000
G01 Z-0.05000
G04 P0 ( dwell for no time -- G64 should not smooth over this point )
F600.00000
G01 X80.30103 Y15.17791
X79.45674 Y15.17791
X79.30670 Y15.24004
X79.19197 Y15.35480
X79.12979 Y15.50483
X79.12979 Y15.99355
X79.15554 Y16.01931
X79.43779 Y16.01931
X79.43779 Y15.58591
X79.44770 Y15.54253
X79.49441 Y15.49582
X80.32679 Y15.48591
X80.32679 Y15.20367
X80.30103 Y15.17791
G04 P0 ( dwell for no time -- G64 should not smooth over this point )
G00 Z5.00000 ( retract )

G00 X79.43779 Y16.72731 ( rapid move to begin. )
F300.00000
G01 Z-0.05000
G04 P0 ( dwell for no time -- G64 should not smooth over this point )
F600.00000
G01 X79.43779 Y16.72731
X79.15560 Y16.72731
X79.12979 Y16.75312
X79.12979 Y17.24181
X79.19194 Y17.39190
X79.30662 Y17.50658
X79.45991 Y17.57008
X79.53568 Y17.58509
X79.61513 Y17.63843
X79.67167 Y17.74016
X79.67503 Y17.83587
X79.62197 Y17.94562
X79.44828 Y18.07117
X79.19009 Y18.45758
X79.09939 Y18.91334
X79.19004 Y19.36904
X79.44823 Y19.75542
X79.83461 Y20.01361
X80.31254 Y20.10871
X81.04904 Y20.10871
X81.52694 Y20.01366
X81.91332 Y19.75547
X82.17152 Y19.36909
X82.26222 Y18.91334
X82.17157 Y18.45763
X81.91338 Y18.07122
X81.77507 Y17.97811
X81.72305 Y17.92439
X81.68658 Y17.83587
X81.68488 Y17.76660
X81.71691 Y17.67648
X81.76631 Y17.62017
X81.82592 Y17.58509
X81.90164 Y17.57011
X82.05490 Y17.50663
X82.16966 Y17.39188
X82.23179 Y17.24196
X82.23179 Y16.75307
X82.20603 Y16.72731
X81.92379 Y16.72731
X81.92130 Y17.18299
X81.90200 Y17.22307
X81.84607 Y17.25822
X79.53779 Y17.26071
X79.47546 Y17.23892
X79.44030 Y17.18299
X79.43779 Y16.72731
G04 P0 ( dwell for no time -- G64 should not smooth over this point )
G00 Z5.00000 ( retract )

G00 X81.04650 Y18.02644 ( rapid move to begin. )
F300.00000
G01 Z-0.05000
G04 P0 ( dwell for no time -- G64 should not smooth over this point )
F600.00000
G01 X81.04650 Y18.02644
X81.22483 Y18.04664
X81.37685 Y18.09434
X81.55135 Y18.19119
X81.68617 Y18.30965
X81.79438 Y18.45278
X81.86456 Y18.59581
X81.91152 Y18.76904
X81.92163 Y18.96835
X81.89242 Y19.14542
X81.82818 Y19.31298
X81.74393 Y19.44818
X81.62176 Y19.57965
X81.47566 Y19.68384
X81.29224 Y19.76256
X81.11658 Y19.79665
X80.32572 Y19.80071
X80.15658 Y19.78407
X79.96616 Y19.72433
X79.81026 Y19.63546
X79.67543 Y19.51699
X79.56723 Y19.37386
X79.49705 Y19.23084
X79.45008 Y19.05761
X79.43896 Y18.87851
X79.46410 Y18.70081
X79.52453 Y18.53183
X79.61767 Y18.37846
X79.75519 Y18.23381
X79.90365 Y18.13300
X80.06936 Y18.06409
X80.24503 Y18.03000
X81.04650 Y18.02644
G04 P0 ( dwell for no time -- G64 should not smooth over this point )
G00 Z5.00000 ( retract )

G00 X79.73934 Y22.05288 ( rapid move to begin. )
F300.00000
G01 Z-0.05000
G04 P0 ( dwell for no time -- G64 should not smooth over this point )
F600.00000
G01 X79.73934 Y22.05288
X79.76034 Y21.87401
X79.81808 Y21.70340
X79.91003 Y21.54853
X80.03215 Y21.41615
X80.16100 Y21.32253
X80.32466 Y21.24729
X80.50037 Y21.20772
X80.68041 Y21.20551
X80.85704 Y21.24084
X81.02244 Y21.31209
X81.16941 Y21.41615
X81.29156 Y21.54853
X81.39201 Y21.72250
X81.44558 Y21.89446
X81.46225 Y22.07378
X81.44124 Y22.25265
X81.38351 Y22.42326
X81.29156 Y22.57812
X81.16943 Y22.71051
X81.04058 Y22.80413
X80.87693 Y22.87937
X80.70121 Y22.91894
X80.52115 Y22.92113
X80.34454 Y22.88582
X80.17914 Y22.81457
X80.03218 Y22.71051
X79.91003 Y22.57812
X79.80957 Y22.40416
X79.75600 Y22.23220
X79.73934 Y22.05288
G04 P0 ( dwell for no time -- G64 should not smooth over this point )
G00 Z5.00000 ( retract )

G00 X79.43055 Y22.29494 ( rapid move to begin. )
F300.00000
G01 Z-0.05000
G04 P0 ( dwell for no time -- G64 should not smooth over this point )
F600.00000
G01 X79.43055 Y22.29494
X79.60833 Y22.72519
X79.93715 Y23.05460
X80.36712 Y23.23311
X80.83240 Y23.23360
X81.26265 Y23.05582
X81.59209 Y22.72699
X81.77060 Y22.29702
X81.77108 Y21.83177
X81.59328 Y21.40149
X81.26446 Y21.07206
X80.83448 Y20.89354
X80.36923 Y20.89306
X79.93896 Y21.07086
X79.60954 Y21.39969
X79.43103 Y21.82964
X79.43055 Y22.29494
G04 P0 ( dwell for no time -- G64 should not smooth over this point )
G00 Z5.00000 ( retract )

G00 X76.73934 Y22.05288 ( rapid move to begin. )
F300.00000
G01 Z-0.05000
G04 P0 ( dwell for no time -- G64 should not smooth over this point )
F600.00000
G01 X76.73934 Y22.05288
X76.76035 Y21.87401
X76.81808 Y21.70340
X76.91003 Y21.54853
X77.03216 Y21.41615
X77.16101 Y21.32253
X77.32466 Y21.24729
X77.50038 Y21.20772
X77.68041 Y21.20551
X77.85705 Y21.24084
X78.02245 Y21.31209
X78.16942 Y21.41615
X78.29156 Y21.54853
X78.39202 Y21.72250
X78.44559 Y21.89446
X78.46225 Y22.07378
X78.44125 Y22.25265
X78.38351 Y22.42326
X78.29156 Y22.57812
X78.16944 Y22.71051
X78.04059 Y22.80413
X77.87693 Y22.87937
X77.70122 Y22.91894
X77.52116 Y22.92113
X77.34455 Y22.88582
X77.17915 Y22.81457
X77.03218 Y22.71051
X76.91003 Y22.57812
X76.80958 Y22.40416
X76.75601 Y22.23220
X76.73934 Y22.05288
G04 P0 ( dwell for no time -- G64 should not smooth over this point )
G00 Z5.00000 ( retract )

G00 X76.93896 Y21.07086 ( rapid move to begin. )
F300.00000
G01 Z-0.05000
G04 P0 ( dwell for no time -- G64 should not smooth over this point )
F600.00000
G01 X76.93896 Y21.07086
X76.60953 Y21.39969
X76.43101 Y21.82964
X76.43053 Y22.29491
X76.60833 Y22.72519
X76.93716 Y23.05460
X77.36713 Y23.23311
X77.83241 Y23.23360
X78.26266 Y23.05582
X78.59207 Y22.72699
X78.77058 Y22.29702
X78.77107 Y21.83174
X78.59329 Y21.40149
X78.26446 Y21.07206
X77.83449 Y20.89354
X77.36924 Y20.89306
X76.93896 Y21.07086
G04 P0 ( dwell for no time -- G64 should not smooth over this point )
G00 Z5.00000 ( retract )

G00 X73.93894 Y21.07086 ( rapid move to begin. )
F300.00000
G01 Z-0.05000
G04 P0 ( dwell for no time -- G64 should not smooth over this point )
F600.00000
G01 X73.93894 Y21.07086
X73.60953 Y21.39969
X73.43102 Y21.82966
X73.43054 Y22.29491
X73.60834 Y22.72519
X73.93717 Y23.05460
X74.36711 Y23.23311
X74.83241 Y23.23360
X75.26266 Y23.05582
X75.59208 Y22.72699
X75.77059 Y22.29702
X75.77107 Y21.83174
X75.59330 Y21.40149
X75.26444 Y21.07206
X74.83450 Y20.89354
X74.36922 Y20.89306
X73.93894 Y21.07086
G04 P0 ( dwell for no time -- G64 should not smooth over this point )
G00 Z5.00000 ( retract )

G00 X73.73935 Y22.05288 ( rapid move to begin. )
F300.00000
G01 Z-0.05000
G04 P0 ( dwell for no time -- G64 should not smooth over this point )
F600.00000
G01 X73.73935 Y22.05288
X73.76036 Y21.87401
X73.81809 Y21.70340
X73.91004 Y21.54853
X74.03216 Y21.41615
X74.16102 Y21.32253
X74.32467 Y21.24729
X74.50039 Y21.20772
X74.68042 Y21.20551
X74.85705 Y21.24084
X75.02246 Y21.31209
X75.16942 Y21.41615
X75.29157 Y21.54853
X75.39203 Y21.72250
X75.44560 Y21.89446
X75.46226 Y22.07378
X75.44125 Y22.25265
X75.38352 Y22.42326
X75.29157 Y22.57812
X75.16945 Y22.71051
X75.04059 Y22.80413
X74.87694 Y22.87937
X74.70122 Y22.91894
X74.52116 Y22.92113
X74.34456 Y22.88582
X74.17915 Y22.81457
X74.03219 Y22.71051
X73.91004 Y22.57812
X73.80958 Y22.40416
X73.75601 Y22.23220
X73.73935 Y22.05288
G04 P0 ( dwell for no time -- G64 should not smooth over this point )
G00 Z5.00000 ( retract )

G00 X73.18954 Y38.97969 ( rapid move to begin. )
F300.00000
G01 Z-0.05000
G04 P0 ( dwell for no time -- G64 should not smooth over this point )
F600.00000
G01 X73.18954 Y38.97969
X73.01103 Y39.40964
X73.01055 Y39.87494
X73.18832 Y40.30519
X73.51718 Y40.63460
X73.94712 Y40.81311
X74.41240 Y40.81360
X74.84265 Y40.63582
X75.17209 Y40.30699
X75.35060 Y39.87702
X75.35108 Y39.41177
X75.17328 Y38.98149
X74.84445 Y38.65206
X74.41448 Y38.47355
X73.94923 Y38.47306
X73.51895 Y38.65086
X73.18954 Y38.97969
G04 P0 ( dwell for no time -- G64 should not smooth over this point )
G00 Z5.00000 ( retract )

G00 X73.31934 Y39.63288 ( rapid move to begin. )
F300.00000
G01 Z-0.05000
G04 P0 ( dwell for no time -- G64 should not smooth over this point )
F600.00000
G01 X73.31934 Y39.63288
X73.34034 Y39.45401
X73.39808 Y39.28340
X73.49002 Y39.12853
X73.61215 Y38.99615
X73.74100 Y38.90253
X73.90465 Y38.82729
X74.08037 Y38.78772
X74.26041 Y38.78551
X74.43704 Y38.82084
X74.60244 Y38.89209
X74.74941 Y38.99615
X74.87156 Y39.12853
X74.97201 Y39.30250
X75.02558 Y39.47446
X75.04224 Y39.65378
X75.02124 Y39.83265
X74.96350 Y40.00326
X74.87156 Y40.15812
X74.74943 Y40.29051
X74.62058 Y40.38413
X74.45693 Y40.45937
X74.28121 Y40.49894
X74.10115 Y40.50113
X73.92454 Y40.46582
X73.75914 Y40.39457
X73.61217 Y40.29051
X73.49002 Y40.15812
X73.38957 Y39.98416
X73.33600 Y39.81220
X73.31934 Y39.63288
G04 P0 ( dwell for no time -- G64 should not smooth over this point )
G00 Z5.00000 ( retract )

G00 X90.70018 Y51.02750 ( rapid move to begin. )
F300.00000
G01 Z-0.05000
G04 P0 ( dwell for no time -- G64 should not smooth over this point )
F600.00000
G01 X90.70018 Y51.02750
X90.67292 Y51.12460
X90.62370 Y51.18635
X90.56195 Y51.22513
X90.47378 Y51.24332
X0.22779 Y51.24332
X0.11956 Y51.21546
X0.02870 Y51.12460
X0.00081 Y51.01632
X0.00150 Y3.26584
X0.03597 Y3.15027
X0.11166 Y3.07651
X0.22779 Y3.04331
X90.47378 Y3.04331
X90.58207 Y3.07123
X90.67292 Y3.16208
X90.70078 Y3.27031
X90.70018 Y51.02750
G04 P0 ( dwell for no time -- G64 should not smooth over this point )
G00 Z5.00000 ( retract )

G00 X34.93895 Y45.15085 ( rapid move to begin. )
F300.00000
G01 Z-0.05000
G04 P0 ( dwell for no time -- G64 should not smooth over this point )
F600.00000
G01 X34.93895 Y45.15085
X34.60953 Y45.47970
X34.43102 Y45.90965
X34.43054 Y46.37495
X34.60831 Y46.80518
X34.93717 Y47.13461
X35.36711 Y47.31313
X35.83239 Y47.31361
X36.26267 Y47.13581
X36.59208 Y46.80698
X36.77059 Y46.37703
X36.77107 Y45.91176
X36.59327 Y45.48148
X36.26444 Y45.15207
X35.83450 Y44.97356
X35.36920 Y44.97307
X34.93895 Y45.15085
G04 P0 ( dwell for no time -- G64 should not smooth over this point )
G00 Z5.00000 ( retract )

G00 X34.73935 Y46.13286 ( rapid move to begin. )
F300.00000
G01 Z-0.05000
G04 P0 ( dwell for no time -- G64 should not smooth over this point )
F600.00000
G01 X34.73935 Y46.13286
X34.76036 Y45.95400
X34.81809 Y45.78339
X34.91004 Y45.62852
X35.03216 Y45.49614
X35.16102 Y45.40251
X35.32467 Y45.32728
X35.50039 Y45.28770
X35.68042 Y45.28549
X35.85705 Y45.32083
X36.02246 Y45.39207
X36.16942 Y45.49614
X36.29157 Y45.62852
X36.39203 Y45.80249
X36.44560 Y45.97444
X36.46226 Y46.15377
X36.44125 Y46.33264
X36.38352 Y46.50325
X36.29157 Y46.65811
X36.16945 Y46.79050
X36.04059 Y46.88412
X35.87694 Y46.95935
X35.70122 Y46.99893
X35.52116 Y47.00111
X35.34456 Y46.96581
X35.17915 Y46.89456
X35.03219 Y46.79050
X34.91004 Y46.65811
X34.80958 Y46.48415
X34.75601 Y46.31219
X34.73935 Y46.13286
G04 P0 ( dwell for no time -- G64 should not smooth over this point )
G00 Z5.00000 ( retract )

G00 X31.46278 Y45.38130 ( rapid move to begin. )
F300.00000
G01 Z-0.05000
G04 P0 ( dwell for no time -- G64 should not smooth over this point )
F600.00000
G01 X31.46278 Y45.38130
X31.46278 Y46.90530
X31.42513 Y46.98351
X31.36278 Y47.00530
X29.83878 Y47.00530
X29.76060 Y46.96766
X29.73878 Y46.90530
X29.73878 Y45.38130
X29.77645 Y45.30312
X29.83878 Y45.28130
X31.36278 Y45.28130
X31.44098 Y45.31897
X31.46278 Y45.38130
G04 P0 ( dwell for no time -- G64 should not smooth over this point )
G00 Z5.00000 ( retract )

G00 X29.45575 Y45.21951 ( rapid move to begin. )
F300.00000
G01 Z-0.05000
G04 P0 ( dwell for no time -- G64 should not smooth over this point )
F600.00000
G01 X29.45575 Y45.21951
X29.41833 Y45.40416
X29.41833 Y46.88397
X29.45054 Y47.05514
X29.54071 Y47.19530
X29.67698 Y47.28839
X29.86141 Y47.32575
X31.34175 Y47.32575
X31.51261 Y47.29362
X31.65274 Y47.20345
X31.74586 Y47.06715
X31.78322 Y46.88272
X31.78322 Y45.40239
X31.75112 Y45.23157
X31.66092 Y45.09141
X31.52463 Y44.99830
X31.33997 Y44.96088
X29.86011 Y44.96088
X29.68902 Y44.99306
X29.54886 Y45.08323
X29.45575 Y45.21951
G04 P0 ( dwell for no time -- G64 should not smooth over this point )
G00 Z5.00000 ( retract )

G00 X29.98884 Y32.36225 ( rapid move to begin. )
F300.00000
G01 Z-0.05000
G04 P0 ( dwell for no time -- G64 should not smooth over this point )
F600.00000
G01 X29.98884 Y32.36225
X29.98884 Y33.92435
X29.95120 Y34.00256
X29.88884 Y34.02435
X28.32674 Y34.02435
X28.24856 Y33.98671
X28.22674 Y33.92435
X28.22674 Y32.36225
X28.26441 Y32.28407
X28.32674 Y32.26225
X29.88884 Y32.26225
X29.95120 Y32.28407
X29.98884 Y32.36225
G04 P0 ( dwell for no time -- G64 should not smooth over this point )
G00 Z5.00000 ( retract )

G00 X27.90630 Y32.38511 ( rapid move to begin. )
F300.00000
G01 Z-0.05000
G04 P0 ( dwell for no time -- G64 should not smooth over this point )
F600.00000
G01 X27.90630 Y32.38511
X27.90630 Y33.90307
X27.93848 Y34.07419
X28.02865 Y34.21432
X28.16494 Y34.30744
X28.34937 Y34.34480
X29.86781 Y34.34480
X30.03865 Y34.31267
X30.17878 Y34.22250
X30.27190 Y34.08620
X30.30926 Y33.90177
X30.30926 Y32.38334
X30.27713 Y32.21250
X30.18696 Y32.07234
X30.05069 Y31.97925
X29.86603 Y31.94183
X28.34808 Y31.94183
X28.17696 Y31.97402
X28.03680 Y32.06419
X27.94371 Y32.20046
X27.90630 Y32.38511
G04 P0 ( dwell for no time -- G64 should not smooth over this point )
G00 Z5.00000 ( retract )

G00 X35.41197 Y32.90576 ( rapid move to begin. )
F300.00000
G01 Z-0.05000
G04 P0 ( dwell for no time -- G64 should not smooth over this point )
F600.00000
G01 X35.41197 Y32.90576
X35.41149 Y33.37869
X35.59218 Y33.81597
X35.92642 Y34.15080
X36.36325 Y34.33218
X36.83617 Y34.33266
X37.27343 Y34.15199
X37.60823 Y33.81778
X37.78964 Y33.38082
X37.79012 Y32.90797
X37.60945 Y32.47071
X37.27526 Y32.13591
X36.83831 Y31.95451
X36.36543 Y31.95403
X35.92817 Y32.13470
X35.59335 Y32.46893
X35.41197 Y32.90576
G04 P0 ( dwell for no time -- G64 should not smooth over this point )
G00 Z5.00000 ( retract )

G00 X35.72030 Y33.13286 ( rapid move to begin. )
F300.00000
G01 Z-0.05000
G04 P0 ( dwell for no time -- G64 should not smooth over this point )
F600.00000
G01 X35.72030 Y33.13286
X35.74171 Y32.95004
X35.79218 Y32.79474
X35.88233 Y32.63424
X36.00389 Y32.49599
X36.15149 Y32.38603
X36.31880 Y32.30917
X36.49838 Y32.26876
X36.68243 Y32.26655
X36.86294 Y32.30272
X37.03198 Y32.37556
X37.18220 Y32.48199
X37.30699 Y32.61732
X37.40092 Y32.77564
X37.45990 Y32.95004
X37.48131 Y33.15377
X37.45990 Y33.33660
X37.40943 Y33.49189
X37.31928 Y33.65240
X37.19772 Y33.79065
X37.05012 Y33.90061
X36.88281 Y33.97747
X36.70323 Y34.01788
X36.51916 Y34.02006
X36.33866 Y33.98392
X36.16963 Y33.91107
X36.01941 Y33.80464
X35.89462 Y33.66931
X35.80069 Y33.51099
X35.74171 Y33.33660
X35.72030 Y33.13286

G04 P0 ( dwell for no time -- G64 should not smooth over this point )
G00 Z10.000 ( retract )

M5 ( Spindle off. )
M9 ( Coolant off. )
M2 ( Program end. )

