( pcb2gcode 1.3.2 )
( Software-independent Gcode )

( This file uses only one drill bit. Forced by 'onedrill' option )

G94       (Millimeters per minute feed rate.)
G21       (Units == Millimeters.)
G91.1     (Incremental arc distance mode.)
G90       (Absolute coordinates.)
S10000     (RPM spindle speed.)

G00 Z10.00000 (Retract)
T1
M5      (Spindle stop.)
(MSG, Change tool bit to drill size 0.81300 mm)
M6      (Tool change.)
M0      (Temporary machine stop.)
M3      (Spindle on clockwise.)
G0 Z5.00000

F1000.00000
G0 X10.02080 Y16.37330
G1 Z-1.60000
G1 Z5.00000
G0 X10.02080 Y18.91330
G1 Z-1.60000
G1 Z5.00000
G0 X10.10080 Y22.06330
G1 Z-1.60000
G1 Z5.00000
G0 X13.10080 Y22.06330
G1 Z-1.60000
G1 Z5.00000
G0 X16.10080 Y22.06330
G1 Z-1.60000
G1 Z5.00000
G0 X19.83080 Y22.06330
G1 Z-1.60000
G1 Z5.00000
G0 X22.37080 Y22.06330
G1 Z-1.60000
G1 Z5.00000
G0 X25.10080 Y20.72330
G1 Z-1.60000
G1 Z5.00000
G0 X27.33080 Y22.06330
G1 Z-1.60000
G1 Z5.00000
G0 X29.87080 Y22.06330
G1 Z-1.60000
G1 Z5.00000
G0 X36.10080 Y22.14330
G1 Z-1.60000
G1 Z5.00000
G0 X41.10080 Y22.14330
G1 Z-1.60000
G1 Z5.00000
G0 X46.10080 Y22.14330
G1 Z-1.60000
G1 Z5.00000
G0 X46.10080 Y12.64330
G1 Z-1.60000
G1 Z5.00000
G0 X41.10080 Y12.64330
G1 Z-1.60000
G1 Z5.00000
G0 X36.10080 Y12.64330
G1 Z-1.60000
G1 Z5.00000
G0 X30.10080 Y8.14330
G1 Z-1.60000
G1 Z5.00000
G0 X25.10080 Y8.14330
G1 Z-1.60000
G1 Z5.00000
G0 X25.10080 Y10.56330
G1 Z-1.60000
G1 Z5.00000
G0 X20.10080 Y8.14330
G1 Z-1.60000
G1 Z5.00000
G0 X20.18080 Y16.37330
G1 Z-1.60000
G1 Z5.00000
G0 X20.18080 Y18.91330
G1 Z-1.60000
G1 Z5.00000
G0 X19.83080 Y32.22330
G1 Z-1.60000
G1 Z5.00000
G0 X22.37080 Y32.22330
G1 Z-1.60000
G1 Z5.00000
G0 X27.33080 Y32.22330
G1 Z-1.60000
G1 Z5.00000
G0 X29.87080 Y32.22330
G1 Z-1.60000
G1 Z5.00000
G0 X29.02080 Y37.14330
G1 Z-1.60000
G1 Z5.00000
G0 X26.68080 Y39.64330
G1 Z-1.60000
G1 Z5.00000
G0 X16.52080 Y39.64330
G1 Z-1.60000
G1 Z5.00000
G0 X16.10080 Y32.22330
G1 Z-1.60000
G1 Z5.00000
G0 X13.10080 Y32.22330
G1 Z-1.60000
G1 Z5.00000
G0 X10.10080 Y32.22330
G1 Z-1.60000
G1 Z5.00000
G0 X5.63580 Y33.68830
G1 Z-1.60000
G1 Z5.00000
G0 X5.63580 Y28.68830
G1 Z-1.60000
G1 Z5.00000
G0 X5.63580 Y23.68830
G1 Z-1.60000
G1 Z5.00000
G0 X5.63580 Y18.68830
G1 Z-1.60000
G1 Z5.00000
G0 X36.10080 Y31.64330
G1 Z-1.60000
G1 Z5.00000
G0 X41.10080 Y31.64330
G1 Z-1.60000
G1 Z5.00000
G0 X46.10080 Y31.64330
G1 Z-1.60000
G1 Z5.00000
G0 X54.10080 Y33.14330
G1 Z-1.60000
G1 Z5.00000
G0 X61.59380 Y33.14330
G1 Z-1.60000
G1 Z5.00000
G0 X60.10080 Y46.14330
G1 Z-1.60000
G1 Z5.00000
G0 X55.10080 Y46.14330
G1 Z-1.60000
G1 Z5.00000
G0 X39.18080 Y37.14330
G1 Z-1.60000
G1 Z5.00000
G0 X58.10080 Y13.64330
G1 Z-1.60000
G1 Z5.00000
G0 X65.59380 Y13.64330
G1 Z-1.60000
G1 Z5.00000
G0 X74.60080 Y9.64330
G1 Z-1.60000
G1 Z5.00000
G0 X79.60080 Y9.64330
G1 Z-1.60000
G1 Z5.00000
G0 X77.10080 Y22.15030
G1 Z-1.60000
G1 Z5.00000
G0 X77.10080 Y29.64330
G1 Z-1.60000
G1 Z5.00000
G0 X82.60080 Y46.14330
G1 Z-1.60000
G1 Z5.00000
G0 X87.60080 Y46.14330
G1 Z-1.60000
G1 Z5.00000

G00 Z10.000 ( All done -- retract )

M5      (Spindle off.)
M9      (Coolant off.)
M2      (Program end.)

