( pcb2gcode 1.3.2 )
( Software-independent Gcode )

G94 ( Millimeters per minute feed rate. )
G21 ( Units == Millimeters. )

G90 ( Absolute coordinates. )
S10000 ( RPM spindle speed. )
F600.00000 ( Feedrate. )

F600.00000 ( Feedrate. )
M3 ( Spindle on clockwise. )
G04 P0 ( dwell for no time -- G64 should not smooth over this point )
G00 Z5.00000 ( retract )

G00 X0.00140 Y51.02750 ( rapid move to begin. )
F300.00000
G01 Z-0.05000
G04 P0 ( dwell for no time -- G64 should not smooth over this point )
F600.00000
G01 X0.00140 Y51.02750
X0.02865 Y51.12460
X0.07788 Y51.18635
X0.13962 Y51.22513
X0.22779 Y51.24332
X90.47378 Y51.24332
X90.58201 Y51.21546
X90.67287 Y51.12460
X90.70076 Y51.01632
X90.70007 Y3.26584
X90.66561 Y3.15027
X90.58991 Y3.07651
X90.47378 Y3.04331
X0.22779 Y3.04331
X0.11951 Y3.07123
X0.02865 Y3.16208
X0.00079 Y3.27031
X0.00140 Y51.02750
G04 P0 ( dwell for no time -- G64 should not smooth over this point )
G00 Z5.00000 ( retract )

G00 X6.63580 Y34.64333 ( rapid move to begin. )
F300.00000
G01 Z-0.05000
G04 P0 ( dwell for no time -- G64 should not smooth over this point )
F600.00000
G01 X6.63580 Y34.64333
X6.63580 Y33.68831
X6.61556 Y33.49078
X6.54456 Y33.27229
X6.45048 Y33.10934
X6.31231 Y32.95260
X6.14457 Y32.82801
X5.95457 Y32.74104
X5.72986 Y32.69327
X5.52092 Y32.69548
X5.31698 Y32.74104
X5.12699 Y32.82801
X4.95925 Y32.95260
X4.82107 Y33.10934
X4.72699 Y33.27229
X4.65600 Y33.49078
X4.63581 Y33.68831
X4.63581 Y35.17833
X4.66730 Y35.42433
X4.76397 Y35.66662
X4.92869 Y35.88544
X5.40352 Y36.35907
X5.61251 Y36.51515
X5.82958 Y36.60507
X6.10080 Y36.64332
X15.10078 Y36.64332
X15.34673 Y36.61183
X15.58902 Y36.51515
X15.80784 Y36.35044
X16.81648 Y35.34061
X16.97256 Y35.13162
X17.06248 Y34.91455
X17.10078 Y34.64333
X17.10078 Y32.22332
X17.07619 Y32.00533
X17.00954 Y31.80729
X16.91546 Y31.64435
X16.77729 Y31.48761
X16.60954 Y31.36302
X16.39966 Y31.26960
X16.19484 Y31.22827
X16.00670 Y31.22827
X15.80185 Y31.26960
X15.59197 Y31.36302
X15.42423 Y31.48761
X15.28605 Y31.64435
X15.19197 Y31.80729
X15.12098 Y32.02578
X15.10078 Y32.22332
X15.10078 Y34.22915
X14.68661 Y34.64333
X6.63580 Y34.64333
G04 P0 ( dwell for no time -- G64 should not smooth over this point )
G00 Z5.00000 ( retract )

G00 X6.63580 Y29.26419 ( rapid move to begin. )
F300.00000
G01 Z-0.05000
G04 P0 ( dwell for no time -- G64 should not smooth over this point )
F600.00000
G01 X6.63580 Y29.26419
X6.63524 Y28.67788
X6.61121 Y28.47034
X6.55307 Y28.29140
X6.45048 Y28.10935
X6.31231 Y27.95261
X6.12646 Y27.81758
X5.93469 Y27.73460
X5.72986 Y27.69328
X5.52092 Y27.69549
X5.31698 Y27.74105
X5.12699 Y27.82802
X4.97477 Y27.93862
X4.83337 Y28.09244
X4.72699 Y28.27230
X4.66034 Y28.47034
X4.63634 Y28.67788
X4.63581 Y29.67831
X4.67406 Y29.94953
X4.77700 Y30.18918
X4.92867 Y30.38542
X7.48348 Y32.93906
X7.69247 Y33.09515
X7.90954 Y33.18506
X8.16773 Y33.22248
X10.10079 Y33.22331
X10.31878 Y33.19878
X10.51682 Y33.13213
X10.69668 Y33.02575
X10.85050 Y32.88435
X10.96109 Y32.73213
X11.04806 Y32.54214
X11.09363 Y32.33820
X11.09584 Y32.12926
X11.05451 Y31.92443
X10.97153 Y31.73266
X10.85050 Y31.56233
X10.69668 Y31.42093
X10.49772 Y31.30605
X10.31878 Y31.24791
X10.11123 Y31.22388
X8.59495 Y31.22332
X6.63580 Y29.26419
G04 P0 ( dwell for no time -- G64 should not smooth over this point )
G00 Z5.00000 ( retract )

G00 X7.51492 Y23.64332 ( rapid move to begin. )
F300.00000
G01 Z-0.05000
G04 P0 ( dwell for no time -- G64 should not smooth over this point )
F600.00000
G01 X7.51492 Y23.64332
X6.85284 Y22.98125
X6.63402 Y22.81650
X6.39173 Y22.71986
X6.15884 Y22.68917
X5.63580 Y22.68831
X5.43822 Y22.70855
X5.23883 Y22.77104
X5.05679 Y22.87363
X4.90004 Y23.01180
X4.77545 Y23.17954
X4.68849 Y23.36954
X4.64292 Y23.57347
X4.64073 Y23.78239
X4.68203 Y23.98724
X4.76502 Y24.17901
X4.88605 Y24.34934
X5.03987 Y24.49074
X5.21973 Y24.59712
X5.41777 Y24.66377
X5.73156 Y24.68830
X6.40352 Y25.35907
X6.61251 Y25.51515
X6.85480 Y25.61182
X7.10080 Y25.64332
X12.60079 Y25.64332
X12.87196 Y25.60507
X13.11163 Y25.50210
X13.30785 Y25.35043
X13.81648 Y24.84060
X13.97257 Y24.63161
X14.06248 Y24.41454
X14.10079 Y24.14332
X14.10079 Y22.06332
X14.07620 Y21.84533
X14.00955 Y21.64729
X13.91547 Y21.48435
X13.77729 Y21.32761
X13.60955 Y21.20302
X13.39967 Y21.10960
X13.19484 Y21.06827
X13.00671 Y21.06827
X12.80185 Y21.10960
X12.59197 Y21.20302
X12.42423 Y21.32761
X12.28606 Y21.48435
X12.19198 Y21.64729
X12.12098 Y21.86578
X12.10079 Y22.06332
X12.10079 Y23.64332
X7.51492 Y23.64332
G04 P0 ( dwell for no time -- G64 should not smooth over this point )
G00 Z5.00000 ( retract )

G00 X9.10080 Y19.59672 ( rapid move to begin. )
F300.00000
G01 Z-0.05000
G04 P0 ( dwell for no time -- G64 should not smooth over this point )
F600.00000
G01 X9.10080 Y19.59672
X9.10080 Y22.06332
X9.12099 Y22.26090
X9.18347 Y22.46029
X9.28606 Y22.64233
X9.42424 Y22.79908
X9.59198 Y22.92367
X9.78197 Y23.01063
X10.00671 Y23.05839
X10.21563 Y23.05620
X10.41956 Y23.01063
X10.60956 Y22.92367
X10.76178 Y22.81307
X10.90318 Y22.65925
X11.01806 Y22.46029
X11.08055 Y22.26090
X11.10079 Y22.06332
X11.10079 Y19.42057
X11.21156 Y19.21184
X11.25149 Y19.05761
X11.26261 Y18.87851
X11.23747 Y18.70081
X11.16815 Y18.51367
X11.07151 Y18.36246
X10.94638 Y18.23381
X10.81563 Y18.14280
X10.65152 Y18.07016
X10.48819 Y18.03472
X10.36917 Y17.97653
X10.18741 Y17.92784
X9.97890 Y17.91471
X9.77217 Y17.94524
X9.54166 Y18.03795
X9.30613 Y18.10231
X9.15022 Y18.19119
X9.02935 Y18.29497
X8.91789 Y18.43564
X8.83702 Y18.59581
X8.78700 Y18.78903
X8.77994 Y18.96835
X8.80407 Y19.12583
X8.86450 Y19.29482
X8.97004 Y19.46419
X9.10080 Y19.59672
G04 P0 ( dwell for no time -- G64 should not smooth over this point )
G00 Z5.00000 ( retract )

G00 X8.77778 Y15.58591 ( rapid move to begin. )
F300.00000
G01 Z-0.05000
G04 P0 ( dwell for no time -- G64 should not smooth over this point )
F600.00000
G01 X8.77778 Y15.58591
X8.77778 Y17.16071
X8.81543 Y17.23892
X8.87778 Y17.26071
X11.16378 Y17.26071
X11.24196 Y17.22307
X11.26378 Y17.16071
X11.26378 Y15.58591
X11.22612 Y15.50773
X11.16378 Y15.48591
X8.87778 Y15.48591
X8.81543 Y15.50773
X8.77778 Y15.58591
G04 P0 ( dwell for no time -- G64 should not smooth over this point )
G00 Z5.00000 ( retract )

G00 X4.89661 Y17.50587 ( rapid move to begin. )
F300.00000
G01 Z-0.05000
G04 P0 ( dwell for no time -- G64 should not smooth over this point )
F600.00000
G01 X4.89661 Y17.50587
X6.37647 Y17.50587
X6.54754 Y17.53803
X6.68769 Y17.62822
X6.78081 Y17.76452
X6.81822 Y17.94918
X6.81822 Y19.42903
X6.78607 Y19.60013
X6.69590 Y19.74023
X6.55953 Y19.83340
X6.37517 Y19.87076
X4.89486 Y19.87076
X4.72397 Y19.83861
X4.58381 Y19.74844
X4.49072 Y19.61217
X4.45336 Y19.42774
X4.45336 Y17.94740
X4.48549 Y17.77653
X4.57566 Y17.63640
X4.71195 Y17.54328
X4.89661 Y17.50587
G04 P0 ( dwell for no time -- G64 should not smooth over this point )
G00 Z5.00000 ( retract )

G00 X4.77380 Y17.92632 ( rapid move to begin. )
F300.00000
G01 Z-0.05000
G04 P0 ( dwell for no time -- G64 should not smooth over this point )
F600.00000
G01 X4.77380 Y17.92632
X4.77380 Y19.45032
X4.81145 Y19.52852
X4.87380 Y19.55032
X6.39780 Y19.55032
X6.47598 Y19.51267
X6.49780 Y19.45032
X6.49780 Y17.92632
X6.46014 Y17.84814
X6.39780 Y17.82632
X4.87380 Y17.82632
X4.81145 Y17.84814
X4.77380 Y17.92632
G04 P0 ( dwell for no time -- G64 should not smooth over this point )
G00 Z5.00000 ( retract )

G00 X12.19172 Y27.20257 ( rapid move to begin. )
F300.00000
G01 Z-0.05000
G04 P0 ( dwell for no time -- G64 should not smooth over this point )
F600.00000
G01 X12.19172 Y27.20257
X13.15253 Y26.23694
X13.18367 Y26.17512
X13.19324 Y26.07987
X13.16274 Y25.98927
X13.09743 Y25.91919
X13.02979 Y25.88718
X12.96106 Y25.87873
X12.57859 Y25.95132
X7.12297 Y25.95132
X6.60197 Y25.84771
X6.16001 Y25.55239
X5.59811 Y24.99973
X5.52298 Y24.96946
X5.13697 Y24.89270
X4.71406 Y24.61010
X4.43146 Y24.18719
X4.33217 Y23.68836
X4.43141 Y23.18955
X4.71401 Y22.76662
X5.13692 Y22.48402
X5.65821 Y22.38031
X6.12331 Y22.38031
X6.64456 Y22.48397
X7.08652 Y22.77929
X7.57608 Y23.26885
X7.69069 Y23.33017
X8.99912 Y23.33476
X9.11642 Y23.29537
X9.19310 Y23.20561
X9.21502 Y23.11094
X9.19528 Y23.01582
X8.89645 Y22.56220
X8.79280 Y22.04117
X8.79170 Y19.81643
X8.75452 Y19.70505
X8.53006 Y19.36909
X8.43935 Y18.91334
X8.53001 Y18.45763
X8.78858 Y18.07064
X8.94441 Y17.96332
X8.98342 Y17.92065
X9.02228 Y17.80960
X9.00864 Y17.71372
X8.93590 Y17.61430
X8.87479 Y17.58022
X8.72800 Y17.54905
X8.58784 Y17.45886
X8.49473 Y17.32256
X8.45736 Y17.13813
X8.45736 Y15.60699
X8.48949 Y15.43615
X8.57966 Y15.29599
X8.71593 Y15.20288
X8.90059 Y15.16546
X11.14240 Y15.16546
X11.31357 Y15.19767
X11.45372 Y15.28784
X11.54682 Y15.42411
X11.58423 Y15.60877
X11.58423 Y17.13942
X11.55205 Y17.31054
X11.46188 Y17.45068
X11.32558 Y17.54377
X11.16267 Y17.58037
X11.10237 Y17.61494
X11.04169 Y17.68964
X11.01748 Y17.78271
X11.02695 Y17.85746
X11.05703 Y17.92012
X11.10933 Y17.97430
X11.25332 Y18.07120
X11.51148 Y18.45758
X11.60219 Y18.91334
X11.51153 Y19.36904
X11.42383 Y19.51214
X11.40879 Y19.59167
X11.40933 Y21.72189
X11.42474 Y21.79425
X11.45911 Y21.85349
X11.51428 Y21.90281
X11.57694 Y21.93035
X11.69741 Y21.92959
X11.75977 Y21.90119
X11.81425 Y21.85120
X11.85581 Y21.76588
X11.89640 Y21.56454
X12.17900 Y21.14163
X12.60191 Y20.85903
X13.10076 Y20.75976
X13.59957 Y20.85898
X14.02248 Y21.14158
X14.30508 Y21.56449
X14.37813 Y21.93167
X14.41023 Y22.01020
X14.49568 Y22.08823
X14.61414 Y22.11366
X14.72403 Y22.07762
X14.79123 Y22.01031
X14.82339 Y21.93167
X14.89642 Y21.56454
X15.17902 Y21.14163
X15.60193 Y20.85903
X16.12318 Y20.75532
X19.04736 Y20.75425
X19.14594 Y20.72438
X19.37502 Y20.57262
X19.60905 Y20.52547
X19.69552 Y20.48290
X19.75645 Y20.40828
X19.78091 Y20.31506
X19.76443 Y20.22014
X19.72478 Y20.15593
X19.64502 Y20.09299
X19.58190 Y20.06479
X19.33463 Y20.01366
X18.94825 Y19.75547
X18.69006 Y19.36909
X18.59935 Y18.91334
X18.69001 Y18.45763
X18.94820 Y18.07122
X19.33664 Y17.80699
X19.38076 Y17.74796
X19.40616 Y17.64933
X19.39412 Y17.57051
X19.34048 Y17.48395
X18.90718 Y17.14090
X18.69128 Y16.74578
X18.70151 Y16.72731
X19.01429 Y16.72731
X19.11764 Y16.90818
X19.23982 Y17.03965
X19.38592 Y17.14384
X19.56933 Y17.22256
X19.74500 Y17.25665
X20.53585 Y17.26071
X20.72480 Y17.24001
X20.89541 Y17.18433
X21.03471 Y17.10701
X21.18614 Y16.97699
X21.28365 Y16.85101
X21.34662 Y16.72731
X21.65998 Y16.72731
X21.67026 Y16.74575
X21.45444 Y17.14080
X21.33689 Y17.24677
X21.29813 Y17.33970
X21.29836 Y17.41839
X21.33770 Y17.51105
X21.38934 Y17.56249
X21.48215 Y17.60155
X24.80831 Y17.60531
X25.32957 Y17.70897
X25.77145 Y18.00424
X26.00983 Y18.24260
X26.30508 Y18.68448
X26.40879 Y19.20577
X26.41229 Y20.49743
X26.46170 Y20.60465
X26.56388 Y20.67444
X26.68181 Y20.68140
X26.87422 Y20.57277
X27.33076 Y20.48194
X27.78646 Y20.57256
X28.17287 Y20.83078
X28.26901 Y20.97358
X28.32349 Y21.02603
X28.43462 Y21.06487
X28.55529 Y21.04020
X28.62986 Y20.97841
X28.66395 Y20.91727
X28.69509 Y20.77053
X28.78524 Y20.63045
X28.92161 Y20.53726
X29.10619 Y20.49987
X30.63685 Y20.49987
X30.80794 Y20.53203
X30.94810 Y20.62222
X31.04121 Y20.75852
X31.07863 Y20.94318
X31.07863 Y23.18503
X31.04647 Y23.35613
X30.95630 Y23.49623
X30.81993 Y23.58940
X30.63555 Y23.62676
X29.10446 Y23.62676
X28.93357 Y23.59461
X28.79342 Y23.50444
X28.70035 Y23.36817
X28.65521 Y23.18574
X28.57305 Y23.09478
X28.46141 Y23.06004
X28.34218 Y23.08831
X28.26985 Y23.15181
X28.17289 Y23.29588
X27.78651 Y23.55407
X27.68405 Y23.58117
X27.61714 Y23.62679
X23.19157 Y28.05236
X22.74961 Y28.34766
X22.22858 Y28.45131
X14.73660 Y28.45131
X14.61219 Y28.48903
X14.47526 Y28.61865
X14.43337 Y28.67743
X14.40879 Y28.77913
X14.40879 Y31.87140
X14.42474 Y31.95425
X14.45910 Y32.01349
X14.53243 Y32.07320
X14.60305 Y32.09573
X14.69741 Y32.08959
X14.75976 Y32.06119
X14.81425 Y32.01120
X14.84785 Y31.95146
X14.89642 Y31.72454
X15.17902 Y31.30163
X15.60193 Y31.01903
X16.10076 Y30.91976
X16.59956 Y31.01898
X17.02247 Y31.30158
X17.30507 Y31.72449
X17.40878 Y32.24577
X17.40878 Y34.62090
X17.30512 Y35.14213
X17.00982 Y35.58409
X16.04157 Y36.55234
X15.59961 Y36.84764
X15.07856 Y36.95132
X6.12300 Y36.95132
X5.60197 Y36.84769
X5.16001 Y36.55239
X4.72676 Y36.11914
X4.43146 Y35.67718
X4.32778 Y35.15615
X4.32778 Y33.71056
X4.43141 Y33.18953
X4.71401 Y32.76662
X5.13692 Y32.48402
X5.63575 Y32.38476
X5.98165 Y32.45301
X6.07715 Y32.44701
X6.14490 Y32.41501
X6.19501 Y32.36728
X6.23611 Y32.28090
X6.24101 Y32.20612
X6.22366 Y32.13922
X6.17599 Y32.06838
X4.72676 Y30.61915
X4.43146 Y30.17719
X4.32778 Y29.65614
X4.32778 Y28.71057
X4.43141 Y28.18954
X4.71401 Y27.76663
X5.13692 Y27.48403
X5.63578 Y27.38477
X6.13456 Y27.48398
X6.55747 Y27.76658
X6.84007 Y28.18949
X6.94380 Y28.71080
X6.94464 Y29.05553
X6.98144 Y29.16688
X8.66587 Y30.85746
X8.74547 Y30.90341
X8.81662 Y30.91532
X10.07831 Y30.91532
X10.59957 Y31.01898
X11.02248 Y31.30158
X11.30508 Y31.72449
X11.34572 Y31.92591
X11.37501 Y31.99390
X11.45972 Y32.07178
X11.57755 Y32.09779
X11.66896 Y32.07325
X11.72451 Y32.03325
X11.77679 Y31.95425
X11.79279 Y31.87140
X11.79279 Y28.16554
X11.89640 Y27.64453
X12.19172 Y27.20257
G04 P0 ( dwell for no time -- G64 should not smooth over this point )
G00 Z5.00000 ( retract )

G00 X14.51496 Y28.14331 ( rapid move to begin. )
F300.00000
G01 Z-0.05000
G04 P0 ( dwell for no time -- G64 should not smooth over this point )
F600.00000
G01 X14.51496 Y28.14331
X22.25078 Y28.14331
X22.49673 Y28.11182
X22.73902 Y28.01515
X22.95784 Y27.85043
X27.52550 Y23.28277
X27.73043 Y23.21071
X27.88163 Y23.11406
X28.01028 Y22.98894
X28.10129 Y22.85818
X28.17393 Y22.69407
X28.20937 Y22.53078
X28.26756 Y22.41175
X28.31953 Y22.20939
X28.32829 Y22.00063
X28.29885 Y21.81478
X28.20614 Y21.58427
X28.14178 Y21.34869
X28.05290 Y21.19278
X27.93444 Y21.05796
X27.79131 Y20.94975
X27.62928 Y20.87254
X27.45506 Y20.82956
X27.27574 Y20.82250
X27.09868 Y20.85171
X26.93111 Y20.91595
X26.79591 Y21.00020
X26.66444 Y21.12237
X26.56025 Y21.26847
X26.48760 Y21.43258
X26.46954 Y21.51038
X21.83661 Y26.14332
X14.10079 Y26.14332
X13.82954 Y26.18162
X13.61247 Y26.27154
X13.40350 Y26.42762
X12.39368 Y27.43625
X12.24199 Y27.63249
X12.13904 Y27.87214
X12.10163 Y28.13028
X12.10079 Y32.22332
X12.12098 Y32.42090
X12.18347 Y32.62029
X12.29835 Y32.81925
X12.43975 Y32.97307
X12.59197 Y33.08367
X12.78197 Y33.17063
X13.00671 Y33.21839
X13.21562 Y33.21620
X13.41956 Y33.17063
X13.60955 Y33.08367
X13.77729 Y32.95908
X13.91547 Y32.80233
X14.01806 Y32.62029
X14.08054 Y32.42090
X14.10079 Y32.22332
X14.10079 Y28.55749
X14.51496 Y28.14331
G04 P0 ( dwell for no time -- G64 should not smooth over this point )
G00 Z5.00000 ( retract )

G00 X19.22658 Y21.06332 ( rapid move to begin. )
F300.00000
G01 Z-0.05000
G04 P0 ( dwell for no time -- G64 should not smooth over this point )
F600.00000
G01 X19.22658 Y21.06332
X16.10078 Y21.06332
X15.88275 Y21.08791
X15.70380 Y21.14605
X15.52176 Y21.24864
X15.36502 Y21.38681
X15.24043 Y21.55455
X15.15346 Y21.74455
X15.10790 Y21.94848
X15.10571 Y22.15740
X15.14701 Y22.36225
X15.24043 Y22.57213
X15.36502 Y22.73987
X15.52176 Y22.87805
X15.68470 Y22.97213
X15.90319 Y23.04312
X16.10078 Y23.06331
X19.22143 Y23.06331
X19.37024 Y23.17690
X19.51327 Y23.24708
X19.68650 Y23.29405
X19.88581 Y23.30416
X20.04329 Y23.28003
X20.21228 Y23.21960
X20.38165 Y23.11406
X20.51030 Y22.98894
X20.60131 Y22.85818
X20.67395 Y22.69407
X20.70763 Y22.54033
X20.78452 Y22.36225
X20.82584 Y22.15740
X20.82363 Y21.94848
X20.78452 Y21.76443
X20.70618 Y21.58453
X20.64179 Y21.34869
X20.55292 Y21.19278
X20.43445 Y21.05796
X20.29132 Y20.94975
X20.14830 Y20.87957
X19.97507 Y20.83261
X19.77576 Y20.82250
X19.59869 Y20.85171
X19.43113 Y20.91595
X19.29592 Y21.00020
X19.22658 Y21.06332
G04 P0 ( dwell for no time -- G64 should not smooth over this point )
G00 Z5.00000 ( retract )

G00 X21.48340 Y20.92032 ( rapid move to begin. )
F300.00000
G01 Z-0.05000
G04 P0 ( dwell for no time -- G64 should not smooth over this point )
F600.00000
G01 X21.48340 Y20.92032
X21.48340 Y23.20632
X21.50519 Y23.26867
X21.58340 Y23.30632
X23.15820 Y23.30632
X23.22053 Y23.28452
X23.25820 Y23.20632
X23.25820 Y20.92032
X23.23638 Y20.85798
X23.15820 Y20.82032
X21.58340 Y20.82032
X21.50519 Y20.85798
X21.48340 Y20.92032
G04 P0 ( dwell for no time -- G64 should not smooth over this point )
G00 Z5.00000 ( retract )

G00 X24.10079 Y19.91331 ( rapid move to begin. )
F300.00000
G01 Z-0.05000
G04 P0 ( dwell for no time -- G64 should not smooth over this point )
F600.00000
G01 X24.10079 Y19.91331
X24.10079 Y20.72331
X24.12533 Y20.94135
X24.18347 Y21.12029
X24.28606 Y21.30233
X24.43975 Y21.47307
X24.59198 Y21.58366
X24.78197 Y21.67063
X24.98590 Y21.71620
X25.19485 Y21.71838
X25.39967 Y21.67708
X25.59144 Y21.59410
X25.76177 Y21.47307
X25.90317 Y21.31925
X26.01806 Y21.12029
X26.07620 Y20.94135
X26.10023 Y20.73378
X26.10079 Y19.18331
X26.06924 Y18.93731
X25.97257 Y18.69505
X25.80785 Y18.47625
X25.53785 Y18.20625
X25.34166 Y18.05456
X25.10193 Y17.95162
X24.83079 Y17.91331
X20.18078 Y17.91331
X19.98320 Y17.93356
X19.78381 Y17.99604
X19.70794 Y18.03731
X19.48472 Y18.09434
X19.31022 Y18.19119
X19.17540 Y18.30965
X19.06720 Y18.45278
X18.99702 Y18.59581
X18.95005 Y18.76904
X18.93893 Y18.94813
X18.96407 Y19.12583
X19.03339 Y19.31298
X19.13004 Y19.46419
X19.25516 Y19.59284
X19.40362 Y19.69365
X19.55003 Y19.75649
X19.71152 Y19.79141
X19.78381 Y19.83063
X19.96275 Y19.88877
X20.18078 Y19.91331
X24.10079 Y19.91331
G04 P0 ( dwell for no time -- G64 should not smooth over this point )
G00 Z5.00000 ( retract )

G00 X28.98338 Y20.92032 ( rapid move to begin. )
F300.00000
G01 Z-0.05000
G04 P0 ( dwell for no time -- G64 should not smooth over this point )
F600.00000
G01 X28.98338 Y20.92032
X28.98338 Y23.20632
X29.00518 Y23.26867
X29.08338 Y23.30632
X30.65818 Y23.30632
X30.72051 Y23.28452
X30.75818 Y23.20632
X30.75818 Y20.92032
X30.73636 Y20.85798
X30.65818 Y20.82032
X29.08338 Y20.82032
X29.00518 Y20.85798
X28.98338 Y20.92032
G04 P0 ( dwell for no time -- G64 should not smooth over this point )
G00 Z5.00000 ( retract )

G00 X20.53478 Y15.17791 ( rapid move to begin. )
F300.00000
G01 Z-0.05000
G04 P0 ( dwell for no time -- G64 should not smooth over this point )
F600.00000
G01 X20.53478 Y15.17791
X20.63069 Y15.17791
X21.09079 Y15.31286
X21.45434 Y15.60575
X21.67024 Y16.00090
X21.66003 Y16.01931
X21.34723 Y16.01931
X21.23151 Y15.82246
X21.10638 Y15.69381
X20.97563 Y15.60280
X20.79221 Y15.52409
X20.63615 Y15.49203
X20.53478 Y15.48959
X20.53478 Y15.17791
G04 P0 ( dwell for no time -- G64 should not smooth over this point )
G00 Z5.00000 ( retract )

G00 X19.73080 Y15.17791 ( rapid move to begin. )
F300.00000
G01 Z-0.05000
G04 P0 ( dwell for no time -- G64 should not smooth over this point )
F600.00000
G01 X19.73080 Y15.17791
X19.82678 Y15.17791
X19.82678 Y15.48594
X19.63674 Y15.50664
X19.46613 Y15.56231
X19.32684 Y15.63963
X19.17540 Y15.76965
X19.07789 Y15.89564
X19.01495 Y16.01931
X18.70151 Y16.01931
X18.69128 Y16.00095
X18.90715 Y15.60580
X19.27070 Y15.31291
X19.73080 Y15.17791
G04 P0 ( dwell for no time -- G64 should not smooth over this point )
G00 Z5.00000 ( retract )

G00 X20.40407 Y8.94724 ( rapid move to begin. )
F300.00000
G01 Z-0.05000
G04 P0 ( dwell for no time -- G64 should not smooth over this point )
F600.00000
G01 X20.40407 Y8.94724
X20.64586 Y9.19108
X20.27474 Y9.32354
X19.80403 Y9.29999
X19.55523 Y9.18948
X19.79745 Y8.94724
X20.02117 Y9.00111
X20.20121 Y8.99893
X20.40407 Y8.94724
G04 P0 ( dwell for no time -- G64 should not smooth over this point )
G00 Z5.00000 ( retract )

G00 X21.14690 Y7.59776 ( rapid move to begin. )
F300.00000
G01 Z-0.05000
G04 P0 ( dwell for no time -- G64 should not smooth over this point )
F600.00000
G01 X21.14690 Y7.59776
X21.28096 Y7.96942
X21.25741 Y8.44008
X21.14692 Y8.68890
X20.90430 Y8.44630
X20.94558 Y8.31219
X20.96224 Y8.15377
X20.94558 Y7.97444
X20.90430 Y7.84041
X21.14690 Y7.59776
G04 P0 ( dwell for no time -- G64 should not smooth over this point )
G00 Z5.00000 ( retract )

G00 X19.79745 Y7.33939 ( rapid move to begin. )
F300.00000
G01 Z-0.05000
G04 P0 ( dwell for no time -- G64 should not smooth over this point )
F600.00000
G01 X19.79745 Y7.33939
X19.55566 Y7.09560
X19.92681 Y6.96314
X20.39750 Y6.98669
X20.64385 Y7.08877
X20.40413 Y7.33939
X20.18043 Y7.28549
X20.00037 Y7.28770
X19.79745 Y7.33939
G04 P0 ( dwell for no time -- G64 should not smooth over this point )
G00 Z5.00000 ( retract )

G00 X19.04619 Y7.60025 ( rapid move to begin. )
F300.00000
G01 Z-0.05000
G04 P0 ( dwell for no time -- G64 should not smooth over this point )
F600.00000
G01 X19.04619 Y7.60025
X19.29724 Y7.84038
X19.25599 Y7.97444
X19.23933 Y8.15377
X19.25599 Y8.31219
X19.29727 Y8.44622
X19.05465 Y8.68890
X18.92059 Y8.31732
X18.94411 Y7.84661
X19.04619 Y7.60025
G04 P0 ( dwell for no time -- G64 should not smooth over this point )
G00 Z5.00000 ( retract )

G00 X38.51491 Y15.64331 ( rapid move to begin. )
F300.00000
G01 Z-0.05000
G04 P0 ( dwell for no time -- G64 should not smooth over this point )
F600.00000
G01 X38.51491 Y15.64331
X37.10079 Y14.22919
X37.10079 Y9.14333
X37.06249 Y8.87216
X36.97257 Y8.65509
X36.81651 Y8.44610
X35.80788 Y7.43624
X35.61164 Y7.28458
X35.37196 Y7.18161
X35.10079 Y7.14331
X30.51490 Y7.14331
X27.80784 Y4.43625
X27.58902 Y4.27151
X27.34673 Y4.17486
X27.11384 Y4.14418
X9.10080 Y4.14331
X8.85475 Y4.17486
X8.61248 Y4.27153
X8.39368 Y4.43625
X1.39367 Y11.43626
X1.22893 Y11.65511
X1.13228 Y11.89737
X1.10079 Y12.14332
X1.10079 Y36.64332
X1.13228 Y36.88932
X1.22895 Y37.13161
X1.39367 Y37.35043
X7.89369 Y43.85042
X8.11251 Y44.01514
X8.32958 Y44.10506
X8.58774 Y44.14247
X21.60080 Y44.14331
X21.84674 Y44.11181
X22.08903 Y44.01514
X22.30786 Y43.85042
X25.51496 Y40.64331
X26.69124 Y40.64278
X26.89878 Y40.61878
X27.07772 Y40.56064
X27.25976 Y40.45805
X27.43050 Y40.30435
X27.55153 Y40.13402
X27.63452 Y39.94225
X27.67584 Y39.73740
X27.67584 Y39.54926
X27.62806 Y39.32455
X27.54109 Y39.13455
X27.43050 Y38.98233
X27.27668 Y38.84093
X27.09682 Y38.73456
X26.89878 Y38.66791
X26.68080 Y38.64332
X25.08771 Y38.64418
X24.85474 Y38.67487
X24.61247 Y38.77154
X24.39368 Y38.93626
X21.18662 Y42.14331
X9.01492 Y42.14331
X3.10078 Y36.22920
X3.10078 Y12.55749
X9.51497 Y6.14331
X26.68656 Y6.14331
X29.23878 Y8.69552
X29.24127 Y8.92758
X29.29537 Y8.99542
X29.59545 Y9.00530
X29.82956 Y9.10505
X30.10078 Y9.14330
X34.68652 Y9.14330
X35.10079 Y9.55755
X35.10079 Y14.64332
X35.13905 Y14.91454
X35.24202 Y15.15421
X35.39368 Y15.35043
X37.39368 Y17.35042
X37.58989 Y17.50209
X37.82957 Y17.60506
X38.10079 Y17.64331
X62.59378 Y17.64331
X62.83973 Y17.61181
X63.08199 Y17.51517
X63.30084 Y17.35045
X66.00797 Y14.64332
X75.60079 Y14.64332
X75.84674 Y14.61182
X76.08903 Y14.51515
X76.30785 Y14.35043
X80.15295 Y10.50533
X80.38503 Y10.50284
X80.44096 Y10.46768
X80.46278 Y10.40533
X80.46278 Y10.14338
X80.53756 Y9.99176
X80.58625 Y9.81003
X80.59829 Y9.58064
X80.56344 Y9.37459
X80.46278 Y9.14376
X80.46027 Y8.85908
X80.40616 Y8.79123
X80.10040 Y8.78133
X79.86956 Y8.68067
X79.64264 Y8.64472
X79.43411 Y8.65786
X79.25237 Y8.70655
X79.10081 Y8.78133
X78.79537 Y8.79123
X78.74127 Y8.85908
X78.73878 Y9.09116
X75.18662 Y12.64332
X65.59380 Y12.64332
X65.34777 Y12.67487
X65.12791 Y12.76227
X64.79047 Y12.76478
X64.75039 Y12.78409
X64.71524 Y12.84002
X64.71275 Y13.11017
X62.17961 Y15.64331
X38.51491 Y15.64331
G04 P0 ( dwell for no time -- G64 should not smooth over this point )
G00 Z5.00000 ( retract )

G00 X44.95465 Y12.02742 ( rapid move to begin. )
F300.00000
G01 Z-0.05000
G04 P0 ( dwell for no time -- G64 should not smooth over this point )
F600.00000
G01 X44.95465 Y12.02742
X44.97690 Y12.02008
X45.20852 Y12.25168
X45.14982 Y12.43052
X45.12635 Y12.63288
X45.14548 Y12.83570
X45.20852 Y13.03496
X44.97690 Y13.26661
X44.96039 Y13.26120
X44.80789 Y12.84281
X44.83021 Y12.32778
X44.95465 Y12.02742
G04 P0 ( dwell for no time -- G64 should not smooth over this point )
G00 Z5.00000 ( retract )

G00 X46.71672 Y11.49722 ( rapid move to begin. )
F300.00000
G01 Z-0.05000
G04 P0 ( dwell for no time -- G64 should not smooth over this point )
F600.00000
G01 X46.71672 Y11.49722
X46.72404 Y11.51942
X46.48924 Y11.75429
X46.39196 Y11.71335
X46.21301 Y11.67533
X46.00936 Y11.67314
X45.80961 Y11.71335
X45.71233 Y11.75432
X45.47748 Y11.51950
X45.48289 Y11.50296
X45.90131 Y11.35046
X46.41634 Y11.37279
X46.71672 Y11.49722
G04 P0 ( dwell for no time -- G64 should not smooth over this point )
G00 Z5.00000 ( retract )

G00 X47.22462 Y12.02005 ( rapid move to begin. )
F300.00000
G01 Z-0.05000
G04 P0 ( dwell for no time -- G64 should not smooth over this point )
F600.00000
G01 X47.22462 Y12.02005
X47.24116 Y12.02549
X47.39366 Y12.44388
X47.37133 Y12.95891
X47.24690 Y13.25927
X47.22465 Y13.26661
X46.99305 Y13.03504
X47.05175 Y12.85615
X47.07522 Y12.65378
X47.05609 Y12.45097
X46.99305 Y12.25168
X47.22462 Y12.02005
G04 P0 ( dwell for no time -- G64 should not smooth over this point )
G00 Z5.00000 ( retract )

G00 X46.48919 Y13.53237 ( rapid move to begin. )
F300.00000
G01 Z-0.05000
G04 P0 ( dwell for no time -- G64 should not smooth over this point )
F600.00000
G01 X46.48919 Y13.53237
X46.72406 Y13.76719
X46.71863 Y13.78373
X46.30024 Y13.93623
X45.78520 Y13.91390
X45.48480 Y13.78947
X45.47748 Y13.76722
X45.71230 Y13.53235
X45.80961 Y13.57332
X46.00936 Y13.61350
X46.21301 Y13.61134
X46.39196 Y13.57332
X46.48919 Y13.53237
G04 P0 ( dwell for no time -- G64 should not smooth over this point )
G00 Z5.00000 ( retract )

G00 X42.12321 Y7.83530 ( rapid move to begin. )
F300.00000
G01 Z-0.05000
G04 P0 ( dwell for no time -- G64 should not smooth over this point )
F600.00000
G01 X42.12321 Y7.83530
X53.57828 Y7.83530
X54.09956 Y7.93899
X54.54152 Y8.23429
X57.94027 Y11.63303
X58.01543 Y11.68249
X58.08655 Y11.69872
X58.18609 Y11.68249
X58.26128 Y11.63303
X61.15995 Y8.73434
X61.60191 Y8.43904
X62.12322 Y8.33530
X74.57829 Y8.33530
X75.09957 Y8.43898
X75.52248 Y8.72159
X75.80508 Y9.14450
X75.90434 Y9.64335
X75.80513 Y10.14213
X75.52253 Y10.56504
X75.09962 Y10.84764
X74.57857 Y10.95132
X62.73660 Y10.95132
X62.66541 Y10.96331
X62.57608 Y11.01785
X59.04156 Y14.55233
X58.59960 Y14.84766
X58.37273 Y14.89622
X58.29308 Y14.94740
X58.25231 Y15.00237
X58.22887 Y15.07242
X58.24012 Y15.18705
X58.27680 Y15.25132
X58.32747 Y15.29732
X58.45272 Y15.33531
X61.95797 Y15.33531
X62.05967 Y15.31073
X62.11844 Y15.26884
X64.32578 Y13.06151
X64.38031 Y12.97217
X64.42443 Y12.71248
X64.51460 Y12.57235
X64.65090 Y12.47924
X64.83602 Y12.44175
X65.10261 Y12.43748
X65.61620 Y12.33532
X74.96498 Y12.33532
X75.03605 Y12.32341
X75.12545 Y12.26885
X78.35184 Y9.04246
X78.41059 Y8.93832
X78.45052 Y8.73149
X78.54066 Y8.59138
X78.67693 Y8.49829
X78.86159 Y8.46088
X79.05174 Y8.45438
X79.60073 Y8.33975
X80.14973 Y8.45435
X80.34145 Y8.46088
X80.51257 Y8.49306
X80.65270 Y8.58323
X80.74581 Y8.71953
X80.78323 Y8.90419
X80.78973 Y9.09428
X80.90433 Y9.64335
X80.78973 Y10.19237
X80.78323 Y10.38404
X80.75107 Y10.55514
X80.66088 Y10.69527
X80.52468 Y10.78831
X80.30307 Y10.83420
X80.20164 Y10.89227
X76.54158 Y14.55233
X76.09962 Y14.84766
X75.57859 Y14.95132
X66.18361 Y14.95652
X66.06908 Y15.01784
X63.53457 Y17.55235
X63.09261 Y17.84765
X62.57158 Y17.95131
X38.12296 Y17.95131
X37.60196 Y17.84770
X37.16000 Y17.55240
X35.19175 Y15.58416
X34.89645 Y15.14220
X34.79279 Y14.62117
X34.79279 Y9.77914
X34.75507 Y9.65478
X34.62548 Y9.51782
X34.56668 Y9.47594
X34.46498 Y9.45130
X30.12295 Y9.45130
X29.55178 Y9.33230
X29.35981 Y9.32575
X29.18897 Y9.29362
X29.04884 Y9.20345
X28.95580 Y9.06725
X28.90990 Y8.84564
X28.85184 Y8.74422
X26.58931 Y6.48900
X26.46497 Y6.45131
X25.45271 Y6.45131
X25.36975 Y6.46736
X25.29083 Y6.51961
X25.24013 Y6.59957
X25.22632 Y6.66657
X25.24125 Y6.76015
X25.27892 Y6.82390
X25.37280 Y6.89050
X25.59957 Y6.93899
X26.02248 Y7.22159
X26.30508 Y7.64450
X26.40879 Y8.16576
X26.40879 Y10.50748
X26.42070 Y10.57860
X26.46662 Y10.65818
X36.58865 Y20.78140
X36.70325 Y20.84272
X36.95446 Y20.84788
X37.12556 Y20.88003
X37.26566 Y20.97020
X37.35883 Y21.10657
X37.39624 Y21.29118
X37.39624 Y22.08018
X37.40879 Y22.16431
X37.40879 Y35.50749
X37.42070 Y35.57861
X37.46663 Y35.65818
X37.57605 Y35.76885
X37.69068 Y35.83017
X39.15832 Y35.83532
X39.67958 Y35.93898
X40.10249 Y36.22158
X40.38509 Y36.64449
X40.48879 Y37.16578
X40.48879 Y41.58751
X40.51338 Y41.68926
X40.55527 Y41.74804
X46.08586 Y47.27746
X46.16547 Y47.32341
X46.23661 Y47.33533
X53.93492 Y47.33533
X54.03949 Y47.30944
X54.12946 Y47.22463
X54.16029 Y47.13248
X54.14968 Y47.03591
X53.89646 Y46.64219
X53.79278 Y46.12113
X53.78757 Y34.73319
X53.72626 Y34.61866
X48.62546 Y29.51784
X48.51093 Y29.45652
X42.63578 Y29.45131
X42.54762 Y29.46955
X42.45176 Y29.54600
X42.40939 Y29.66716
X42.40878 Y31.62174
X42.38546 Y31.75083
X42.38404 Y31.89733
X42.33423 Y32.01783
X42.30545 Y32.14229
X42.23827 Y32.25014
X42.18915 Y32.36909
X42.09702 Y32.46137
X42.02280 Y32.56533
X41.91948 Y32.63927
X41.82852 Y32.73035
X41.70812 Y32.78036
X41.59971 Y32.84803
X41.47602 Y32.87673
X41.35702 Y32.92611
X41.22679 Y32.92626
X41.10071 Y32.94727
X40.97541 Y32.92646
X40.84673 Y32.92662
X40.72623 Y32.87681
X40.60175 Y32.84800
X40.49395 Y32.78085
X40.37503 Y32.73172
X40.28275 Y32.63960
X40.17879 Y32.56538
X40.10485 Y32.46205
X40.01371 Y32.37104
X39.96375 Y32.25075
X39.89611 Y32.14232
X39.86738 Y32.01859
X39.81801 Y31.89959
X39.81625 Y31.75164
X39.79278 Y31.62212
X39.79278 Y28.66554
X39.89639 Y28.14453
X40.19172 Y27.70257
X40.65997 Y27.23432
X41.10193 Y26.93902
X41.47340 Y26.86511
X41.55349 Y26.83199
X41.62138 Y26.76254
X41.65567 Y26.64949
X41.63781 Y26.55399
X41.58961 Y26.48198
X40.19177 Y25.08414
X39.89644 Y24.64218
X39.79278 Y24.12117
X39.79278 Y22.16469
X39.81605 Y22.03586
X39.81747 Y21.88933
X39.86728 Y21.76888
X39.89611 Y21.64432
X39.96327 Y21.53652
X40.01239 Y21.41760
X40.10452 Y21.32532
X40.17874 Y21.22136
X40.28209 Y21.14742
X40.37305 Y21.05631
X40.49339 Y21.00632
X40.60180 Y20.93866
X40.72552 Y20.90995
X40.84450 Y20.86058
X40.97475 Y20.86042
X41.10081 Y20.83939
X41.22613 Y20.86019
X41.35478 Y20.86004
X41.47523 Y20.90985
X41.59971 Y20.93866
X41.70756 Y21.00584
X41.82651 Y21.05496
X41.91879 Y21.14709
X42.02275 Y21.22131
X42.09669 Y21.32463
X42.18778 Y21.41559
X42.23779 Y21.53599
X42.30545 Y21.64439
X42.33416 Y21.76809
X42.38353 Y21.88709
X42.38526 Y22.03502
X42.40878 Y22.16504
X42.40878 Y23.50748
X42.42069 Y23.57860
X42.47525 Y23.66801
X43.07609 Y24.26885
X43.13484 Y24.31073
X43.22359 Y24.33448
X67.97800 Y24.33448
X68.06667 Y24.31073
X68.12544 Y24.26885
X74.15995 Y18.23434
X74.60191 Y17.93902
X75.12319 Y17.83531
X80.57830 Y17.83531
X81.09956 Y17.93897
X81.54152 Y18.23429
X83.50977 Y20.20254
X83.80507 Y20.64450
X83.90880 Y21.16578
X83.90880 Y24.12087
X83.80512 Y24.64213
X83.50982 Y25.08409
X79.11107 Y29.48283
X79.05420 Y29.57915
X79.04787 Y29.67984
X79.07396 Y29.75431
X79.11107 Y29.80384
X88.50978 Y39.20253
X88.80508 Y39.64449
X88.90879 Y40.16577
X88.90879 Y46.12088
X88.80513 Y46.64213
X88.52253 Y47.06504
X88.09962 Y47.34764
X87.60077 Y47.44691
X87.10196 Y47.34770
X86.67905 Y47.06510
X86.39645 Y46.64219
X86.29279 Y46.12115
X86.29279 Y40.77913
X86.25507 Y40.65477
X76.19177 Y30.58415
X75.89645 Y30.14219
X75.79718 Y29.64336
X75.86294 Y29.30994
X75.84808 Y29.18896
X75.81202 Y29.12985
X75.75492 Y29.08141
X75.69083 Y29.05548
X75.61603 Y29.05058
X75.54915 Y29.06793
X75.47831 Y29.11560
X70.54157 Y34.05234
X70.09961 Y34.34765
X69.57860 Y34.45130
X62.21651 Y34.45217
X62.12779 Y34.47599
X62.06909 Y34.51783
X61.47527 Y35.11165
X61.43338 Y35.17043
X61.40879 Y35.27213
X61.40879 Y44.60831
X61.42698 Y44.69647
X61.50343 Y44.79233
X61.57448 Y44.82652
X61.63579 Y44.83531
X82.57827 Y44.83531
X83.14972 Y44.95436
X83.34146 Y44.96088
X83.51256 Y44.99306
X83.65272 Y45.08323
X83.74581 Y45.21951
X83.78322 Y45.40416
X83.78972 Y45.59428
X83.90435 Y46.14330
X83.78972 Y46.69238
X83.78322 Y46.88402
X83.75104 Y47.05514
X83.66087 Y47.19530
X83.52460 Y47.28839
X83.34017 Y47.32575
X83.14975 Y47.33230
X82.57860 Y47.45130
X60.72350 Y47.45217
X60.63478 Y47.47599
X60.57608 Y47.51782
X58.54157 Y49.55234
X58.09961 Y49.84764
X57.57858 Y49.95132
X45.62300 Y49.95132
X45.10197 Y49.84769
X44.66001 Y49.55239
X38.27176 Y43.16414
X37.97646 Y42.72218
X37.87280 Y42.20117
X37.87280 Y38.67832
X37.84488 Y38.57009
X37.77811 Y38.49435
X37.68530 Y38.45518
X37.12296 Y38.45132
X36.60196 Y38.34771
X36.16000 Y38.05239
X35.19175 Y37.08414
X34.89645 Y36.64218
X34.79279 Y36.12117
X34.79279 Y22.77914
X34.78081 Y22.70799
X34.72627 Y22.61866
X24.19175 Y12.08414
X23.89645 Y11.64218
X23.79279 Y11.12117
X23.79279 Y8.16553
X23.89640 Y7.64455
X24.17900 Y7.22164
X24.60191 Y6.93904
X24.84801 Y6.88219
X24.90854 Y6.83924
X24.94920 Y6.78440
X24.97503 Y6.69324
X24.95067 Y6.57516
X24.87399 Y6.48931
X24.78596 Y6.45471
X9.73661 Y6.45131
X9.66541 Y6.46330
X9.57608 Y6.51783
X3.44643 Y12.65480
X3.40878 Y12.77913
X3.40962 Y36.02051
X3.43337 Y36.10924
X3.47525 Y36.16801
X9.07608 Y41.76884
X9.19069 Y41.83016
X21.01086 Y41.83016
X21.12546 Y41.76884
X24.15995 Y38.73433
X24.60191 Y38.43903
X25.12319 Y38.33532
X26.65832 Y38.33532
X27.17958 Y38.43898
X27.60249 Y38.72158
X27.88509 Y39.14449
X27.98435 Y39.64334
X27.88514 Y40.14215
X27.60254 Y40.56506
X27.17963 Y40.84766
X26.65860 Y40.95132
X25.73660 Y40.95132
X25.61219 Y40.98903
X22.54156 Y44.05235
X22.09963 Y44.34765
X21.57860 Y44.45131
X8.62297 Y44.45131
X8.10197 Y44.34770
X7.66001 Y44.05240
X1.19177 Y37.58414
X0.89644 Y37.14218
X0.79279 Y36.62117
X0.79279 Y12.16555
X0.89639 Y11.64454
X1.19172 Y11.20258
X8.15995 Y4.23435
X8.60191 Y3.93902
X9.12320 Y3.83531
X27.07831 Y3.83531
X27.59956 Y3.93897
X28.04152 Y4.23429
X30.57609 Y6.76883
X30.63484 Y6.81072
X30.73662 Y6.83531
X35.07829 Y6.83531
X35.59957 Y6.93899
X36.04153 Y7.23429
X37.00978 Y8.20254
X37.30508 Y8.64450
X37.40879 Y9.16578
X37.41395 Y14.05340
X37.47526 Y14.16803
X38.57607 Y15.26884
X38.66546 Y15.32340
X38.73660 Y15.33531
X57.74888 Y15.33531
X57.87398 Y15.29739
X57.95063 Y15.21167
X57.97316 Y15.14105
X57.97273 Y15.07273
X57.94929 Y15.00245
X57.90862 Y14.94751
X57.82889 Y14.89625
X57.60197 Y14.84771
X57.16001 Y14.55238
X53.12545 Y10.51785
X53.06667 Y10.47596
X52.97808 Y10.45219
X42.73662 Y10.45133
X42.66542 Y10.46331
X42.58592 Y10.50921
X42.47525 Y10.61864
X42.41394 Y10.73327
X42.40878 Y12.62176
X42.38546 Y12.75081
X42.38404 Y12.89737
X42.33423 Y13.01787
X42.30545 Y13.14233
X42.23827 Y13.25015
X42.18915 Y13.36907
X42.09702 Y13.46135
X42.02280 Y13.56531
X41.91945 Y13.63925
X41.82847 Y13.73039
X41.70812 Y13.78038
X41.59971 Y13.84804
X41.47604 Y13.87674
X41.35707 Y13.92610
X41.22679 Y13.92625
X41.10073 Y13.94728
X40.97541 Y13.92648
X40.84681 Y13.92663
X40.72626 Y13.87679
X40.60175 Y13.84799
X40.49395 Y13.78083
X40.37500 Y13.73171
X40.28275 Y13.63961
X40.17881 Y13.56542
X40.10485 Y13.46201
X40.01371 Y13.37106
X39.96378 Y13.25076
X39.89611 Y13.14233
X39.86738 Y13.01858
X39.81801 Y12.89961
X39.81625 Y12.75165
X39.79278 Y12.62214
X39.79278 Y10.16555
X39.89639 Y9.64455
X40.19172 Y9.20259
X41.15996 Y8.23434
X41.60192 Y7.93904
X42.12321 Y7.83530
G04 P0 ( dwell for no time -- G64 should not smooth over this point )
G00 Z5.00000 ( retract )

G00 X45.47746 Y21.01948 ( rapid move to begin. )
F300.00000
G01 Z-0.05000
G04 P0 ( dwell for no time -- G64 should not smooth over this point )
F600.00000
G01 X45.47746 Y21.01948
X45.48289 Y21.00294
X45.90131 Y20.85044
X46.41634 Y20.87277
X46.71670 Y20.99720
X46.72404 Y21.01945
X46.48924 Y21.25430
X46.39196 Y21.21336
X46.21301 Y21.17533
X46.00936 Y21.17315
X45.80961 Y21.21336
X45.71233 Y21.25433
X45.47746 Y21.01948
G04 P0 ( dwell for no time -- G64 should not smooth over this point )
G00 Z5.00000 ( retract )

G00 X45.20852 Y22.53497 ( rapid move to begin. )
F300.00000
G01 Z-0.05000
G04 P0 ( dwell for no time -- G64 should not smooth over this point )
F600.00000
G01 X45.20852 Y22.53497
X44.97690 Y22.76662
X44.96039 Y22.76121
X44.80789 Y22.34279
X44.83021 Y21.82776
X44.95465 Y21.52738
X44.97687 Y21.52006
X45.20852 Y21.75168
X45.14982 Y21.93053
X45.12635 Y22.13289
X45.14548 Y22.33571
X45.20852 Y22.53497
G04 P0 ( dwell for no time -- G64 should not smooth over this point )
G00 Z5.00000 ( retract )

G00 X46.72406 Y23.26720 ( rapid move to begin. )
F300.00000
G01 Z-0.05000
G04 P0 ( dwell for no time -- G64 should not smooth over this point )
F600.00000
G01 X46.72406 Y23.26720
X46.71863 Y23.28374
X46.30024 Y23.43624
X45.78520 Y23.41391
X45.48480 Y23.28948
X45.47748 Y23.26723
X45.71230 Y23.03235
X45.80961 Y23.07332
X46.00936 Y23.11350
X46.21301 Y23.11135
X46.39196 Y23.07332
X46.48919 Y23.03238
X46.72406 Y23.26720
G04 P0 ( dwell for no time -- G64 should not smooth over this point )
G00 Z5.00000 ( retract )

G00 X47.37133 Y22.45892 ( rapid move to begin. )
F300.00000
G01 Z-0.05000
G04 P0 ( dwell for no time -- G64 should not smooth over this point )
F600.00000
G01 X47.37133 Y22.45892
X47.24690 Y22.75928
X47.22465 Y22.76662
X46.99305 Y22.53505
X47.05175 Y22.35615
X47.07522 Y22.15379
X47.05609 Y21.95097
X46.99305 Y21.75171
X47.22465 Y21.52006
X47.24116 Y21.52547
X47.39366 Y21.94389
X47.37133 Y22.45892
G04 P0 ( dwell for no time -- G64 should not smooth over this point )
G00 Z5.00000 ( retract )

G00 X43.01490 Y24.64332 ( rapid move to begin. )
F300.00000
G01 Z-0.05000
G04 P0 ( dwell for no time -- G64 should not smooth over this point )
F600.00000
G01 X43.01490 Y24.64332
X42.10078 Y23.72920
X42.10022 Y22.13289
X42.07619 Y21.92534
X42.01805 Y21.74640
X41.90317 Y21.54744
X41.76177 Y21.39362
X41.59143 Y21.27259
X41.39966 Y21.18961
X41.19484 Y21.14828
X40.98590 Y21.15049
X40.78196 Y21.19606
X40.59197 Y21.28303
X40.43975 Y21.39362
X40.29835 Y21.54744
X40.19197 Y21.72730
X40.12532 Y21.92534
X40.10132 Y22.13289
X40.10078 Y24.14332
X40.13904 Y24.41454
X40.24201 Y24.65422
X40.39367 Y24.85043
X41.89367 Y26.35043
X42.11249 Y26.51515
X42.35478 Y26.61182
X42.60078 Y26.64332
X68.61383 Y26.64248
X68.87197 Y26.60506
X69.08904 Y26.51515
X69.30786 Y26.35043
X75.51496 Y20.14330
X80.18653 Y20.14330
X81.60080 Y21.55755
X81.60080 Y23.72912
X76.38621 Y28.94461
X76.24859 Y29.12114
X76.16116 Y29.30270
X76.10892 Y29.52032
X76.10643 Y29.74410
X76.15377 Y29.96284
X76.24862 Y30.16556
X76.39368 Y30.35042
X86.60079 Y40.55754
X86.60079 Y46.14330
X86.62533 Y46.36134
X86.68347 Y46.54028
X86.78606 Y46.72232
X86.93976 Y46.89306
X87.09198 Y47.00365
X87.28197 Y47.09062
X87.48591 Y47.13619
X87.71562 Y47.13619
X87.91956 Y47.09062
X88.09144 Y47.01409
X88.27729 Y46.87907
X88.41547 Y46.72232
X88.50955 Y46.55938
X88.57620 Y46.36134
X88.60079 Y46.14330
X88.60079 Y40.14332
X88.56249 Y39.87212
X88.45951 Y39.63245
X88.30785 Y39.43626
X78.51491 Y29.64336
X83.30786 Y24.85043
X83.47258 Y24.63161
X83.56925 Y24.38935
X83.60080 Y24.14332
X83.60080 Y21.14330
X83.56250 Y20.87211
X83.45952 Y20.63243
X83.30786 Y20.43622
X81.30784 Y18.43622
X81.08899 Y18.27150
X80.84675 Y18.17486
X80.60078 Y18.14331
X75.10079 Y18.14331
X74.85474 Y18.17486
X74.61248 Y18.27153
X74.39368 Y18.43625
X68.18663 Y24.64332
X43.01490 Y24.64332
G04 P0 ( dwell for no time -- G64 should not smooth over this point )
G00 Z5.00000 ( retract )

G00 X42.10078 Y29.14331 ( rapid move to begin. )
F300.00000
G01 Z-0.05000
G04 P0 ( dwell for no time -- G64 should not smooth over this point )
F600.00000
G01 X42.10078 Y29.14331
X48.68657 Y29.14331
X54.10078 Y34.55753
X54.10078 Y46.14330
X54.12097 Y46.34089
X54.18346 Y46.54028
X54.29834 Y46.73924
X54.43974 Y46.89306
X54.59197 Y47.00365
X54.78196 Y47.09062
X54.98590 Y47.13619
X55.21561 Y47.13619
X55.41955 Y47.09062
X55.60954 Y47.00365
X55.76176 Y46.89306
X55.90317 Y46.73924
X56.00954 Y46.55938
X56.07619 Y46.36134
X56.10078 Y46.14330
X56.10078 Y34.14330
X56.06247 Y33.87211
X55.97256 Y33.65504
X55.81648 Y33.44607
X49.80785 Y27.43625
X49.61166 Y27.28457
X49.37194 Y27.18162
X49.10079 Y27.14332
X41.60078 Y27.14332
X41.32953 Y27.18162
X41.08986 Y27.28459
X40.89367 Y27.43625
X40.39367 Y27.93625
X40.24198 Y28.13249
X40.13904 Y28.37214
X40.10078 Y28.64331
X40.10078 Y31.64331
X40.12098 Y31.84089
X40.18346 Y32.04028
X40.29835 Y32.23924
X40.43975 Y32.39306
X40.59197 Y32.50366
X40.78196 Y32.59063
X41.00670 Y32.63838
X41.21562 Y32.63619
X41.41955 Y32.59063
X41.60954 Y32.50366
X41.77729 Y32.37907
X41.91546 Y32.22233
X42.01805 Y32.04028
X42.08054 Y31.84089
X42.10078 Y31.64331
X42.10078 Y29.14331
G04 P0 ( dwell for no time -- G64 should not smooth over this point )
G00 Z5.00000 ( retract )

G00 X44.83021 Y31.32776 ( rapid move to begin. )
F300.00000
G01 Z-0.05000
G04 P0 ( dwell for no time -- G64 should not smooth over this point )
F600.00000
G01 X44.83021 Y31.32776
X44.95465 Y31.02738
X44.97687 Y31.02007
X45.20852 Y31.25166
X45.14982 Y31.43051
X45.12635 Y31.63287
X45.14548 Y31.83569
X45.20852 Y32.03498
X44.97690 Y32.26662
X44.96039 Y32.26121
X44.80789 Y31.84280
X44.83021 Y31.32776
G04 P0 ( dwell for no time -- G64 should not smooth over this point )
G00 Z5.00000 ( retract )

G00 X46.71670 Y30.49721 ( rapid move to begin. )
F300.00000
G01 Z-0.05000
G04 P0 ( dwell for no time -- G64 should not smooth over this point )
F600.00000
G01 X46.71670 Y30.49721
X46.72404 Y30.51946
X46.48927 Y30.75428
X46.39196 Y30.71334
X46.21301 Y30.67531
X46.00936 Y30.67313
X45.80961 Y30.71334
X45.71233 Y30.75431
X45.47746 Y30.51948
X45.48289 Y30.50295
X45.90131 Y30.35045
X46.41634 Y30.37277
X46.71670 Y30.49721
G04 P0 ( dwell for no time -- G64 should not smooth over this point )
G00 Z5.00000 ( retract )

G00 X47.39366 Y31.44387 ( rapid move to begin. )
F300.00000
G01 Z-0.05000
G04 P0 ( dwell for no time -- G64 should not smooth over this point )
F600.00000
G01 X47.39366 Y31.44387
X47.37133 Y31.95890
X47.24690 Y32.25931
X47.22465 Y32.26662
X46.99302 Y32.03503
X47.05175 Y31.85613
X47.07522 Y31.65377
X47.05609 Y31.45095
X46.99305 Y31.25166
X47.22462 Y31.02004
X47.24116 Y31.02548
X47.39366 Y31.44387
G04 P0 ( dwell for no time -- G64 should not smooth over this point )
G00 Z5.00000 ( retract )

G00 X46.72404 Y32.76718 ( rapid move to begin. )
F300.00000
G01 Z-0.05000
G04 P0 ( dwell for no time -- G64 should not smooth over this point )
F600.00000
G01 X46.72404 Y32.76718
X46.71863 Y32.78372
X46.30024 Y32.93622
X45.78520 Y32.91389
X45.48480 Y32.78946
X45.47748 Y32.76723
X45.71230 Y32.53236
X45.80961 Y32.57330
X46.00936 Y32.61349
X46.21301 Y32.61133
X46.39196 Y32.57330
X46.48919 Y32.53236
X46.72404 Y32.76718
G04 P0 ( dwell for no time -- G64 should not smooth over this point )
G00 Z5.00000 ( retract )

G00 X46.01492 Y47.64333 ( rapid move to begin. )
F300.00000
G01 Z-0.05000
G04 P0 ( dwell for no time -- G64 should not smooth over this point )
F600.00000
G01 X46.01492 Y47.64333
X40.18079 Y41.80920
X40.18079 Y37.14332
X40.15260 Y36.91005
X40.08605 Y36.71983
X39.96909 Y36.52900
X39.81262 Y36.36900
X39.62446 Y36.24779
X39.39225 Y36.16654
X39.18080 Y36.14332
X37.51491 Y36.14332
X37.10079 Y35.72920
X37.10079 Y22.14333
X37.07577 Y21.94691
X37.06587 Y21.22496
X37.01915 Y21.17825
X36.97577 Y21.16835
X36.53993 Y21.16835
X26.10079 Y10.72920
X26.10079 Y8.14330
X26.08054 Y7.94577
X26.01806 Y7.74638
X25.91547 Y7.56434
X25.77729 Y7.40759
X25.60955 Y7.28301
X25.41956 Y7.19604
X25.21562 Y7.15047
X25.00671 Y7.14826
X24.80186 Y7.18958
X24.61009 Y7.27257
X24.43975 Y7.39360
X24.28606 Y7.56434
X24.18347 Y7.74638
X24.12533 Y7.92532
X24.10132 Y8.13286
X24.10079 Y11.14332
X24.13904 Y11.41454
X24.24201 Y11.65422
X24.39368 Y11.85043
X35.10079 Y22.55755
X35.10079 Y36.14332
X35.13229 Y36.38932
X35.22896 Y36.63161
X35.39368 Y36.85043
X36.39368 Y37.85043
X36.61250 Y38.01515
X36.82957 Y38.10507
X37.08773 Y38.14248
X38.18080 Y38.14332
X38.18080 Y42.22332
X38.21905 Y42.49454
X38.32202 Y42.73422
X38.47369 Y42.93043
X44.89369 Y49.35043
X45.11251 Y49.51515
X45.35480 Y49.61183
X45.60080 Y49.64332
X57.60080 Y49.64332
X57.84675 Y49.61183
X58.08904 Y49.51515
X58.30789 Y49.35043
X60.51499 Y47.14330
X82.60080 Y47.14330
X82.81878 Y47.11877
X82.99773 Y47.06062
X83.09788 Y47.00530
X83.36280 Y47.00530
X83.42513 Y46.98351
X83.46280 Y46.90530
X83.46280 Y46.64914
X83.55452 Y46.44224
X83.59585 Y46.23739
X83.59585 Y46.04925
X83.55452 Y45.84442
X83.46280 Y45.63751
X83.45289 Y45.33792
X83.38505 Y45.28382
X83.09783 Y45.28130
X82.99773 Y45.22603
X82.81878 Y45.16789
X82.61124 Y45.14386
X61.10079 Y45.14331
X61.10079 Y35.05051
X62.00798 Y34.14330
X69.60080 Y34.14330
X69.87197 Y34.10505
X70.08904 Y34.01513
X70.29803 Y33.85905
X77.80785 Y26.35043
X77.95951 Y26.15421
X78.06248 Y25.91454
X78.10078 Y25.64332
X78.10078 Y22.15031
X78.07620 Y21.93233
X77.98184 Y21.68630
X77.97193 Y21.32588
X77.90409 Y21.27178
X77.56832 Y21.26926
X77.39967 Y21.19659
X77.19484 Y21.15527
X76.98590 Y21.15748
X76.80185 Y21.19659
X76.63325 Y21.26926
X76.31974 Y21.26926
X76.24153 Y21.30693
X76.21974 Y21.36926
X76.21974 Y21.68618
X76.12532 Y21.93233
X76.10079 Y22.15031
X76.10079 Y25.22915
X69.18663 Y32.14331
X61.59378 Y32.14331
X61.34773 Y32.17485
X61.12787 Y32.26225
X60.79046 Y32.26477
X60.75037 Y32.28407
X60.71522 Y32.34000
X60.71273 Y32.61016
X59.38502 Y33.93909
X59.22894 Y34.14810
X59.13905 Y34.36515
X59.10080 Y34.63632
X59.10080 Y45.72911
X57.18660 Y47.64333
X46.01492 Y47.64333
G04 P0 ( dwell for no time -- G64 should not smooth over this point )
G00 Z5.00000 ( retract )

G00 X30.93123 Y33.13337 ( rapid move to begin. )
F300.00000
G01 Z-0.05000
G04 P0 ( dwell for no time -- G64 should not smooth over this point )
F600.00000
G01 X30.93123 Y33.13337
X30.63834 Y33.49695
X30.24322 Y33.71285
X30.22478 Y33.70261
X30.22478 Y33.38979
X30.42163 Y33.27406
X30.55028 Y33.14894
X30.64129 Y33.01818
X30.72001 Y32.83477
X30.75206 Y32.67871
X30.75450 Y32.57732
X31.06618 Y32.57732
X31.06618 Y32.67328
X30.93123 Y33.13337
G04 P0 ( dwell for no time -- G64 should not smooth over this point )
G00 Z5.00000 ( retract )

G00 X30.93116 Y31.31331 ( rapid move to begin. )
F300.00000
G01 Z-0.05000
G04 P0 ( dwell for no time -- G64 should not smooth over this point )
F600.00000
G01 X30.93116 Y31.31331
X31.06618 Y31.77338
X31.06618 Y31.86932
X30.75816 Y31.86932
X30.73746 Y31.67930
X30.68178 Y31.50869
X30.60446 Y31.36939
X30.47444 Y31.21796
X30.34845 Y31.12045
X30.22478 Y31.05751
X30.22478 Y30.74412
X30.24320 Y30.73386
X30.63827 Y30.94968
X30.93116 Y31.31331
G04 P0 ( dwell for no time -- G64 should not smooth over this point )
G00 Z5.00000 ( retract )

G00 X28.20678 Y31.75052 ( rapid move to begin. )
F300.00000
G01 Z-0.05000
G04 P0 ( dwell for no time -- G64 should not smooth over this point )
F600.00000
G01 X28.20678 Y31.75052
X28.14178 Y31.50869
X28.05290 Y31.35278
X27.94912 Y31.23190
X27.79131 Y31.10975
X27.64828 Y31.03957
X27.47505 Y30.99261
X27.27574 Y30.98250
X27.11826 Y31.00663
X26.94927 Y31.06706
X26.77991 Y31.17259
X26.65126 Y31.29771
X26.56025 Y31.42847
X26.48760 Y31.59258
X26.45268 Y31.75410
X26.41346 Y31.82639
X26.35532 Y32.00533
X26.33132 Y32.21288
X26.33078 Y34.37332
X26.36228 Y34.61932
X26.45895 Y34.86161
X26.61504 Y35.07061
X27.60078 Y36.05755
X27.60078 Y36.72331
X27.63228 Y36.96931
X27.72895 Y37.21160
X27.88504 Y37.42059
X28.31369 Y37.85043
X28.48519 Y37.98724
X28.65283 Y38.07266
X28.85412 Y38.12884
X29.08353 Y38.14088
X29.28953 Y38.10603
X29.48384 Y38.02912
X29.65785 Y37.91348
X29.80406 Y37.76420
X29.91604 Y37.58777
X29.98887 Y37.39194
X30.01831 Y37.20611
X30.00954 Y36.99732
X29.95757 Y36.79494
X29.86466 Y36.60776
X29.73487 Y36.44403
X29.60078 Y36.30919
X29.59992 Y35.63027
X29.56923 Y35.39733
X29.47256 Y35.15506
X29.30784 Y34.93626
X28.33078 Y33.95920
X28.33022 Y32.21288
X28.30619 Y32.00533
X28.24805 Y31.82639
X28.20678 Y31.75052
G04 P0 ( dwell for no time -- G64 should not smooth over this point )
G00 Z5.00000 ( retract )

G00 X26.02278 Y32.24554 ( rapid move to begin. )
F300.00000
G01 Z-0.05000
G04 P0 ( dwell for no time -- G64 should not smooth over this point )
F600.00000
G01 X26.02278 Y32.24554
X26.12639 Y31.72451
X26.18499 Y31.60574
X26.23043 Y31.37719
X26.48862 Y30.99081
X26.87500 Y30.73262
X27.33073 Y30.64194
X27.78646 Y30.73256
X28.17287 Y30.99076
X28.43718 Y31.37930
X28.49621 Y31.42339
X28.59494 Y31.44877
X28.67373 Y31.43665
X28.76019 Y31.38303
X29.10324 Y30.94968
X29.49829 Y30.73383
X29.51678 Y30.74410
X29.51678 Y31.05685
X29.33591 Y31.16020
X29.20444 Y31.28237
X29.10025 Y31.42847
X29.02153 Y31.61189
X28.98745 Y31.78755
X28.98338 Y32.57841
X29.00408 Y32.76736
X29.05976 Y32.93797
X29.13708 Y33.07726
X29.26710 Y33.22870
X29.39308 Y33.32621
X29.51678 Y33.38918
X29.51678 Y33.70256
X29.49832 Y33.71285
X29.10332 Y33.49702
X28.97317 Y33.36446
X28.85389 Y33.33769
X28.73304 Y33.38029
X28.66654 Y33.45595
X28.63939 Y33.55290
X28.63878 Y33.73749
X28.66337 Y33.83924
X28.70525 Y33.89801
X29.50977 Y34.70253
X29.80507 Y35.14449
X29.90878 Y35.66578
X29.91531 Y36.15374
X29.94701 Y36.22836
X30.22509 Y36.64452
X30.32435 Y37.14335
X30.22514 Y37.64213
X29.94254 Y38.06504
X29.51960 Y38.34766
X29.02077 Y38.44693
X28.52197 Y38.34771
X28.08001 Y38.05239
X27.69177 Y37.66415
X27.39644 Y37.22219
X27.29278 Y36.70116
X27.29278 Y36.27914
X27.26809 Y36.17736
X27.22626 Y36.11866
X26.42177 Y35.31414
X26.12644 Y34.87218
X26.02278 Y34.35118
X26.02278 Y32.24554
G04 P0 ( dwell for no time -- G64 should not smooth over this point )
G00 Z5.00000 ( retract )

G00 X22.72480 Y31.05751 ( rapid move to begin. )
F300.00000
G01 Z-0.05000
G04 P0 ( dwell for no time -- G64 should not smooth over this point )
F600.00000
G01 X22.72480 Y31.05751
X22.72480 Y30.74412
X22.74321 Y30.73386
X23.13831 Y30.94971
X23.43120 Y31.31326
X23.56620 Y31.77338
X23.56620 Y31.86932
X23.25817 Y31.86932
X23.23747 Y31.67930
X23.18179 Y31.50869
X23.10448 Y31.36939
X22.97445 Y31.21796
X22.84847 Y31.12045
X22.72480 Y31.05751
G04 P0 ( dwell for no time -- G64 should not smooth over this point )
G00 Z5.00000 ( retract )

G00 X22.72480 Y33.70261 ( rapid move to begin. )
F300.00000
G01 Z-0.05000
G04 P0 ( dwell for no time -- G64 should not smooth over this point )
F600.00000
G01 X22.72480 Y33.70261
X22.72480 Y33.38979
X22.92165 Y33.27406
X23.05030 Y33.14894
X23.14131 Y33.01818
X23.22002 Y32.83477
X23.25208 Y32.67871
X23.25451 Y32.57732
X23.56620 Y32.57732
X23.56620 Y32.67328
X23.43125 Y33.13337
X23.13833 Y33.49695
X22.74324 Y33.71282
X22.72480 Y33.70261
G04 P0 ( dwell for no time -- G64 should not smooth over this point )
G00 Z5.00000 ( retract )

G00 X18.83080 Y38.64332 ( rapid move to begin. )
F300.00000
G01 Z-0.05000
G04 P0 ( dwell for no time -- G64 should not smooth over this point )
F600.00000
G01 X18.83080 Y38.64332
X16.52080 Y38.64332
X16.32321 Y38.66356
X16.12382 Y38.72605
X15.94178 Y38.82864
X15.78503 Y38.96681
X15.66045 Y39.13455
X15.57348 Y39.32455
X15.52573 Y39.54926
X15.52791 Y39.75820
X15.57348 Y39.96214
X15.66045 Y40.15213
X15.77104 Y40.30435
X15.92486 Y40.44575
X16.12382 Y40.56064
X16.32321 Y40.62312
X16.52080 Y40.64331
X19.60080 Y40.64331
X19.87197 Y40.60506
X20.11164 Y40.50209
X20.30786 Y40.35043
X20.53786 Y40.12043
X20.70258 Y39.90161
X20.79925 Y39.65934
X20.83079 Y39.41332
X20.83024 Y32.21288
X20.80621 Y32.00533
X20.74807 Y31.82639
X20.70679 Y31.75052
X20.64977 Y31.52728
X20.55292 Y31.35278
X20.43445 Y31.21796
X20.29132 Y31.10975
X20.12930 Y31.03254
X19.95508 Y30.98956
X19.77576 Y30.98250
X19.59869 Y31.01171
X19.43113 Y31.07595
X19.27992 Y31.17259
X19.15127 Y31.29771
X19.05046 Y31.44618
X18.98762 Y31.59258
X18.95269 Y31.75410
X18.91348 Y31.82639
X18.85099 Y32.02578
X18.83080 Y32.22332
X18.83080 Y38.64332
G04 P0 ( dwell for no time -- G64 should not smooth over this point )
G00 Z5.00000 ( retract )

G00 X15.31640 Y39.14454 ( rapid move to begin. )
F300.00000
G01 Z-0.05000
G04 P0 ( dwell for no time -- G64 should not smooth over this point )
F600.00000
G01 X15.31640 Y39.14454
X15.59900 Y38.72163
X16.02191 Y38.43903
X16.54320 Y38.33532
X18.30695 Y38.33471
X18.42811 Y38.29234
X18.50456 Y38.19648
X18.52280 Y38.10832
X18.52280 Y32.24554
X18.62641 Y31.72454
X18.68498 Y31.60577
X18.73044 Y31.37719
X18.98861 Y30.99083
X19.37502 Y30.73262
X19.83075 Y30.64194
X20.28647 Y30.73256
X20.67286 Y30.99076
X20.95363 Y31.39477
X21.02246 Y31.43495
X21.12350 Y31.44765
X21.19465 Y31.42835
X21.26026 Y31.38296
X21.60321 Y30.94973
X21.99833 Y30.73386
X22.01680 Y30.74410
X22.01680 Y31.05685
X21.83592 Y31.16020
X21.70445 Y31.28237
X21.60026 Y31.42847
X21.52155 Y31.61189
X21.48746 Y31.78755
X21.48340 Y32.57841
X21.50410 Y32.76736
X21.55977 Y32.93797
X21.63709 Y33.07726
X21.76712 Y33.22870
X21.89310 Y33.32621
X22.01680 Y33.38918
X22.01680 Y33.70256
X21.99833 Y33.71285
X21.60323 Y33.49700
X21.49739 Y33.37952
X21.40443 Y33.34071
X21.32571 Y33.34094
X21.23308 Y33.38026
X21.16661 Y33.45583
X21.14258 Y33.52461
X21.13880 Y39.39089
X21.03514 Y39.91212
X20.73981 Y40.35406
X20.54149 Y40.55241
X20.09961 Y40.84766
X19.57860 Y40.95132
X16.54297 Y40.95132
X16.02197 Y40.84771
X15.59906 Y40.56511
X15.31645 Y40.14220
X15.21719 Y39.64334
X15.31640 Y39.14454
G04 P0 ( dwell for no time -- G64 should not smooth over this point )
G00 Z5.00000 ( retract )

G00 X58.10080 Y12.22920 ( rapid move to begin. )
F300.00000
G01 Z-0.05000
G04 P0 ( dwell for no time -- G64 should not smooth over this point )
F600.00000
G01 X58.10080 Y12.22920
X54.30784 Y8.43627
X54.08902 Y8.27152
X53.84673 Y8.17488
X53.61384 Y8.14419
X42.10078 Y8.14333
X41.85473 Y8.17488
X41.61247 Y8.27155
X41.40350 Y8.42763
X40.39367 Y9.43627
X40.22893 Y9.65511
X40.13904 Y9.87215
X40.10162 Y10.13029
X40.10078 Y12.64332
X40.12098 Y12.84091
X40.19197 Y13.05940
X40.28605 Y13.22234
X40.42423 Y13.37908
X40.59197 Y13.50367
X40.80185 Y13.59709
X40.98590 Y13.63621
X41.19484 Y13.63839
X41.41955 Y13.59064
X41.60954 Y13.50367
X41.76177 Y13.39308
X41.90317 Y13.23925
X42.00954 Y13.05940
X42.07619 Y12.86135
X42.10078 Y12.64332
X42.10078 Y10.55750
X42.51495 Y10.14332
X53.18656 Y10.14332
X57.40205 Y14.35792
X57.57855 Y14.49549
X57.76013 Y14.58294
X57.97774 Y14.63519
X58.20154 Y14.63768
X58.44141 Y14.58294
X58.64192 Y14.48358
X58.80786 Y14.35043
X62.51496 Y10.64332
X74.61123 Y10.64279
X74.81877 Y10.61879
X75.01682 Y10.55214
X75.19668 Y10.44576
X75.35050 Y10.30436
X75.47153 Y10.13403
X75.55451 Y9.94226
X75.59584 Y9.73741
X75.59363 Y9.52849
X75.54806 Y9.32456
X75.47153 Y9.15267
X75.33650 Y8.96682
X75.17976 Y8.82865
X74.99772 Y8.72606
X74.81877 Y8.66792
X74.61123 Y8.64389
X62.10079 Y8.64333
X61.85474 Y8.67487
X61.61248 Y8.77155
X61.39368 Y8.93627
X58.10080 Y12.22920

G04 P0 ( dwell for no time -- G64 should not smooth over this point )
G00 Z10.000 ( retract )

M5 ( Spindle off. )
M9 ( Coolant off. )
M2 ( Program end. )

