( pcb2gcode 1.3.2 )
( Software-independent Gcode )

G94 ( Millimeters per minute feed rate. )
G21 ( Units == Millimeters. )

G90 ( Absolute coordinates. )
S10000 ( RPM spindle speed. )
F600.00000 ( Feedrate. )

F600.00000 ( Feedrate. )
M3 ( Spindle on clockwise. )
G04 P0 ( dwell for no time -- G64 should not smooth over this point )
G00 Z5.00000 ( retract )

G00 X1.11605 Y0.08490 ( rapid move to begin. )
G01 Z-0.83333 F300.00000 ( plunge. )
G04 P0 ( dwell for no time -- G64 should not smooth over this point )
F600.00000
G01 X1.11605 Y0.08490
X1.08882 Y0.15335
X1.11890 Y0.22501
X1.19080 Y0.25528
X1.26248 Y0.22516
X1.29271 Y0.16377
X1.28834 Y0.12242
X1.26266 Y0.08167
X1.19075 Y0.05140
X1.11605 Y0.08490
G01 Z-1.66667 F300.00000 ( plunge. )
G04 P0 ( dwell for no time -- G64 should not smooth over this point )
F600.00000
G01 X1.11605 Y0.08490
X1.08882 Y0.15335
X1.11890 Y0.22501
X1.19080 Y0.25528
X1.26248 Y0.22516
X1.29271 Y0.16377
X1.28834 Y0.12242
X1.26266 Y0.08167
X1.19075 Y0.05140
X1.11605 Y0.08490
G01 Z-2.50000 F300.00000 ( plunge. )
G04 P0 ( dwell for no time -- G64 should not smooth over this point )
F600.00000
G01 X1.11605 Y0.08490
X1.08882 Y0.15335
X1.11890 Y0.22501
X1.19080 Y0.25528
X1.26248 Y0.22516
X1.29271 Y0.16377
X1.28834 Y0.12242
X1.26266 Y0.08167
X1.19075 Y0.05140
X1.11605 Y0.08490
G04 P0 ( dwell for no time -- G64 should not smooth over this point )
G00 Z5.00000 ( retract )

G00 X90.64879 Y3.25246 ( rapid move to begin. )
G01 Z-0.83333 F300.00000 ( plunge. )
G04 P0 ( dwell for no time -- G64 should not smooth over this point )
F600.00000
G01 X90.64879 Y3.25246
X90.63307 Y3.19371
X90.59588 Y3.14250
X90.53335 Y3.10389
X90.47378 Y3.09333
X0.22779 Y3.09333
X0.14608 Y3.11360
X0.07102 Y3.18865
X0.05080 Y3.27031
X0.05080 Y51.01632
X0.07102 Y51.09803
X0.14608 Y51.17309
X0.22779 Y51.19331
X90.47378 Y51.19331
X90.55545 Y51.17309
X90.63050 Y51.09803
X90.65075 Y51.01632
X90.64879 Y3.25246
G01 Z-1.66667 F300.00000 ( plunge. )
G04 P0 ( dwell for no time -- G64 should not smooth over this point )
F600.00000
G01 X90.64879 Y3.25246
X90.63307 Y3.19371
X90.59588 Y3.14250
X90.53335 Y3.10389
X90.47378 Y3.09333
X0.22779 Y3.09333
X0.14608 Y3.11360
X0.07102 Y3.18865
X0.05080 Y3.27031
X0.05080 Y51.01632
X0.07102 Y51.09803
X0.14608 Y51.17309
X0.22779 Y51.19331
X90.47378 Y51.19331
X90.55545 Y51.17309
X90.63050 Y51.09803
X90.65075 Y51.01632
X90.64879 Y3.25246
G01 Z-2.50000 F300.00000 ( plunge. )
G04 P0 ( dwell for no time -- G64 should not smooth over this point )
F600.00000
G01 X90.64879 Y3.25246
X90.63307 Y3.19371
X90.59588 Y3.14250
X90.53335 Y3.10389
X90.47378 Y3.09333
X0.22779 Y3.09333
X0.14608 Y3.11360
X0.07102 Y3.18865
X0.05080 Y3.27031
X0.05080 Y51.01632
X0.07102 Y51.09803
X0.14608 Y51.17309
X0.22779 Y51.19331
X90.47378 Y51.19331
X90.55545 Y51.17309
X90.63050 Y51.09803
X90.65075 Y51.01632
X90.64879 Y3.25246

G04 P0 ( dwell for no time -- G64 should not smooth over this point )
G00 Z10.000 ( retract )

M5 ( Spindle off. )
M9 ( Coolant off. )
M2 ( Program end. )

